(Generated by PartKam Version 0.05)

G20 G90 G40

(follow path 1)
G0 Z0.2
T0 M6
G17
M3
G0 X0.6223 Y0.7374
G1 Z-0.06 F20
G3 X1.259 Y0.7663 I-0.0044 J7.1264 F40
G3 X1.8564 Y0.8489 I-0.574 J6.3541
G3 X2.4428 Y0.9886 I-1.1265 J6.0312
G3 X3.0013 Y1.1818 I-1.6461 J5.6617
G3 X3.5376 Y1.4299 I-2.2045 J5.4685
G3 X4.0569 Y1.736 I-2.8521 J5.4323
G3 X4.5445 Y2.0908 I-3.5058 J5.3305
G3 X5.0233 Y2.5116 I-4.4606 J5.5577
G3 X5.4625 Y2.9735 I-4.9394 J5.137
G3 X5.8362 Y3.4469 I-4.8153 J4.1854
G3 X6.1624 Y3.9538 I-4.99 J3.5698
G3 X6.4314 Y4.4799 I-5.1089 J2.9434
G3 X6.6463 Y5.0304 I-5.3779 J2.4173
G3 X6.8089 Y5.6109 I-5.8198 J1.9426
G3 X6.9148 Y6.2046 I-6.2208 J1.4164
G3 X6.9687 Y6.8397 I-7.0669 J0.9189
G1 X6.0396 Y6.8397
G2 X5.99 Y6.3004 I-6.0777 J0.2868
G2 X5.8966 Y5.7962 I-5.4034 J0.7405
G2 X5.7554 Y5.3035 I-5.1088 J1.1975
G2 X5.57 Y4.8364 I-4.7762 J1.625
G2 X5.3391 Y4.3901 I-4.5908 J2.0921
G2 X5.0599 Y3.9603 I-4.5347 J2.6402
G2 X4.7407 Y3.559 I-4.423 J3.1909
G2 X4.3662 Y3.1678 I-4.5782 J4.0075
G2 X3.9584 Y2.8114 I-4.2038 J4.3987
G2 X3.5431 Y2.5107 I-3.4026 J4.2623
G2 X3.1011 Y2.2512 I-2.8741 J4.3902
G2 X2.6448 Y2.0408 I-2.3384 J4.4704
G2 X2.1697 Y1.8768 I-1.882 J4.6809
G2 X1.6711 Y1.758 I-1.4634 J5.0391
G2 X1.1633 Y1.6876 I-1.0028 J5.3609
G2 X0.6223 Y1.6625 I-0.5521 J6.0593
G1 X0.6223 Y1.3639
G1 X0.8046 Y1.3639
G1 X0.8046 Y1.042
G1 X0.6223 Y1.042
G1 X0.6223 Y0.7374
G0 Z0.2
G0 X0.6223 Y0.7374
G1 Z-0.12 F20
G3 X1.259 Y0.7663 I-0.0044 J7.1264 F40
G3 X1.8564 Y0.8489 I-0.574 J6.3541
G3 X2.4428 Y0.9886 I-1.1265 J6.0312
G3 X3.0013 Y1.1818 I-1.6461 J5.6617
G3 X3.5376 Y1.4299 I-2.2045 J5.4685
G3 X4.0569 Y1.736 I-2.8521 J5.4323
G3 X4.5445 Y2.0908 I-3.5058 J5.3305
G3 X5.0233 Y2.5116 I-4.4606 J5.5577
G3 X5.4625 Y2.9735 I-4.9394 J5.137
G3 X5.8362 Y3.4469 I-4.8153 J4.1854
G3 X6.1624 Y3.9538 I-4.99 J3.5698
G3 X6.4314 Y4.4799 I-5.1089 J2.9434
G3 X6.6463 Y5.0304 I-5.3779 J2.4173
G3 X6.8089 Y5.6109 I-5.8198 J1.9426
G3 X6.9148 Y6.2046 I-6.2208 J1.4164
G3 X6.9687 Y6.8397 I-7.0669 J0.9189
G1 X6.0396 Y6.8397
G2 X5.99 Y6.3004 I-6.0777 J0.2868
G2 X5.8966 Y5.7962 I-5.4034 J0.7405
G2 X5.7554 Y5.3035 I-5.1088 J1.1975
G2 X5.57 Y4.8364 I-4.7762 J1.625
G2 X5.3391 Y4.3901 I-4.5908 J2.0921
G2 X5.0599 Y3.9603 I-4.5347 J2.6402
G2 X4.7407 Y3.559 I-4.423 J3.1909
G2 X4.3662 Y3.1678 I-4.5782 J4.0075
G2 X3.9584 Y2.8114 I-4.2038 J4.3987
G2 X3.5431 Y2.5107 I-3.4026 J4.2623
G2 X3.1011 Y2.2512 I-2.8741 J4.3902
G2 X2.6448 Y2.0408 I-2.3384 J4.4704
G2 X2.1697 Y1.8768 I-1.882 J4.6809
G2 X1.6711 Y1.758 I-1.4634 J5.0391
G2 X1.1633 Y1.6876 I-1.0028 J5.3609
G2 X0.6223 Y1.6625 I-0.5521 J6.0593
G1 X0.6223 Y1.3639
G1 X0.8046 Y1.3639
G1 X0.8046 Y1.042
G1 X0.6223 Y1.042
G1 X0.6223 Y0.7374
G0 Z0.2
G0 X0.6223 Y0.7374
G1 Z-0.18 F20
G3 X1.259 Y0.7663 I-0.0044 J7.1264 F40
G3 X1.8564 Y0.8489 I-0.574 J6.3541
G3 X2.4428 Y0.9886 I-1.1265 J6.0312
G3 X3.0013 Y1.1818 I-1.6461 J5.6617
G3 X3.5376 Y1.4299 I-2.2045 J5.4685
G3 X4.0569 Y1.736 I-2.8521 J5.4323
G3 X4.5445 Y2.0908 I-3.5058 J5.3305
G3 X5.0233 Y2.5116 I-4.4606 J5.5577
G3 X5.4625 Y2.9735 I-4.9394 J5.137
G3 X5.8362 Y3.4469 I-4.8153 J4.1854
G3 X6.1624 Y3.9538 I-4.99 J3.5698
G3 X6.4314 Y4.4799 I-5.1089 J2.9434
G3 X6.6463 Y5.0304 I-5.3779 J2.4173
G3 X6.8089 Y5.6109 I-5.8198 J1.9426
G3 X6.9148 Y6.2046 I-6.2208 J1.4164
G3 X6.9687 Y6.8397 I-7.0669 J0.9189
G1 X6.0396 Y6.8397
G2 X5.99 Y6.3004 I-6.0777 J0.2868
G2 X5.8966 Y5.7962 I-5.4034 J0.7405
G2 X5.7554 Y5.3035 I-5.1088 J1.1975
G2 X5.57 Y4.8364 I-4.7762 J1.625
G2 X5.3391 Y4.3901 I-4.5908 J2.0921
G2 X5.0599 Y3.9603 I-4.5347 J2.6402
G2 X4.7407 Y3.559 I-4.423 J3.1909
G2 X4.3662 Y3.1678 I-4.5782 J4.0075
G2 X3.9584 Y2.8114 I-4.2038 J4.3987
G2 X3.5431 Y2.5107 I-3.4026 J4.2623
G2 X3.1011 Y2.2512 I-2.8741 J4.3902
G2 X2.6448 Y2.0408 I-2.3384 J4.4704
G2 X2.1697 Y1.8768 I-1.882 J4.6809
G2 X1.6711 Y1.758 I-1.4634 J5.0391
G2 X1.1633 Y1.6876 I-1.0028 J5.3609
G2 X0.6223 Y1.6625 I-0.5521 J6.0593
G1 X0.6223 Y1.3639
G1 X0.8046 Y1.3639
G1 X0.8046 Y1.042
G1 X0.6223 Y1.042
G1 X0.6223 Y0.7374
G0 Z0.2
G0 X0.6223 Y0.7374
G1 Z-0.24 F20
G3 X1.259 Y0.7663 I-0.0044 J7.1264 F40
G3 X1.8564 Y0.8489 I-0.574 J6.3541
G3 X2.4428 Y0.9886 I-1.1265 J6.0312
G3 X3.0013 Y1.1818 I-1.6461 J5.6617
G3 X3.5376 Y1.4299 I-2.2045 J5.4685
G3 X4.0569 Y1.736 I-2.8521 J5.4323
G3 X4.5445 Y2.0908 I-3.5058 J5.3305
G3 X5.0233 Y2.5116 I-4.4606 J5.5577
G3 X5.4625 Y2.9735 I-4.9394 J5.137
G3 X5.8362 Y3.4469 I-4.8153 J4.1854
G3 X6.1624 Y3.9538 I-4.99 J3.5698
G3 X6.4314 Y4.4799 I-5.1089 J2.9434
G3 X6.6463 Y5.0304 I-5.3779 J2.4173
G3 X6.8089 Y5.6109 I-5.8198 J1.9426
G3 X6.9148 Y6.2046 I-6.2208 J1.4164
G3 X6.9687 Y6.8397 I-7.0669 J0.9189
G1 X6.0396 Y6.8397
G2 X5.99 Y6.3004 I-6.0777 J0.2868
G2 X5.8966 Y5.7962 I-5.4034 J0.7405
G2 X5.7554 Y5.3035 I-5.1088 J1.1975
G2 X5.57 Y4.8364 I-4.7762 J1.625
G2 X5.3391 Y4.3901 I-4.5908 J2.0921
G2 X5.0599 Y3.9603 I-4.5347 J2.6402
G2 X4.7407 Y3.559 I-4.423 J3.1909
G2 X4.3662 Y3.1678 I-4.5782 J4.0075
G2 X3.9584 Y2.8114 I-4.2038 J4.3987
G2 X3.5431 Y2.5107 I-3.4026 J4.2623
G2 X3.1011 Y2.2512 I-2.8741 J4.3902
G2 X2.6448 Y2.0408 I-2.3384 J4.4704
G2 X2.1697 Y1.8768 I-1.882 J4.6809
G2 X1.6711 Y1.758 I-1.4634 J5.0391
G2 X1.1633 Y1.6876 I-1.0028 J5.3609
G2 X0.6223 Y1.6625 I-0.5521 J6.0593
G1 X0.6223 Y1.3639
G1 X0.8046 Y1.3639
G1 X0.8046 Y1.042
G1 X0.6223 Y1.042
G1 X0.6223 Y0.7374
G0 Z0.2
G0 X0.6223 Y0.7374
G1 Z-0.3 F20
G3 X1.259 Y0.7663 I-0.0044 J7.1264 F40
G3 X1.8564 Y0.8489 I-0.574 J6.3541
G3 X2.4428 Y0.9886 I-1.1265 J6.0312
G3 X3.0013 Y1.1818 I-1.6461 J5.6617
G3 X3.5376 Y1.4299 I-2.2045 J5.4685
G3 X4.0569 Y1.736 I-2.8521 J5.4323
G3 X4.5445 Y2.0908 I-3.5058 J5.3305
G3 X5.0233 Y2.5116 I-4.4606 J5.5577
G3 X5.4625 Y2.9735 I-4.9394 J5.137
G3 X5.8362 Y3.4469 I-4.8153 J4.1854
G3 X6.1624 Y3.9538 I-4.99 J3.5698
G3 X6.4314 Y4.4799 I-5.1089 J2.9434
G3 X6.6463 Y5.0304 I-5.3779 J2.4173
G3 X6.8089 Y5.6109 I-5.8198 J1.9426
G3 X6.9148 Y6.2046 I-6.2208 J1.4164
G3 X6.9687 Y6.8397 I-7.0669 J0.9189
G1 X6.0396 Y6.8397
G2 X5.99 Y6.3004 I-6.0777 J0.2868
G2 X5.8966 Y5.7962 I-5.4034 J0.7405
G2 X5.7554 Y5.3035 I-5.1088 J1.1975
G2 X5.57 Y4.8364 I-4.7762 J1.625
G2 X5.3391 Y4.3901 I-4.5908 J2.0921
G2 X5.0599 Y3.9603 I-4.5347 J2.6402
G2 X4.7407 Y3.559 I-4.423 J3.1909
G2 X4.3662 Y3.1678 I-4.5782 J4.0075
G2 X3.9584 Y2.8114 I-4.2038 J4.3987
G2 X3.5431 Y2.5107 I-3.4026 J4.2623
G2 X3.1011 Y2.2512 I-2.8741 J4.3902
G2 X2.6448 Y2.0408 I-2.3384 J4.4704
G2 X2.1697 Y1.8768 I-1.882 J4.6809
G2 X1.6711 Y1.758 I-1.4634 J5.0391
G2 X1.1633 Y1.6876 I-1.0028 J5.3609
G2 X0.6223 Y1.6625 I-0.5521 J6.0593
G1 X0.6223 Y1.3639
G1 X0.8046 Y1.3639
G1 X0.8046 Y1.042
G1 X0.6223 Y1.042
G1 X0.6223 Y0.7374
G0 Z0.2
G0 X0.6223 Y0.7374
G1 Z-0.36 F20
G3 X1.259 Y0.7663 I-0.0044 J7.1264 F40
G3 X1.8564 Y0.8489 I-0.574 J6.3541
G3 X2.4428 Y0.9886 I-1.1265 J6.0312
G3 X3.0013 Y1.1818 I-1.6461 J5.6617
G3 X3.5376 Y1.4299 I-2.2045 J5.4685
G3 X4.0569 Y1.736 I-2.8521 J5.4323
G3 X4.5445 Y2.0908 I-3.5058 J5.3305
G3 X5.0233 Y2.5116 I-4.4606 J5.5577
G3 X5.4625 Y2.9735 I-4.9394 J5.137
G3 X5.8362 Y3.4469 I-4.8153 J4.1854
G3 X6.1624 Y3.9538 I-4.99 J3.5698
G3 X6.4314 Y4.4799 I-5.1089 J2.9434
G3 X6.6463 Y5.0304 I-5.3779 J2.4173
G3 X6.8089 Y5.6109 I-5.8198 J1.9426
G3 X6.9148 Y6.2046 I-6.2208 J1.4164
G3 X6.9687 Y6.8397 I-7.0669 J0.9189
G1 X6.0396 Y6.8397
G2 X5.99 Y6.3004 I-6.0777 J0.2868
G2 X5.8966 Y5.7962 I-5.4034 J0.7405
G2 X5.7554 Y5.3035 I-5.1088 J1.1975
G2 X5.57 Y4.8364 I-4.7762 J1.625
G2 X5.3391 Y4.3901 I-4.5908 J2.0921
G2 X5.0599 Y3.9603 I-4.5347 J2.6402
G2 X4.7407 Y3.559 I-4.423 J3.1909
G2 X4.3662 Y3.1678 I-4.5782 J4.0075
G2 X3.9584 Y2.8114 I-4.2038 J4.3987
G2 X3.5431 Y2.5107 I-3.4026 J4.2623
G2 X3.1011 Y2.2512 I-2.8741 J4.3902
G2 X2.6448 Y2.0408 I-2.3384 J4.4704
G2 X2.1697 Y1.8768 I-1.882 J4.6809
G2 X1.6711 Y1.758 I-1.4634 J5.0391
G2 X1.1633 Y1.6876 I-1.0028 J5.3609
G2 X0.6223 Y1.6625 I-0.5521 J6.0593
G1 X0.6223 Y1.3639
G1 X0.8046 Y1.3639
G1 X0.8046 Y1.042
G1 X0.6223 Y1.042
G1 X0.6223 Y0.7374
G0 Z0.2
G0 X0.6223 Y0.7374
G1 Z-0.42 F20
G3 X1.259 Y0.7663 I-0.0044 J7.1264 F40
G3 X1.8564 Y0.8489 I-0.574 J6.3541
G3 X2.4428 Y0.9886 I-1.1265 J6.0312
G3 X3.0013 Y1.1818 I-1.6461 J5.6617
G3 X3.5376 Y1.4299 I-2.2045 J5.4685
G3 X4.0569 Y1.736 I-2.8521 J5.4323
G3 X4.5445 Y2.0908 I-3.5058 J5.3305
G3 X5.0233 Y2.5116 I-4.4606 J5.5577
G3 X5.4625 Y2.9735 I-4.9394 J5.137
G3 X5.8362 Y3.4469 I-4.8153 J4.1854
G3 X6.1624 Y3.9538 I-4.99 J3.5698
G3 X6.4314 Y4.4799 I-5.1089 J2.9434
G3 X6.6463 Y5.0304 I-5.3779 J2.4173
G3 X6.8089 Y5.6109 I-5.8198 J1.9426
G3 X6.9148 Y6.2046 I-6.2208 J1.4164
G3 X6.9687 Y6.8397 I-7.0669 J0.9189
G1 X6.0396 Y6.8397
G2 X5.99 Y6.3004 I-6.0777 J0.2868
G2 X5.8966 Y5.7962 I-5.4034 J0.7405
G2 X5.7554 Y5.3035 I-5.1088 J1.1975
G2 X5.57 Y4.8364 I-4.7762 J1.625
G2 X5.3391 Y4.3901 I-4.5908 J2.0921
G2 X5.0599 Y3.9603 I-4.5347 J2.6402
G2 X4.7407 Y3.559 I-4.423 J3.1909
G2 X4.3662 Y3.1678 I-4.5782 J4.0075
G2 X3.9584 Y2.8114 I-4.2038 J4.3987
G2 X3.5431 Y2.5107 I-3.4026 J4.2623
G2 X3.1011 Y2.2512 I-2.8741 J4.3902
G2 X2.6448 Y2.0408 I-2.3384 J4.4704
G2 X2.1697 Y1.8768 I-1.882 J4.6809
G2 X1.6711 Y1.758 I-1.4634 J5.0391
G2 X1.1633 Y1.6876 I-1.0028 J5.3609
G2 X0.6223 Y1.6625 I-0.5521 J6.0593
G1 X0.6223 Y1.3639
G1 X0.8046 Y1.3639
G1 X0.8046 Y1.042
G1 X0.6223 Y1.042
G1 X0.6223 Y0.7374
G0 Z0.2
G0 X0.6223 Y0.7374
G1 Z-0.48 F20
G3 X1.259 Y0.7663 I-0.0044 J7.1264 F40
G3 X1.8564 Y0.8489 I-0.574 J6.3541
G3 X2.4428 Y0.9886 I-1.1265 J6.0312
G3 X3.0013 Y1.1818 I-1.6461 J5.6617
G3 X3.5376 Y1.4299 I-2.2045 J5.4685
G3 X4.0569 Y1.736 I-2.8521 J5.4323
G3 X4.5445 Y2.0908 I-3.5058 J5.3305
G3 X5.0233 Y2.5116 I-4.4606 J5.5577
G3 X5.4625 Y2.9735 I-4.9394 J5.137
G3 X5.8362 Y3.4469 I-4.8153 J4.1854
G3 X6.1624 Y3.9538 I-4.99 J3.5698
G3 X6.4314 Y4.4799 I-5.1089 J2.9434
G3 X6.6463 Y5.0304 I-5.3779 J2.4173
G3 X6.8089 Y5.6109 I-5.8198 J1.9426
G3 X6.9148 Y6.2046 I-6.2208 J1.4164
G3 X6.9687 Y6.8397 I-7.0669 J0.9189
G1 X6.0396 Y6.8397
G2 X5.99 Y6.3004 I-6.0777 J0.2868
G2 X5.8966 Y5.7962 I-5.4034 J0.7405
G2 X5.7554 Y5.3035 I-5.1088 J1.1975
G2 X5.57 Y4.8364 I-4.7762 J1.625
G2 X5.3391 Y4.3901 I-4.5908 J2.0921
G2 X5.0599 Y3.9603 I-4.5347 J2.6402
G2 X4.7407 Y3.559 I-4.423 J3.1909
G2 X4.3662 Y3.1678 I-4.5782 J4.0075
G2 X3.9584 Y2.8114 I-4.2038 J4.3987
G2 X3.5431 Y2.5107 I-3.4026 J4.2623
G2 X3.1011 Y2.2512 I-2.8741 J4.3902
G2 X2.6448 Y2.0408 I-2.3384 J4.4704
G2 X2.1697 Y1.8768 I-1.882 J4.6809
G2 X1.6711 Y1.758 I-1.4634 J5.0391
G2 X1.1633 Y1.6876 I-1.0028 J5.3609
G2 X0.6223 Y1.6625 I-0.5521 J6.0593
G1 X0.6223 Y1.3639
G1 X0.8046 Y1.3639
G1 X0.8046 Y1.042
G1 X0.6223 Y1.042
G1 X0.6223 Y0.7374
G0 Z0.2
G0 X0.6223 Y0.7374
G1 Z-0.54 F20
G3 X1.259 Y0.7663 I-0.0044 J7.1264 F40
G3 X1.8564 Y0.8489 I-0.574 J6.3541
G3 X2.4428 Y0.9886 I-1.1265 J6.0312
G3 X3.0013 Y1.1818 I-1.6461 J5.6617
G3 X3.5376 Y1.4299 I-2.2045 J5.4685
G3 X4.0569 Y1.736 I-2.8521 J5.4323
G3 X4.5445 Y2.0908 I-3.5058 J5.3305
G3 X5.0233 Y2.5116 I-4.4606 J5.5577
G3 X5.4625 Y2.9735 I-4.9394 J5.137
G3 X5.8362 Y3.4469 I-4.8153 J4.1854
G3 X6.1624 Y3.9538 I-4.99 J3.5698
G3 X6.4314 Y4.4799 I-5.1089 J2.9434
G3 X6.6463 Y5.0304 I-5.3779 J2.4173
G3 X6.8089 Y5.6109 I-5.8198 J1.9426
G3 X6.9148 Y6.2046 I-6.2208 J1.4164
G3 X6.9687 Y6.8397 I-7.0669 J0.9189
G1 X6.0396 Y6.8397
G2 X5.99 Y6.3004 I-6.0777 J0.2868
G2 X5.8966 Y5.7962 I-5.4034 J0.7405
G2 X5.7554 Y5.3035 I-5.1088 J1.1975
G2 X5.57 Y4.8364 I-4.7762 J1.625
G2 X5.3391 Y4.3901 I-4.5908 J2.0921
G2 X5.0599 Y3.9603 I-4.5347 J2.6402
G2 X4.7407 Y3.559 I-4.423 J3.1909
G2 X4.3662 Y3.1678 I-4.5782 J4.0075
G2 X3.9584 Y2.8114 I-4.2038 J4.3987
G2 X3.5431 Y2.5107 I-3.4026 J4.2623
G2 X3.1011 Y2.2512 I-2.8741 J4.3902
G2 X2.6448 Y2.0408 I-2.3384 J4.4704
G2 X2.1697 Y1.8768 I-1.882 J4.6809
G2 X1.6711 Y1.758 I-1.4634 J5.0391
G2 X1.1633 Y1.6876 I-1.0028 J5.3609
G2 X0.6223 Y1.6625 I-0.5521 J6.0593
G1 X0.6223 Y1.3639
G1 X0.8046 Y1.3639
G1 X0.8046 Y1.042
G1 X0.6223 Y1.042
G1 X0.6223 Y0.7374
G0 Z0.2
G0 X0.6223 Y0.7374
G1 Z-0.6 F20
G3 X1.259 Y0.7663 I-0.0044 J7.1264 F40
G3 X1.8564 Y0.8489 I-0.574 J6.3541
G3 X2.4428 Y0.9886 I-1.1265 J6.0312
G3 X3.0013 Y1.1818 I-1.6461 J5.6617
G3 X3.5376 Y1.4299 I-2.2045 J5.4685
G3 X4.0569 Y1.736 I-2.8521 J5.4323
G3 X4.5445 Y2.0908 I-3.5058 J5.3305
G3 X5.0233 Y2.5116 I-4.4606 J5.5577
G3 X5.4625 Y2.9735 I-4.9394 J5.137
G3 X5.8362 Y3.4469 I-4.8153 J4.1854
G3 X6.1624 Y3.9538 I-4.99 J3.5698
G3 X6.4314 Y4.4799 I-5.1089 J2.9434
G3 X6.6463 Y5.0304 I-5.3779 J2.4173
G3 X6.8089 Y5.6109 I-5.8198 J1.9426
G3 X6.9148 Y6.2046 I-6.2208 J1.4164
G3 X6.9687 Y6.8397 I-7.0669 J0.9189
G1 X6.0396 Y6.8397
G2 X5.99 Y6.3004 I-6.0777 J0.2868
G2 X5.8966 Y5.7962 I-5.4034 J0.7405
G2 X5.7554 Y5.3035 I-5.1088 J1.1975
G2 X5.57 Y4.8364 I-4.7762 J1.625
G2 X5.3391 Y4.3901 I-4.5908 J2.0921
G2 X5.0599 Y3.9603 I-4.5347 J2.6402
G2 X4.7407 Y3.559 I-4.423 J3.1909
G2 X4.3662 Y3.1678 I-4.5782 J4.0075
G2 X3.9584 Y2.8114 I-4.2038 J4.3987
G2 X3.5431 Y2.5107 I-3.4026 J4.2623
G2 X3.1011 Y2.2512 I-2.8741 J4.3902
G2 X2.6448 Y2.0408 I-2.3384 J4.4704
G2 X2.1697 Y1.8768 I-1.882 J4.6809
G2 X1.6711 Y1.758 I-1.4634 J5.0391
G2 X1.1633 Y1.6876 I-1.0028 J5.3609
G2 X0.6223 Y1.6625 I-0.5521 J6.0593
G1 X0.6223 Y1.3639
G1 X0.8046 Y1.3639
G1 X0.8046 Y1.042
G1 X0.6223 Y1.042
G1 X0.6223 Y0.7374
G0 Z0.2
G0 X0.6223 Y0.7374
G1 Z-0.66 F20
G3 X1.259 Y0.7663 I-0.0044 J7.1264 F40
G3 X1.8564 Y0.8489 I-0.574 J6.3541
G3 X2.4428 Y0.9886 I-1.1265 J6.0312
G3 X3.0013 Y1.1818 I-1.6461 J5.6617
G3 X3.5376 Y1.4299 I-2.2045 J5.4685
G3 X4.0569 Y1.736 I-2.8521 J5.4323
G3 X4.5445 Y2.0908 I-3.5058 J5.3305
G3 X5.0233 Y2.5116 I-4.4606 J5.5577
G3 X5.4625 Y2.9735 I-4.9394 J5.137
G3 X5.8362 Y3.4469 I-4.8153 J4.1854
G3 X6.1624 Y3.9538 I-4.99 J3.5698
G3 X6.4314 Y4.4799 I-5.1089 J2.9434
G3 X6.6463 Y5.0304 I-5.3779 J2.4173
G3 X6.8089 Y5.6109 I-5.8198 J1.9426
G3 X6.9148 Y6.2046 I-6.2208 J1.4164
G3 X6.9687 Y6.8397 I-7.0669 J0.9189
G1 X6.0396 Y6.8397
G2 X5.99 Y6.3004 I-6.0777 J0.2868
G2 X5.8966 Y5.7962 I-5.4034 J0.7405
G2 X5.7554 Y5.3035 I-5.1088 J1.1975
G2 X5.57 Y4.8364 I-4.7762 J1.625
G2 X5.3391 Y4.3901 I-4.5908 J2.0921
G2 X5.0599 Y3.9603 I-4.5347 J2.6402
G2 X4.7407 Y3.559 I-4.423 J3.1909
G2 X4.3662 Y3.1678 I-4.5782 J4.0075
G2 X3.9584 Y2.8114 I-4.2038 J4.3987
G2 X3.5431 Y2.5107 I-3.4026 J4.2623
G2 X3.1011 Y2.2512 I-2.8741 J4.3902
G2 X2.6448 Y2.0408 I-2.3384 J4.4704
G2 X2.1697 Y1.8768 I-1.882 J4.6809
G2 X1.6711 Y1.758 I-1.4634 J5.0391
G2 X1.1633 Y1.6876 I-1.0028 J5.3609
G2 X0.6223 Y1.6625 I-0.5521 J6.0593
G1 X0.6223 Y1.3639
G1 X0.8046 Y1.3639
G1 X0.8046 Y1.042
G1 X0.6223 Y1.042
G1 X0.6223 Y0.7374
G0 Z0.2
G0 X0.6223 Y0.7374
G1 Z-0.72 F20
G3 X1.259 Y0.7663 I-0.0044 J7.1264 F40
G3 X1.8564 Y0.8489 I-0.574 J6.3541
G3 X2.4428 Y0.9886 I-1.1265 J6.0312
G3 X3.0013 Y1.1818 I-1.6461 J5.6617
G3 X3.5376 Y1.4299 I-2.2045 J5.4685
G3 X4.0569 Y1.736 I-2.8521 J5.4323
G3 X4.5445 Y2.0908 I-3.5058 J5.3305
G3 X5.0233 Y2.5116 I-4.4606 J5.5577
G3 X5.4625 Y2.9735 I-4.9394 J5.137
G3 X5.8362 Y3.4469 I-4.8153 J4.1854
G3 X6.1624 Y3.9538 I-4.99 J3.5698
G3 X6.4314 Y4.4799 I-5.1089 J2.9434
G3 X6.6463 Y5.0304 I-5.3779 J2.4173
G3 X6.8089 Y5.6109 I-5.8198 J1.9426
G3 X6.9148 Y6.2046 I-6.2208 J1.4164
G3 X6.9687 Y6.8397 I-7.0669 J0.9189
G1 X6.0396 Y6.8397
G2 X5.99 Y6.3004 I-6.0777 J0.2868
G2 X5.8966 Y5.7962 I-5.4034 J0.7405
G2 X5.7554 Y5.3035 I-5.1088 J1.1975
G2 X5.57 Y4.8364 I-4.7762 J1.625
G2 X5.3391 Y4.3901 I-4.5908 J2.0921
G2 X5.0599 Y3.9603 I-4.5347 J2.6402
G2 X4.7407 Y3.559 I-4.423 J3.1909
G2 X4.3662 Y3.1678 I-4.5782 J4.0075
G2 X3.9584 Y2.8114 I-4.2038 J4.3987
G2 X3.5431 Y2.5107 I-3.4026 J4.2623
G2 X3.1011 Y2.2512 I-2.8741 J4.3902
G2 X2.6448 Y2.0408 I-2.3384 J4.4704
G2 X2.1697 Y1.8768 I-1.882 J4.6809
G2 X1.6711 Y1.758 I-1.4634 J5.0391
G2 X1.1633 Y1.6876 I-1.0028 J5.3609
G2 X0.6223 Y1.6625 I-0.5521 J6.0593
G1 X0.6223 Y1.3639
G1 X0.8046 Y1.3639
G1 X0.8046 Y1.042
G1 X0.6223 Y1.042
G1 X0.6223 Y0.7374
G0 Z0.2
G0 X0.6223 Y0.7374
G1 Z-0.78 F20
G3 X1.259 Y0.7663 I-0.0044 J7.1264 F40
G3 X1.8564 Y0.8489 I-0.574 J6.3541
G3 X2.4428 Y0.9886 I-1.1265 J6.0312
G3 X3.0013 Y1.1818 I-1.6461 J5.6617
G3 X3.5376 Y1.4299 I-2.2045 J5.4685
G3 X4.0569 Y1.736 I-2.8521 J5.4323
G3 X4.5445 Y2.0908 I-3.5058 J5.3305
G3 X5.0233 Y2.5116 I-4.4606 J5.5577
G3 X5.4625 Y2.9735 I-4.9394 J5.137
G3 X5.8362 Y3.4469 I-4.8153 J4.1854
G3 X6.1624 Y3.9538 I-4.99 J3.5698
G3 X6.4314 Y4.4799 I-5.1089 J2.9434
G3 X6.6463 Y5.0304 I-5.3779 J2.4173
G3 X6.8089 Y5.6109 I-5.8198 J1.9426
G3 X6.9148 Y6.2046 I-6.2208 J1.4164
G3 X6.9687 Y6.8397 I-7.0669 J0.9189
G1 X6.0396 Y6.8397
G2 X5.99 Y6.3004 I-6.0777 J0.2868
G2 X5.8966 Y5.7962 I-5.4034 J0.7405
G2 X5.7554 Y5.3035 I-5.1088 J1.1975
G2 X5.57 Y4.8364 I-4.7762 J1.625
G2 X5.3391 Y4.3901 I-4.5908 J2.0921
G2 X5.0599 Y3.9603 I-4.5347 J2.6402
G2 X4.7407 Y3.559 I-4.423 J3.1909
G2 X4.3662 Y3.1678 I-4.5782 J4.0075
G2 X3.9584 Y2.8114 I-4.2038 J4.3987
G2 X3.5431 Y2.5107 I-3.4026 J4.2623
G2 X3.1011 Y2.2512 I-2.8741 J4.3902
G2 X2.6448 Y2.0408 I-2.3384 J4.4704
G2 X2.1697 Y1.8768 I-1.882 J4.6809
G2 X1.6711 Y1.758 I-1.4634 J5.0391
G2 X1.1633 Y1.6876 I-1.0028 J5.3609
G2 X0.6223 Y1.6625 I-0.5521 J6.0593
G1 X0.6223 Y1.3639
G1 X0.8046 Y1.3639
G1 X0.8046 Y1.042
G1 X0.6223 Y1.042
G1 X0.6223 Y0.7374
G0 Z0.2
G0 X0.6223 Y0.7374
G1 Z-0.79 F20
G3 X1.259 Y0.7663 I-0.0044 J7.1264 F40
G3 X1.8564 Y0.8489 I-0.574 J6.3541
G3 X2.4428 Y0.9886 I-1.1265 J6.0312
G3 X3.0013 Y1.1818 I-1.6461 J5.6617
G3 X3.5376 Y1.4299 I-2.2045 J5.4685
G3 X4.0569 Y1.736 I-2.8521 J5.4323
G3 X4.5445 Y2.0908 I-3.5058 J5.3305
G3 X5.0233 Y2.5116 I-4.4606 J5.5577
G3 X5.4625 Y2.9735 I-4.9394 J5.137
G3 X5.8362 Y3.4469 I-4.8153 J4.1854
G3 X6.1624 Y3.9538 I-4.99 J3.5698
G3 X6.4314 Y4.4799 I-5.1089 J2.9434
G3 X6.6463 Y5.0304 I-5.3779 J2.4173
G3 X6.8089 Y5.6109 I-5.8198 J1.9426
G3 X6.9148 Y6.2046 I-6.2208 J1.4164
G3 X6.9687 Y6.8397 I-7.0669 J0.9189
G1 X6.0396 Y6.8397
G2 X5.99 Y6.3004 I-6.0777 J0.2868
G2 X5.8966 Y5.7962 I-5.4034 J0.7405
G2 X5.7554 Y5.3035 I-5.1088 J1.1975
G2 X5.57 Y4.8364 I-4.7762 J1.625
G2 X5.3391 Y4.3901 I-4.5908 J2.0921
G2 X5.0599 Y3.9603 I-4.5347 J2.6402
G2 X4.7407 Y3.559 I-4.423 J3.1909
G2 X4.3662 Y3.1678 I-4.5782 J4.0075
G2 X3.9584 Y2.8114 I-4.2038 J4.3987
G2 X3.5431 Y2.5107 I-3.4026 J4.2623
G2 X3.1011 Y2.2512 I-2.8741 J4.3902
G2 X2.6448 Y2.0408 I-2.3384 J4.4704
G2 X2.1697 Y1.8768 I-1.882 J4.6809
G2 X1.6711 Y1.758 I-1.4634 J5.0391
G2 X1.1633 Y1.6876 I-1.0028 J5.3609
G2 X0.6223 Y1.6625 I-0.5521 J6.0593
G1 X0.6223 Y1.3639
G1 X0.8046 Y1.3639
G1 X0.8046 Y1.042
G1 X0.6223 Y1.042
G1 X0.6223 Y0.7374
G0 Z0.2
G0 X0.7275 Y16.3802
G1 Z-0.06 F20
G3 X1.3624 Y16.4339 I-0.2821 J7.1209 F40
G3 X1.956 Y16.5396 I-0.8211 J6.3273
G3 X2.5364 Y16.702 I-1.3605 J5.9832
G3 X3.0868 Y16.9167 I-1.8652 J5.5938
G3 X3.613 Y17.1854 I-2.4156 J5.3791
G3 X4.1199 Y17.5114 I-3.061 J5.3175
G3 X4.5933 Y17.8848 I-3.71 J5.1904
G3 X5.0552 Y18.3237 I-4.6724 J5.3801
G3 X5.4761 Y18.8021 I-5.1343 J4.9411
G3 X5.831 Y19.2894 I-4.9735 J3.9954
G3 X6.1373 Y19.8085 I-5.1243 J3.3736
G3 X6.3857 Y20.3445 I-5.2187 J2.7433
G3 X6.5791 Y20.9027 I-5.467 J2.2072
G3 X6.719 Y21.4889 I-5.89 J1.7159
G3 X6.8019 Y22.0861 I-6.2701 J1.1747
G3 X6.8312 Y22.7226 I-7.0958 J0.645
G1 X6.5273 Y22.7226
G1 X6.5273 Y22.9
G1 X6.207 Y22.9
G1 X6.207 Y22.7226
G1 X5.906 Y22.7226
G2 X5.8812 Y22.1812 I-6.0845 J0.0067
G2 X5.811 Y21.673 I-5.4311 J0.4912
G2 X5.6925 Y21.1741 I-5.1576 J0.9615
G2 X5.5287 Y20.6987 I-4.8447 J1.404
G2 X5.3183 Y20.242 I-4.6808 J1.8794
G2 X5.0589 Y19.7996 I-4.65 J2.43
G2 X4.7581 Y19.384 I-4.5638 J2.9856
G2 X4.4016 Y18.9758 I-4.7566 J3.7951
G2 X4.0102 Y18.601 I-4.4002 J4.2033
G2 X3.6087 Y18.2816 I-3.5929 J4.1032
G2 X3.1787 Y18.0022 I-3.0704 J4.2549
G2 X2.7321 Y17.7711 I-2.5385 J4.3594
G2 X2.2647 Y17.5856 I-2.0919 J4.5906
G2 X1.7717 Y17.4444 I-1.6898 J4.9678
G2 X1.2672 Y17.351 I-1.244 J5.3105
G2 X0.7275 Y17.3015 I-0.8251 J6.0295
G1 X0.7275 Y16.3802
G0 Z0.2
G0 X0.7275 Y16.3802
G1 Z-0.12 F20
G3 X1.3624 Y16.4339 I-0.2821 J7.1209 F40
G3 X1.956 Y16.5396 I-0.8211 J6.3273
G3 X2.5364 Y16.702 I-1.3605 J5.9832
G3 X3.0868 Y16.9167 I-1.8652 J5.5938
G3 X3.613 Y17.1854 I-2.4156 J5.3791
G3 X4.1199 Y17.5114 I-3.061 J5.3175
G3 X4.5933 Y17.8848 I-3.71 J5.1904
G3 X5.0552 Y18.3237 I-4.6724 J5.3801
G3 X5.4761 Y18.8021 I-5.1343 J4.9411
G3 X5.831 Y19.2894 I-4.9735 J3.9954
G3 X6.1373 Y19.8085 I-5.1243 J3.3736
G3 X6.3857 Y20.3445 I-5.2187 J2.7433
G3 X6.5791 Y20.9027 I-5.467 J2.2072
G3 X6.719 Y21.4889 I-5.89 J1.7159
G3 X6.8019 Y22.0861 I-6.2701 J1.1747
G3 X6.8312 Y22.7226 I-7.0958 J0.645
G1 X6.5273 Y22.7226
G1 X6.5273 Y22.9
G1 X6.207 Y22.9
G1 X6.207 Y22.7226
G1 X5.906 Y22.7226
G2 X5.8812 Y22.1812 I-6.0845 J0.0067
G2 X5.811 Y21.673 I-5.4311 J0.4912
G2 X5.6925 Y21.1741 I-5.1576 J0.9615
G2 X5.5287 Y20.6987 I-4.8447 J1.404
G2 X5.3183 Y20.242 I-4.6808 J1.8794
G2 X5.0589 Y19.7996 I-4.65 J2.43
G2 X4.7581 Y19.384 I-4.5638 J2.9856
G2 X4.4016 Y18.9758 I-4.7566 J3.7951
G2 X4.0102 Y18.601 I-4.4002 J4.2033
G2 X3.6087 Y18.2816 I-3.5929 J4.1032
G2 X3.1787 Y18.0022 I-3.0704 J4.2549
G2 X2.7321 Y17.7711 I-2.5385 J4.3594
G2 X2.2647 Y17.5856 I-2.0919 J4.5906
G2 X1.7717 Y17.4444 I-1.6898 J4.9678
G2 X1.2672 Y17.351 I-1.244 J5.3105
G2 X0.7275 Y17.3015 I-0.8251 J6.0295
G1 X0.7275 Y16.3802
G0 Z0.2
G0 X0.7275 Y16.3802
G1 Z-0.18 F20
G3 X1.3624 Y16.4339 I-0.2821 J7.1209 F40
G3 X1.956 Y16.5396 I-0.8211 J6.3273
G3 X2.5364 Y16.702 I-1.3605 J5.9832
G3 X3.0868 Y16.9167 I-1.8652 J5.5938
G3 X3.613 Y17.1854 I-2.4156 J5.3791
G3 X4.1199 Y17.5114 I-3.061 J5.3175
G3 X4.5933 Y17.8848 I-3.71 J5.1904
G3 X5.0552 Y18.3237 I-4.6724 J5.3801
G3 X5.4761 Y18.8021 I-5.1343 J4.9411
G3 X5.831 Y19.2894 I-4.9735 J3.9954
G3 X6.1373 Y19.8085 I-5.1243 J3.3736
G3 X6.3857 Y20.3445 I-5.2187 J2.7433
G3 X6.5791 Y20.9027 I-5.467 J2.2072
G3 X6.719 Y21.4889 I-5.89 J1.7159
G3 X6.8019 Y22.0861 I-6.2701 J1.1747
G3 X6.8312 Y22.7226 I-7.0958 J0.645
G1 X6.5273 Y22.7226
G1 X6.5273 Y22.9
G1 X6.207 Y22.9
G1 X6.207 Y22.7226
G1 X5.906 Y22.7226
G2 X5.8812 Y22.1812 I-6.0845 J0.0067
G2 X5.811 Y21.673 I-5.4311 J0.4912
G2 X5.6925 Y21.1741 I-5.1576 J0.9615
G2 X5.5287 Y20.6987 I-4.8447 J1.404
G2 X5.3183 Y20.242 I-4.6808 J1.8794
G2 X5.0589 Y19.7996 I-4.65 J2.43
G2 X4.7581 Y19.384 I-4.5638 J2.9856
G2 X4.4016 Y18.9758 I-4.7566 J3.7951
G2 X4.0102 Y18.601 I-4.4002 J4.2033
G2 X3.6087 Y18.2816 I-3.5929 J4.1032
G2 X3.1787 Y18.0022 I-3.0704 J4.2549
G2 X2.7321 Y17.7711 I-2.5385 J4.3594
G2 X2.2647 Y17.5856 I-2.0919 J4.5906
G2 X1.7717 Y17.4444 I-1.6898 J4.9678
G2 X1.2672 Y17.351 I-1.244 J5.3105
G2 X0.7275 Y17.3015 I-0.8251 J6.0295
G1 X0.7275 Y16.3802
G0 Z0.2
G0 X0.7275 Y16.3802
G1 Z-0.24 F20
G3 X1.3624 Y16.4339 I-0.2821 J7.1209 F40
G3 X1.956 Y16.5396 I-0.8211 J6.3273
G3 X2.5364 Y16.702 I-1.3605 J5.9832
G3 X3.0868 Y16.9167 I-1.8652 J5.5938
G3 X3.613 Y17.1854 I-2.4156 J5.3791
G3 X4.1199 Y17.5114 I-3.061 J5.3175
G3 X4.5933 Y17.8848 I-3.71 J5.1904
G3 X5.0552 Y18.3237 I-4.6724 J5.3801
G3 X5.4761 Y18.8021 I-5.1343 J4.9411
G3 X5.831 Y19.2894 I-4.9735 J3.9954
G3 X6.1373 Y19.8085 I-5.1243 J3.3736
G3 X6.3857 Y20.3445 I-5.2187 J2.7433
G3 X6.5791 Y20.9027 I-5.467 J2.2072
G3 X6.719 Y21.4889 I-5.89 J1.7159
G3 X6.8019 Y22.0861 I-6.2701 J1.1747
G3 X6.8312 Y22.7226 I-7.0958 J0.645
G1 X6.5273 Y22.7226
G1 X6.5273 Y22.9
G1 X6.207 Y22.9
G1 X6.207 Y22.7226
G1 X5.906 Y22.7226
G2 X5.8812 Y22.1812 I-6.0845 J0.0067
G2 X5.811 Y21.673 I-5.4311 J0.4912
G2 X5.6925 Y21.1741 I-5.1576 J0.9615
G2 X5.5287 Y20.6987 I-4.8447 J1.404
G2 X5.3183 Y20.242 I-4.6808 J1.8794
G2 X5.0589 Y19.7996 I-4.65 J2.43
G2 X4.7581 Y19.384 I-4.5638 J2.9856
G2 X4.4016 Y18.9758 I-4.7566 J3.7951
G2 X4.0102 Y18.601 I-4.4002 J4.2033
G2 X3.6087 Y18.2816 I-3.5929 J4.1032
G2 X3.1787 Y18.0022 I-3.0704 J4.2549
G2 X2.7321 Y17.7711 I-2.5385 J4.3594
G2 X2.2647 Y17.5856 I-2.0919 J4.5906
G2 X1.7717 Y17.4444 I-1.6898 J4.9678
G2 X1.2672 Y17.351 I-1.244 J5.3105
G2 X0.7275 Y17.3015 I-0.8251 J6.0295
G1 X0.7275 Y16.3802
G0 Z0.2
G0 X0.7275 Y16.3802
G1 Z-0.3 F20
G3 X1.3624 Y16.4339 I-0.2821 J7.1209 F40
G3 X1.956 Y16.5396 I-0.8211 J6.3273
G3 X2.5364 Y16.702 I-1.3605 J5.9832
G3 X3.0868 Y16.9167 I-1.8652 J5.5938
G3 X3.613 Y17.1854 I-2.4156 J5.3791
G3 X4.1199 Y17.5114 I-3.061 J5.3175
G3 X4.5933 Y17.8848 I-3.71 J5.1904
G3 X5.0552 Y18.3237 I-4.6724 J5.3801
G3 X5.4761 Y18.8021 I-5.1343 J4.9411
G3 X5.831 Y19.2894 I-4.9735 J3.9954
G3 X6.1373 Y19.8085 I-5.1243 J3.3736
G3 X6.3857 Y20.3445 I-5.2187 J2.7433
G3 X6.5791 Y20.9027 I-5.467 J2.2072
G3 X6.719 Y21.4889 I-5.89 J1.7159
G3 X6.8019 Y22.0861 I-6.2701 J1.1747
G3 X6.8312 Y22.7226 I-7.0958 J0.645
G1 X6.5273 Y22.7226
G1 X6.5273 Y22.9
G1 X6.207 Y22.9
G1 X6.207 Y22.7226
G1 X5.906 Y22.7226
G2 X5.8812 Y22.1812 I-6.0845 J0.0067
G2 X5.811 Y21.673 I-5.4311 J0.4912
G2 X5.6925 Y21.1741 I-5.1576 J0.9615
G2 X5.5287 Y20.6987 I-4.8447 J1.404
G2 X5.3183 Y20.242 I-4.6808 J1.8794
G2 X5.0589 Y19.7996 I-4.65 J2.43
G2 X4.7581 Y19.384 I-4.5638 J2.9856
G2 X4.4016 Y18.9758 I-4.7566 J3.7951
G2 X4.0102 Y18.601 I-4.4002 J4.2033
G2 X3.6087 Y18.2816 I-3.5929 J4.1032
G2 X3.1787 Y18.0022 I-3.0704 J4.2549
G2 X2.7321 Y17.7711 I-2.5385 J4.3594
G2 X2.2647 Y17.5856 I-2.0919 J4.5906
G2 X1.7717 Y17.4444 I-1.6898 J4.9678
G2 X1.2672 Y17.351 I-1.244 J5.3105
G2 X0.7275 Y17.3015 I-0.8251 J6.0295
G1 X0.7275 Y16.3802
G0 Z0.2
G0 X0.7275 Y16.3802
G1 Z-0.36 F20
G3 X1.3624 Y16.4339 I-0.2821 J7.1209 F40
G3 X1.956 Y16.5396 I-0.8211 J6.3273
G3 X2.5364 Y16.702 I-1.3605 J5.9832
G3 X3.0868 Y16.9167 I-1.8652 J5.5938
G3 X3.613 Y17.1854 I-2.4156 J5.3791
G3 X4.1199 Y17.5114 I-3.061 J5.3175
G3 X4.5933 Y17.8848 I-3.71 J5.1904
G3 X5.0552 Y18.3237 I-4.6724 J5.3801
G3 X5.4761 Y18.8021 I-5.1343 J4.9411
G3 X5.831 Y19.2894 I-4.9735 J3.9954
G3 X6.1373 Y19.8085 I-5.1243 J3.3736
G3 X6.3857 Y20.3445 I-5.2187 J2.7433
G3 X6.5791 Y20.9027 I-5.467 J2.2072
G3 X6.719 Y21.4889 I-5.89 J1.7159
G3 X6.8019 Y22.0861 I-6.2701 J1.1747
G3 X6.8312 Y22.7226 I-7.0958 J0.645
G1 X6.5273 Y22.7226
G1 X6.5273 Y22.9
G1 X6.207 Y22.9
G1 X6.207 Y22.7226
G1 X5.906 Y22.7226
G2 X5.8812 Y22.1812 I-6.0845 J0.0067
G2 X5.811 Y21.673 I-5.4311 J0.4912
G2 X5.6925 Y21.1741 I-5.1576 J0.9615
G2 X5.5287 Y20.6987 I-4.8447 J1.404
G2 X5.3183 Y20.242 I-4.6808 J1.8794
G2 X5.0589 Y19.7996 I-4.65 J2.43
G2 X4.7581 Y19.384 I-4.5638 J2.9856
G2 X4.4016 Y18.9758 I-4.7566 J3.7951
G2 X4.0102 Y18.601 I-4.4002 J4.2033
G2 X3.6087 Y18.2816 I-3.5929 J4.1032
G2 X3.1787 Y18.0022 I-3.0704 J4.2549
G2 X2.7321 Y17.7711 I-2.5385 J4.3594
G2 X2.2647 Y17.5856 I-2.0919 J4.5906
G2 X1.7717 Y17.4444 I-1.6898 J4.9678
G2 X1.2672 Y17.351 I-1.244 J5.3105
G2 X0.7275 Y17.3015 I-0.8251 J6.0295
G1 X0.7275 Y16.3802
G0 Z0.2
G0 X0.7275 Y16.3802
G1 Z-0.42 F20
G3 X1.3624 Y16.4339 I-0.2821 J7.1209 F40
G3 X1.956 Y16.5396 I-0.8211 J6.3273
G3 X2.5364 Y16.702 I-1.3605 J5.9832
G3 X3.0868 Y16.9167 I-1.8652 J5.5938
G3 X3.613 Y17.1854 I-2.4156 J5.3791
G3 X4.1199 Y17.5114 I-3.061 J5.3175
G3 X4.5933 Y17.8848 I-3.71 J5.1904
G3 X5.0552 Y18.3237 I-4.6724 J5.3801
G3 X5.4761 Y18.8021 I-5.1343 J4.9411
G3 X5.831 Y19.2894 I-4.9735 J3.9954
G3 X6.1373 Y19.8085 I-5.1243 J3.3736
G3 X6.3857 Y20.3445 I-5.2187 J2.7433
G3 X6.5791 Y20.9027 I-5.467 J2.2072
G3 X6.719 Y21.4889 I-5.89 J1.7159
G3 X6.8019 Y22.0861 I-6.2701 J1.1747
G3 X6.8312 Y22.7226 I-7.0958 J0.645
G1 X6.5273 Y22.7226
G1 X6.5273 Y22.9
G1 X6.207 Y22.9
G1 X6.207 Y22.7226
G1 X5.906 Y22.7226
G2 X5.8812 Y22.1812 I-6.0845 J0.0067
G2 X5.811 Y21.673 I-5.4311 J0.4912
G2 X5.6925 Y21.1741 I-5.1576 J0.9615
G2 X5.5287 Y20.6987 I-4.8447 J1.404
G2 X5.3183 Y20.242 I-4.6808 J1.8794
G2 X5.0589 Y19.7996 I-4.65 J2.43
G2 X4.7581 Y19.384 I-4.5638 J2.9856
G2 X4.4016 Y18.9758 I-4.7566 J3.7951
G2 X4.0102 Y18.601 I-4.4002 J4.2033
G2 X3.6087 Y18.2816 I-3.5929 J4.1032
G2 X3.1787 Y18.0022 I-3.0704 J4.2549
G2 X2.7321 Y17.7711 I-2.5385 J4.3594
G2 X2.2647 Y17.5856 I-2.0919 J4.5906
G2 X1.7717 Y17.4444 I-1.6898 J4.9678
G2 X1.2672 Y17.351 I-1.244 J5.3105
G2 X0.7275 Y17.3015 I-0.8251 J6.0295
G1 X0.7275 Y16.3802
G0 Z0.2
G0 X0.7275 Y16.3802
G1 Z-0.48 F20
G3 X1.3624 Y16.4339 I-0.2821 J7.1209 F40
G3 X1.956 Y16.5396 I-0.8211 J6.3273
G3 X2.5364 Y16.702 I-1.3605 J5.9832
G3 X3.0868 Y16.9167 I-1.8652 J5.5938
G3 X3.613 Y17.1854 I-2.4156 J5.3791
G3 X4.1199 Y17.5114 I-3.061 J5.3175
G3 X4.5933 Y17.8848 I-3.71 J5.1904
G3 X5.0552 Y18.3237 I-4.6724 J5.3801
G3 X5.4761 Y18.8021 I-5.1343 J4.9411
G3 X5.831 Y19.2894 I-4.9735 J3.9954
G3 X6.1373 Y19.8085 I-5.1243 J3.3736
G3 X6.3857 Y20.3445 I-5.2187 J2.7433
G3 X6.5791 Y20.9027 I-5.467 J2.2072
G3 X6.719 Y21.4889 I-5.89 J1.7159
G3 X6.8019 Y22.0861 I-6.2701 J1.1747
G3 X6.8312 Y22.7226 I-7.0958 J0.645
G1 X6.5273 Y22.7226
G1 X6.5273 Y22.9
G1 X6.207 Y22.9
G1 X6.207 Y22.7226
G1 X5.906 Y22.7226
G2 X5.8812 Y22.1812 I-6.0845 J0.0067
G2 X5.811 Y21.673 I-5.4311 J0.4912
G2 X5.6925 Y21.1741 I-5.1576 J0.9615
G2 X5.5287 Y20.6987 I-4.8447 J1.404
G2 X5.3183 Y20.242 I-4.6808 J1.8794
G2 X5.0589 Y19.7996 I-4.65 J2.43
G2 X4.7581 Y19.384 I-4.5638 J2.9856
G2 X4.4016 Y18.9758 I-4.7566 J3.7951
G2 X4.0102 Y18.601 I-4.4002 J4.2033
G2 X3.6087 Y18.2816 I-3.5929 J4.1032
G2 X3.1787 Y18.0022 I-3.0704 J4.2549
G2 X2.7321 Y17.7711 I-2.5385 J4.3594
G2 X2.2647 Y17.5856 I-2.0919 J4.5906
G2 X1.7717 Y17.4444 I-1.6898 J4.9678
G2 X1.2672 Y17.351 I-1.244 J5.3105
G2 X0.7275 Y17.3015 I-0.8251 J6.0295
G1 X0.7275 Y16.3802
G0 Z0.2
G0 X0.7275 Y16.3802
G1 Z-0.54 F20
G3 X1.3624 Y16.4339 I-0.2821 J7.1209 F40
G3 X1.956 Y16.5396 I-0.8211 J6.3273
G3 X2.5364 Y16.702 I-1.3605 J5.9832
G3 X3.0868 Y16.9167 I-1.8652 J5.5938
G3 X3.613 Y17.1854 I-2.4156 J5.3791
G3 X4.1199 Y17.5114 I-3.061 J5.3175
G3 X4.5933 Y17.8848 I-3.71 J5.1904
G3 X5.0552 Y18.3237 I-4.6724 J5.3801
G3 X5.4761 Y18.8021 I-5.1343 J4.9411
G3 X5.831 Y19.2894 I-4.9735 J3.9954
G3 X6.1373 Y19.8085 I-5.1243 J3.3736
G3 X6.3857 Y20.3445 I-5.2187 J2.7433
G3 X6.5791 Y20.9027 I-5.467 J2.2072
G3 X6.719 Y21.4889 I-5.89 J1.7159
G3 X6.8019 Y22.0861 I-6.2701 J1.1747
G3 X6.8312 Y22.7226 I-7.0958 J0.645
G1 X6.5273 Y22.7226
G1 X6.5273 Y22.9
G1 X6.207 Y22.9
G1 X6.207 Y22.7226
G1 X5.906 Y22.7226
G2 X5.8812 Y22.1812 I-6.0845 J0.0067
G2 X5.811 Y21.673 I-5.4311 J0.4912
G2 X5.6925 Y21.1741 I-5.1576 J0.9615
G2 X5.5287 Y20.6987 I-4.8447 J1.404
G2 X5.3183 Y20.242 I-4.6808 J1.8794
G2 X5.0589 Y19.7996 I-4.65 J2.43
G2 X4.7581 Y19.384 I-4.5638 J2.9856
G2 X4.4016 Y18.9758 I-4.7566 J3.7951
G2 X4.0102 Y18.601 I-4.4002 J4.2033
G2 X3.6087 Y18.2816 I-3.5929 J4.1032
G2 X3.1787 Y18.0022 I-3.0704 J4.2549
G2 X2.7321 Y17.7711 I-2.5385 J4.3594
G2 X2.2647 Y17.5856 I-2.0919 J4.5906
G2 X1.7717 Y17.4444 I-1.6898 J4.9678
G2 X1.2672 Y17.351 I-1.244 J5.3105
G2 X0.7275 Y17.3015 I-0.8251 J6.0295
G1 X0.7275 Y16.3802
G0 Z0.2
G0 X0.7275 Y16.3802
G1 Z-0.6 F20
G3 X1.3624 Y16.4339 I-0.2821 J7.1209 F40
G3 X1.956 Y16.5396 I-0.8211 J6.3273
G3 X2.5364 Y16.702 I-1.3605 J5.9832
G3 X3.0868 Y16.9167 I-1.8652 J5.5938
G3 X3.613 Y17.1854 I-2.4156 J5.3791
G3 X4.1199 Y17.5114 I-3.061 J5.3175
G3 X4.5933 Y17.8848 I-3.71 J5.1904
G3 X5.0552 Y18.3237 I-4.6724 J5.3801
G3 X5.4761 Y18.8021 I-5.1343 J4.9411
G3 X5.831 Y19.2894 I-4.9735 J3.9954
G3 X6.1373 Y19.8085 I-5.1243 J3.3736
G3 X6.3857 Y20.3445 I-5.2187 J2.7433
G3 X6.5791 Y20.9027 I-5.467 J2.2072
G3 X6.719 Y21.4889 I-5.89 J1.7159
G3 X6.8019 Y22.0861 I-6.2701 J1.1747
G3 X6.8312 Y22.7226 I-7.0958 J0.645
G1 X6.5273 Y22.7226
G1 X6.5273 Y22.9
G1 X6.207 Y22.9
G1 X6.207 Y22.7226
G1 X5.906 Y22.7226
G2 X5.8812 Y22.1812 I-6.0845 J0.0067
G2 X5.811 Y21.673 I-5.4311 J0.4912
G2 X5.6925 Y21.1741 I-5.1576 J0.9615
G2 X5.5287 Y20.6987 I-4.8447 J1.404
G2 X5.3183 Y20.242 I-4.6808 J1.8794
G2 X5.0589 Y19.7996 I-4.65 J2.43
G2 X4.7581 Y19.384 I-4.5638 J2.9856
G2 X4.4016 Y18.9758 I-4.7566 J3.7951
G2 X4.0102 Y18.601 I-4.4002 J4.2033
G2 X3.6087 Y18.2816 I-3.5929 J4.1032
G2 X3.1787 Y18.0022 I-3.0704 J4.2549
G2 X2.7321 Y17.7711 I-2.5385 J4.3594
G2 X2.2647 Y17.5856 I-2.0919 J4.5906
G2 X1.7717 Y17.4444 I-1.6898 J4.9678
G2 X1.2672 Y17.351 I-1.244 J5.3105
G2 X0.7275 Y17.3015 I-0.8251 J6.0295
G1 X0.7275 Y16.3802
G0 Z0.2
G0 X0.7275 Y16.3802
G1 Z-0.66 F20
G3 X1.3624 Y16.4339 I-0.2821 J7.1209 F40
G3 X1.956 Y16.5396 I-0.8211 J6.3273
G3 X2.5364 Y16.702 I-1.3605 J5.9832
G3 X3.0868 Y16.9167 I-1.8652 J5.5938
G3 X3.613 Y17.1854 I-2.4156 J5.3791
G3 X4.1199 Y17.5114 I-3.061 J5.3175
G3 X4.5933 Y17.8848 I-3.71 J5.1904
G3 X5.0552 Y18.3237 I-4.6724 J5.3801
G3 X5.4761 Y18.8021 I-5.1343 J4.9411
G3 X5.831 Y19.2894 I-4.9735 J3.9954
G3 X6.1373 Y19.8085 I-5.1243 J3.3736
G3 X6.3857 Y20.3445 I-5.2187 J2.7433
G3 X6.5791 Y20.9027 I-5.467 J2.2072
G3 X6.719 Y21.4889 I-5.89 J1.7159
G3 X6.8019 Y22.0861 I-6.2701 J1.1747
G3 X6.8312 Y22.7226 I-7.0958 J0.645
G1 X6.5273 Y22.7226
G1 X6.5273 Y22.9
G1 X6.207 Y22.9
G1 X6.207 Y22.7226
G1 X5.906 Y22.7226
G2 X5.8812 Y22.1812 I-6.0845 J0.0067
G2 X5.811 Y21.673 I-5.4311 J0.4912
G2 X5.6925 Y21.1741 I-5.1576 J0.9615
G2 X5.5287 Y20.6987 I-4.8447 J1.404
G2 X5.3183 Y20.242 I-4.6808 J1.8794
G2 X5.0589 Y19.7996 I-4.65 J2.43
G2 X4.7581 Y19.384 I-4.5638 J2.9856
G2 X4.4016 Y18.9758 I-4.7566 J3.7951
G2 X4.0102 Y18.601 I-4.4002 J4.2033
G2 X3.6087 Y18.2816 I-3.5929 J4.1032
G2 X3.1787 Y18.0022 I-3.0704 J4.2549
G2 X2.7321 Y17.7711 I-2.5385 J4.3594
G2 X2.2647 Y17.5856 I-2.0919 J4.5906
G2 X1.7717 Y17.4444 I-1.6898 J4.9678
G2 X1.2672 Y17.351 I-1.244 J5.3105
G2 X0.7275 Y17.3015 I-0.8251 J6.0295
G1 X0.7275 Y16.3802
G0 Z0.2
G0 X0.7275 Y16.3802
G1 Z-0.72 F20
G3 X1.3624 Y16.4339 I-0.2821 J7.1209 F40
G3 X1.956 Y16.5396 I-0.8211 J6.3273
G3 X2.5364 Y16.702 I-1.3605 J5.9832
G3 X3.0868 Y16.9167 I-1.8652 J5.5938
G3 X3.613 Y17.1854 I-2.4156 J5.3791
G3 X4.1199 Y17.5114 I-3.061 J5.3175
G3 X4.5933 Y17.8848 I-3.71 J5.1904
G3 X5.0552 Y18.3237 I-4.6724 J5.3801
G3 X5.4761 Y18.8021 I-5.1343 J4.9411
G3 X5.831 Y19.2894 I-4.9735 J3.9954
G3 X6.1373 Y19.8085 I-5.1243 J3.3736
G3 X6.3857 Y20.3445 I-5.2187 J2.7433
G3 X6.5791 Y20.9027 I-5.467 J2.2072
G3 X6.719 Y21.4889 I-5.89 J1.7159
G3 X6.8019 Y22.0861 I-6.2701 J1.1747
G3 X6.8312 Y22.7226 I-7.0958 J0.645
G1 X6.5273 Y22.7226
G1 X6.5273 Y22.9
G1 X6.207 Y22.9
G1 X6.207 Y22.7226
G1 X5.906 Y22.7226
G2 X5.8812 Y22.1812 I-6.0845 J0.0067
G2 X5.811 Y21.673 I-5.4311 J0.4912
G2 X5.6925 Y21.1741 I-5.1576 J0.9615
G2 X5.5287 Y20.6987 I-4.8447 J1.404
G2 X5.3183 Y20.242 I-4.6808 J1.8794
G2 X5.0589 Y19.7996 I-4.65 J2.43
G2 X4.7581 Y19.384 I-4.5638 J2.9856
G2 X4.4016 Y18.9758 I-4.7566 J3.7951
G2 X4.0102 Y18.601 I-4.4002 J4.2033
G2 X3.6087 Y18.2816 I-3.5929 J4.1032
G2 X3.1787 Y18.0022 I-3.0704 J4.2549
G2 X2.7321 Y17.7711 I-2.5385 J4.3594
G2 X2.2647 Y17.5856 I-2.0919 J4.5906
G2 X1.7717 Y17.4444 I-1.6898 J4.9678
G2 X1.2672 Y17.351 I-1.244 J5.3105
G2 X0.7275 Y17.3015 I-0.8251 J6.0295
G1 X0.7275 Y16.3802
G0 Z0.2
G0 X0.7275 Y16.3802
G1 Z-0.78 F20
G3 X1.3624 Y16.4339 I-0.2821 J7.1209 F40
G3 X1.956 Y16.5396 I-0.8211 J6.3273
G3 X2.5364 Y16.702 I-1.3605 J5.9832
G3 X3.0868 Y16.9167 I-1.8652 J5.5938
G3 X3.613 Y17.1854 I-2.4156 J5.3791
G3 X4.1199 Y17.5114 I-3.061 J5.3175
G3 X4.5933 Y17.8848 I-3.71 J5.1904
G3 X5.0552 Y18.3237 I-4.6724 J5.3801
G3 X5.4761 Y18.8021 I-5.1343 J4.9411
G3 X5.831 Y19.2894 I-4.9735 J3.9954
G3 X6.1373 Y19.8085 I-5.1243 J3.3736
G3 X6.3857 Y20.3445 I-5.2187 J2.7433
G3 X6.5791 Y20.9027 I-5.467 J2.2072
G3 X6.719 Y21.4889 I-5.89 J1.7159
G3 X6.8019 Y22.0861 I-6.2701 J1.1747
G3 X6.8312 Y22.7226 I-7.0958 J0.645
G1 X6.5273 Y22.7226
G1 X6.5273 Y22.9
G1 X6.207 Y22.9
G1 X6.207 Y22.7226
G1 X5.906 Y22.7226
G2 X5.8812 Y22.1812 I-6.0845 J0.0067
G2 X5.811 Y21.673 I-5.4311 J0.4912
G2 X5.6925 Y21.1741 I-5.1576 J0.9615
G2 X5.5287 Y20.6987 I-4.8447 J1.404
G2 X5.3183 Y20.242 I-4.6808 J1.8794
G2 X5.0589 Y19.7996 I-4.65 J2.43
G2 X4.7581 Y19.384 I-4.5638 J2.9856
G2 X4.4016 Y18.9758 I-4.7566 J3.7951
G2 X4.0102 Y18.601 I-4.4002 J4.2033
G2 X3.6087 Y18.2816 I-3.5929 J4.1032
G2 X3.1787 Y18.0022 I-3.0704 J4.2549
G2 X2.7321 Y17.7711 I-2.5385 J4.3594
G2 X2.2647 Y17.5856 I-2.0919 J4.5906
G2 X1.7717 Y17.4444 I-1.6898 J4.9678
G2 X1.2672 Y17.351 I-1.244 J5.3105
G2 X0.7275 Y17.3015 I-0.8251 J6.0295
G1 X0.7275 Y16.3802
G0 Z0.2
G0 X0.7275 Y16.3802
G1 Z-0.79 F20
G3 X1.3624 Y16.4339 I-0.2821 J7.1209 F40
G3 X1.956 Y16.5396 I-0.8211 J6.3273
G3 X2.5364 Y16.702 I-1.3605 J5.9832
G3 X3.0868 Y16.9167 I-1.8652 J5.5938
G3 X3.613 Y17.1854 I-2.4156 J5.3791
G3 X4.1199 Y17.5114 I-3.061 J5.3175
G3 X4.5933 Y17.8848 I-3.71 J5.1904
G3 X5.0552 Y18.3237 I-4.6724 J5.3801
G3 X5.4761 Y18.8021 I-5.1343 J4.9411
G3 X5.831 Y19.2894 I-4.9735 J3.9954
G3 X6.1373 Y19.8085 I-5.1243 J3.3736
G3 X6.3857 Y20.3445 I-5.2187 J2.7433
G3 X6.5791 Y20.9027 I-5.467 J2.2072
G3 X6.719 Y21.4889 I-5.89 J1.7159
G3 X6.8019 Y22.0861 I-6.2701 J1.1747
G3 X6.8312 Y22.7226 I-7.0958 J0.645
G1 X6.5273 Y22.7226
G1 X6.5273 Y22.9
G1 X6.207 Y22.9
G1 X6.207 Y22.7226
G1 X5.906 Y22.7226
G2 X5.8812 Y22.1812 I-6.0845 J0.0067
G2 X5.811 Y21.673 I-5.4311 J0.4912
G2 X5.6925 Y21.1741 I-5.1576 J0.9615
G2 X5.5287 Y20.6987 I-4.8447 J1.404
G2 X5.3183 Y20.242 I-4.6808 J1.8794
G2 X5.0589 Y19.7996 I-4.65 J2.43
G2 X4.7581 Y19.384 I-4.5638 J2.9856
G2 X4.4016 Y18.9758 I-4.7566 J3.7951
G2 X4.0102 Y18.601 I-4.4002 J4.2033
G2 X3.6087 Y18.2816 I-3.5929 J4.1032
G2 X3.1787 Y18.0022 I-3.0704 J4.2549
G2 X2.7321 Y17.7711 I-2.5385 J4.3594
G2 X2.2647 Y17.5856 I-2.0919 J4.5906
G2 X1.7717 Y17.4444 I-1.6898 J4.9678
G2 X1.2672 Y17.351 I-1.244 J5.3105
G2 X0.7275 Y17.3015 I-0.8251 J6.0295
G1 X0.7275 Y16.3802
G0 Z0.2
G0 X6.3062 Y11.6577
G1 Z-0.06 F20
G1 X6.3062 Y11.4803 F40
G1 X6.0052 Y11.4803
G2 X5.9793 Y10.9206 I-6.1298 J0.0034
G2 X5.9053 Y10.3972 I-5.433 J0.5012
G2 X5.78 Y9.8839 I-5.1424 J0.9832
G2 X5.6067 Y9.3964 I-4.8106 J1.4349
G2 X5.3842 Y8.9293 I-4.6374 J1.9225
G2 X5.1096 Y8.4779 I-4.6046 J2.4922
G2 X4.7916 Y8.0556 I-4.5124 J3.0676
G2 X4.4139 Y7.6417 I-4.7124 J3.921
G2 X4 Y7.264 I-4.3348 J4.3349
G2 X3.5777 Y6.946 I-3.49 J4.1947
G2 X3.1263 Y6.6714 I-2.9437 J4.3304
G2 X2.6591 Y6.4489 I-2.3898 J4.4155
G2 X2.1716 Y6.2756 I-1.9227 J4.6381
G2 X1.6583 Y6.1503 I-1.4968 J5.018
G2 X1.1348 Y6.0763 I-1.0249 J5.36
G2 X0.5751 Y6.0504 I-0.5633 J6.105
G1 X0.5751 Y5.7503
G1 X0.7535 Y5.7503
G1 X0.7535 Y5.4283
G1 X0.5751 Y5.4283
G1 X0.5751 Y5.1254
G3 X1.2303 Y5.1554 I0 J7.1727
G3 X1.8431 Y5.2417 I-0.5832 J6.3565
G3 X2.444 Y5.3881 I-1.1475 J6.0163
G3 X3.0148 Y5.5907 I-1.6763 J5.6278
G3 X3.5616 Y5.851 I-2.247 J5.4252
G3 X4.0901 Y6.1724 I-2.914 J5.3869
G3 X4.5844 Y6.5446 I-3.5876 J5.2792
G3 X5.069 Y6.9867 I-4.5867 J5.5137
G3 X5.5111 Y7.4712 I-5.0712 J5.0715
G3 X5.8834 Y7.9655 I-4.9064 J4.082
G3 X6.2047 Y8.494 I-5.0649 J3.4424
G3 X6.4651 Y9.0408 I-5.164 J2.7938
G3 X6.6677 Y9.6115 I-5.4243 J2.247
G3 X6.8141 Y10.2123 I-5.8688 J1.7483
G3 X6.9004 Y10.8251 I-6.269 J1.1958
G3 X6.9304 Y11.4803 I-7.1413 J0.6552
G1 X6.6265 Y11.4803
G1 X6.6265 Y11.6577
G1 X6.3062 Y11.6577
G0 Z0.2
G0 X6.3062 Y11.6577
G1 Z-0.12 F20
G1 X6.3062 Y11.4803 F40
G1 X6.0052 Y11.4803
G2 X5.9793 Y10.9206 I-6.1298 J0.0034
G2 X5.9053 Y10.3972 I-5.433 J0.5012
G2 X5.78 Y9.8839 I-5.1424 J0.9832
G2 X5.6067 Y9.3964 I-4.8106 J1.4349
G2 X5.3842 Y8.9293 I-4.6374 J1.9225
G2 X5.1096 Y8.4779 I-4.6046 J2.4922
G2 X4.7916 Y8.0556 I-4.5124 J3.0676
G2 X4.4139 Y7.6417 I-4.7124 J3.921
G2 X4 Y7.264 I-4.3348 J4.3349
G2 X3.5777 Y6.946 I-3.49 J4.1947
G2 X3.1263 Y6.6714 I-2.9437 J4.3304
G2 X2.6591 Y6.4489 I-2.3898 J4.4155
G2 X2.1716 Y6.2756 I-1.9227 J4.6381
G2 X1.6583 Y6.1503 I-1.4968 J5.018
G2 X1.1348 Y6.0763 I-1.0249 J5.36
G2 X0.5751 Y6.0504 I-0.5633 J6.105
G1 X0.5751 Y5.7503
G1 X0.7535 Y5.7503
G1 X0.7535 Y5.4283
G1 X0.5751 Y5.4283
G1 X0.5751 Y5.1254
G3 X1.2303 Y5.1554 I0 J7.1727
G3 X1.8431 Y5.2417 I-0.5832 J6.3565
G3 X2.444 Y5.3881 I-1.1475 J6.0163
G3 X3.0148 Y5.5907 I-1.6763 J5.6278
G3 X3.5616 Y5.851 I-2.247 J5.4252
G3 X4.0901 Y6.1724 I-2.914 J5.3869
G3 X4.5844 Y6.5446 I-3.5876 J5.2792
G3 X5.069 Y6.9867 I-4.5867 J5.5137
G3 X5.5111 Y7.4712 I-5.0712 J5.0715
G3 X5.8834 Y7.9655 I-4.9064 J4.082
G3 X6.2047 Y8.494 I-5.0649 J3.4424
G3 X6.4651 Y9.0408 I-5.164 J2.7938
G3 X6.6677 Y9.6115 I-5.4243 J2.247
G3 X6.8141 Y10.2123 I-5.8688 J1.7483
G3 X6.9004 Y10.8251 I-6.269 J1.1958
G3 X6.9304 Y11.4803 I-7.1413 J0.6552
G1 X6.6265 Y11.4803
G1 X6.6265 Y11.6577
G1 X6.3062 Y11.6577
G0 Z0.2
G0 X6.3062 Y11.6577
G1 Z-0.18 F20
G1 X6.3062 Y11.4803 F40
G1 X6.0052 Y11.4803
G2 X5.9793 Y10.9206 I-6.1298 J0.0034
G2 X5.9053 Y10.3972 I-5.433 J0.5012
G2 X5.78 Y9.8839 I-5.1424 J0.9832
G2 X5.6067 Y9.3964 I-4.8106 J1.4349
G2 X5.3842 Y8.9293 I-4.6374 J1.9225
G2 X5.1096 Y8.4779 I-4.6046 J2.4922
G2 X4.7916 Y8.0556 I-4.5124 J3.0676
G2 X4.4139 Y7.6417 I-4.7124 J3.921
G2 X4 Y7.264 I-4.3348 J4.3349
G2 X3.5777 Y6.946 I-3.49 J4.1947
G2 X3.1263 Y6.6714 I-2.9437 J4.3304
G2 X2.6591 Y6.4489 I-2.3898 J4.4155
G2 X2.1716 Y6.2756 I-1.9227 J4.6381
G2 X1.6583 Y6.1503 I-1.4968 J5.018
G2 X1.1348 Y6.0763 I-1.0249 J5.36
G2 X0.5751 Y6.0504 I-0.5633 J6.105
G1 X0.5751 Y5.7503
G1 X0.7535 Y5.7503
G1 X0.7535 Y5.4283
G1 X0.5751 Y5.4283
G1 X0.5751 Y5.1254
G3 X1.2303 Y5.1554 I0 J7.1727
G3 X1.8431 Y5.2417 I-0.5832 J6.3565
G3 X2.444 Y5.3881 I-1.1475 J6.0163
G3 X3.0148 Y5.5907 I-1.6763 J5.6278
G3 X3.5616 Y5.851 I-2.247 J5.4252
G3 X4.0901 Y6.1724 I-2.914 J5.3869
G3 X4.5844 Y6.5446 I-3.5876 J5.2792
G3 X5.069 Y6.9867 I-4.5867 J5.5137
G3 X5.5111 Y7.4712 I-5.0712 J5.0715
G3 X5.8834 Y7.9655 I-4.9064 J4.082
G3 X6.2047 Y8.494 I-5.0649 J3.4424
G3 X6.4651 Y9.0408 I-5.164 J2.7938
G3 X6.6677 Y9.6115 I-5.4243 J2.247
G3 X6.8141 Y10.2123 I-5.8688 J1.7483
G3 X6.9004 Y10.8251 I-6.269 J1.1958
G3 X6.9304 Y11.4803 I-7.1413 J0.6552
G1 X6.6265 Y11.4803
G1 X6.6265 Y11.6577
G1 X6.3062 Y11.6577
G0 Z0.2
G0 X6.3062 Y11.6577
G1 Z-0.24 F20
G1 X6.3062 Y11.4803 F40
G1 X6.0052 Y11.4803
G2 X5.9793 Y10.9206 I-6.1298 J0.0034
G2 X5.9053 Y10.3972 I-5.433 J0.5012
G2 X5.78 Y9.8839 I-5.1424 J0.9832
G2 X5.6067 Y9.3964 I-4.8106 J1.4349
G2 X5.3842 Y8.9293 I-4.6374 J1.9225
G2 X5.1096 Y8.4779 I-4.6046 J2.4922
G2 X4.7916 Y8.0556 I-4.5124 J3.0676
G2 X4.4139 Y7.6417 I-4.7124 J3.921
G2 X4 Y7.264 I-4.3348 J4.3349
G2 X3.5777 Y6.946 I-3.49 J4.1947
G2 X3.1263 Y6.6714 I-2.9437 J4.3304
G2 X2.6591 Y6.4489 I-2.3898 J4.4155
G2 X2.1716 Y6.2756 I-1.9227 J4.6381
G2 X1.6583 Y6.1503 I-1.4968 J5.018
G2 X1.1348 Y6.0763 I-1.0249 J5.36
G2 X0.5751 Y6.0504 I-0.5633 J6.105
G1 X0.5751 Y5.7503
G1 X0.7535 Y5.7503
G1 X0.7535 Y5.4283
G1 X0.5751 Y5.4283
G1 X0.5751 Y5.1254
G3 X1.2303 Y5.1554 I0 J7.1727
G3 X1.8431 Y5.2417 I-0.5832 J6.3565
G3 X2.444 Y5.3881 I-1.1475 J6.0163
G3 X3.0148 Y5.5907 I-1.6763 J5.6278
G3 X3.5616 Y5.851 I-2.247 J5.4252
G3 X4.0901 Y6.1724 I-2.914 J5.3869
G3 X4.5844 Y6.5446 I-3.5876 J5.2792
G3 X5.069 Y6.9867 I-4.5867 J5.5137
G3 X5.5111 Y7.4712 I-5.0712 J5.0715
G3 X5.8834 Y7.9655 I-4.9064 J4.082
G3 X6.2047 Y8.494 I-5.0649 J3.4424
G3 X6.4651 Y9.0408 I-5.164 J2.7938
G3 X6.6677 Y9.6115 I-5.4243 J2.247
G3 X6.8141 Y10.2123 I-5.8688 J1.7483
G3 X6.9004 Y10.8251 I-6.269 J1.1958
G3 X6.9304 Y11.4803 I-7.1413 J0.6552
G1 X6.6265 Y11.4803
G1 X6.6265 Y11.6577
G1 X6.3062 Y11.6577
G0 Z0.2
G0 X6.3062 Y11.6577
G1 Z-0.3 F20
G1 X6.3062 Y11.4803 F40
G1 X6.0052 Y11.4803
G2 X5.9793 Y10.9206 I-6.1298 J0.0034
G2 X5.9053 Y10.3972 I-5.433 J0.5012
G2 X5.78 Y9.8839 I-5.1424 J0.9832
G2 X5.6067 Y9.3964 I-4.8106 J1.4349
G2 X5.3842 Y8.9293 I-4.6374 J1.9225
G2 X5.1096 Y8.4779 I-4.6046 J2.4922
G2 X4.7916 Y8.0556 I-4.5124 J3.0676
G2 X4.4139 Y7.6417 I-4.7124 J3.921
G2 X4 Y7.264 I-4.3348 J4.3349
G2 X3.5777 Y6.946 I-3.49 J4.1947
G2 X3.1263 Y6.6714 I-2.9437 J4.3304
G2 X2.6591 Y6.4489 I-2.3898 J4.4155
G2 X2.1716 Y6.2756 I-1.9227 J4.6381
G2 X1.6583 Y6.1503 I-1.4968 J5.018
G2 X1.1348 Y6.0763 I-1.0249 J5.36
G2 X0.5751 Y6.0504 I-0.5633 J6.105
G1 X0.5751 Y5.7503
G1 X0.7535 Y5.7503
G1 X0.7535 Y5.4283
G1 X0.5751 Y5.4283
G1 X0.5751 Y5.1254
G3 X1.2303 Y5.1554 I0 J7.1727
G3 X1.8431 Y5.2417 I-0.5832 J6.3565
G3 X2.444 Y5.3881 I-1.1475 J6.0163
G3 X3.0148 Y5.5907 I-1.6763 J5.6278
G3 X3.5616 Y5.851 I-2.247 J5.4252
G3 X4.0901 Y6.1724 I-2.914 J5.3869
G3 X4.5844 Y6.5446 I-3.5876 J5.2792
G3 X5.069 Y6.9867 I-4.5867 J5.5137
G3 X5.5111 Y7.4712 I-5.0712 J5.0715
G3 X5.8834 Y7.9655 I-4.9064 J4.082
G3 X6.2047 Y8.494 I-5.0649 J3.4424
G3 X6.4651 Y9.0408 I-5.164 J2.7938
G3 X6.6677 Y9.6115 I-5.4243 J2.247
G3 X6.8141 Y10.2123 I-5.8688 J1.7483
G3 X6.9004 Y10.8251 I-6.269 J1.1958
G3 X6.9304 Y11.4803 I-7.1413 J0.6552
G1 X6.6265 Y11.4803
G1 X6.6265 Y11.6577
G1 X6.3062 Y11.6577
G0 Z0.2
G0 X6.3062 Y11.6577
G1 Z-0.36 F20
G1 X6.3062 Y11.4803 F40
G1 X6.0052 Y11.4803
G2 X5.9793 Y10.9206 I-6.1298 J0.0034
G2 X5.9053 Y10.3972 I-5.433 J0.5012
G2 X5.78 Y9.8839 I-5.1424 J0.9832
G2 X5.6067 Y9.3964 I-4.8106 J1.4349
G2 X5.3842 Y8.9293 I-4.6374 J1.9225
G2 X5.1096 Y8.4779 I-4.6046 J2.4922
G2 X4.7916 Y8.0556 I-4.5124 J3.0676
G2 X4.4139 Y7.6417 I-4.7124 J3.921
G2 X4 Y7.264 I-4.3348 J4.3349
G2 X3.5777 Y6.946 I-3.49 J4.1947
G2 X3.1263 Y6.6714 I-2.9437 J4.3304
G2 X2.6591 Y6.4489 I-2.3898 J4.4155
G2 X2.1716 Y6.2756 I-1.9227 J4.6381
G2 X1.6583 Y6.1503 I-1.4968 J5.018
G2 X1.1348 Y6.0763 I-1.0249 J5.36
G2 X0.5751 Y6.0504 I-0.5633 J6.105
G1 X0.5751 Y5.7503
G1 X0.7535 Y5.7503
G1 X0.7535 Y5.4283
G1 X0.5751 Y5.4283
G1 X0.5751 Y5.1254
G3 X1.2303 Y5.1554 I0 J7.1727
G3 X1.8431 Y5.2417 I-0.5832 J6.3565
G3 X2.444 Y5.3881 I-1.1475 J6.0163
G3 X3.0148 Y5.5907 I-1.6763 J5.6278
G3 X3.5616 Y5.851 I-2.247 J5.4252
G3 X4.0901 Y6.1724 I-2.914 J5.3869
G3 X4.5844 Y6.5446 I-3.5876 J5.2792
G3 X5.069 Y6.9867 I-4.5867 J5.5137
G3 X5.5111 Y7.4712 I-5.0712 J5.0715
G3 X5.8834 Y7.9655 I-4.9064 J4.082
G3 X6.2047 Y8.494 I-5.0649 J3.4424
G3 X6.4651 Y9.0408 I-5.164 J2.7938
G3 X6.6677 Y9.6115 I-5.4243 J2.247
G3 X6.8141 Y10.2123 I-5.8688 J1.7483
G3 X6.9004 Y10.8251 I-6.269 J1.1958
G3 X6.9304 Y11.4803 I-7.1413 J0.6552
G1 X6.6265 Y11.4803
G1 X6.6265 Y11.6577
G1 X6.3062 Y11.6577
G0 Z0.2
G0 X6.3062 Y11.6577
G1 Z-0.42 F20
G1 X6.3062 Y11.4803 F40
G1 X6.0052 Y11.4803
G2 X5.9793 Y10.9206 I-6.1298 J0.0034
G2 X5.9053 Y10.3972 I-5.433 J0.5012
G2 X5.78 Y9.8839 I-5.1424 J0.9832
G2 X5.6067 Y9.3964 I-4.8106 J1.4349
G2 X5.3842 Y8.9293 I-4.6374 J1.9225
G2 X5.1096 Y8.4779 I-4.6046 J2.4922
G2 X4.7916 Y8.0556 I-4.5124 J3.0676
G2 X4.4139 Y7.6417 I-4.7124 J3.921
G2 X4 Y7.264 I-4.3348 J4.3349
G2 X3.5777 Y6.946 I-3.49 J4.1947
G2 X3.1263 Y6.6714 I-2.9437 J4.3304
G2 X2.6591 Y6.4489 I-2.3898 J4.4155
G2 X2.1716 Y6.2756 I-1.9227 J4.6381
G2 X1.6583 Y6.1503 I-1.4968 J5.018
G2 X1.1348 Y6.0763 I-1.0249 J5.36
G2 X0.5751 Y6.0504 I-0.5633 J6.105
G1 X0.5751 Y5.7503
G1 X0.7535 Y5.7503
G1 X0.7535 Y5.4283
G1 X0.5751 Y5.4283
G1 X0.5751 Y5.1254
G3 X1.2303 Y5.1554 I0 J7.1727
G3 X1.8431 Y5.2417 I-0.5832 J6.3565
G3 X2.444 Y5.3881 I-1.1475 J6.0163
G3 X3.0148 Y5.5907 I-1.6763 J5.6278
G3 X3.5616 Y5.851 I-2.247 J5.4252
G3 X4.0901 Y6.1724 I-2.914 J5.3869
G3 X4.5844 Y6.5446 I-3.5876 J5.2792
G3 X5.069 Y6.9867 I-4.5867 J5.5137
G3 X5.5111 Y7.4712 I-5.0712 J5.0715
G3 X5.8834 Y7.9655 I-4.9064 J4.082
G3 X6.2047 Y8.494 I-5.0649 J3.4424
G3 X6.4651 Y9.0408 I-5.164 J2.7938
G3 X6.6677 Y9.6115 I-5.4243 J2.247
G3 X6.8141 Y10.2123 I-5.8688 J1.7483
G3 X6.9004 Y10.8251 I-6.269 J1.1958
G3 X6.9304 Y11.4803 I-7.1413 J0.6552
G1 X6.6265 Y11.4803
G1 X6.6265 Y11.6577
G1 X6.3062 Y11.6577
G0 Z0.2
G0 X6.3062 Y11.6577
G1 Z-0.48 F20
G1 X6.3062 Y11.4803 F40
G1 X6.0052 Y11.4803
G2 X5.9793 Y10.9206 I-6.1298 J0.0034
G2 X5.9053 Y10.3972 I-5.433 J0.5012
G2 X5.78 Y9.8839 I-5.1424 J0.9832
G2 X5.6067 Y9.3964 I-4.8106 J1.4349
G2 X5.3842 Y8.9293 I-4.6374 J1.9225
G2 X5.1096 Y8.4779 I-4.6046 J2.4922
G2 X4.7916 Y8.0556 I-4.5124 J3.0676
G2 X4.4139 Y7.6417 I-4.7124 J3.921
G2 X4 Y7.264 I-4.3348 J4.3349
G2 X3.5777 Y6.946 I-3.49 J4.1947
G2 X3.1263 Y6.6714 I-2.9437 J4.3304
G2 X2.6591 Y6.4489 I-2.3898 J4.4155
G2 X2.1716 Y6.2756 I-1.9227 J4.6381
G2 X1.6583 Y6.1503 I-1.4968 J5.018
G2 X1.1348 Y6.0763 I-1.0249 J5.36
G2 X0.5751 Y6.0504 I-0.5633 J6.105
G1 X0.5751 Y5.7503
G1 X0.7535 Y5.7503
G1 X0.7535 Y5.4283
G1 X0.5751 Y5.4283
G1 X0.5751 Y5.1254
G3 X1.2303 Y5.1554 I0 J7.1727
G3 X1.8431 Y5.2417 I-0.5832 J6.3565
G3 X2.444 Y5.3881 I-1.1475 J6.0163
G3 X3.0148 Y5.5907 I-1.6763 J5.6278
G3 X3.5616 Y5.851 I-2.247 J5.4252
G3 X4.0901 Y6.1724 I-2.914 J5.3869
G3 X4.5844 Y6.5446 I-3.5876 J5.2792
G3 X5.069 Y6.9867 I-4.5867 J5.5137
G3 X5.5111 Y7.4712 I-5.0712 J5.0715
G3 X5.8834 Y7.9655 I-4.9064 J4.082
G3 X6.2047 Y8.494 I-5.0649 J3.4424
G3 X6.4651 Y9.0408 I-5.164 J2.7938
G3 X6.6677 Y9.6115 I-5.4243 J2.247
G3 X6.8141 Y10.2123 I-5.8688 J1.7483
G3 X6.9004 Y10.8251 I-6.269 J1.1958
G3 X6.9304 Y11.4803 I-7.1413 J0.6552
G1 X6.6265 Y11.4803
G1 X6.6265 Y11.6577
G1 X6.3062 Y11.6577
G0 Z0.2
G0 X6.3062 Y11.6577
G1 Z-0.54 F20
G1 X6.3062 Y11.4803 F40
G1 X6.0052 Y11.4803
G2 X5.9793 Y10.9206 I-6.1298 J0.0034
G2 X5.9053 Y10.3972 I-5.433 J0.5012
G2 X5.78 Y9.8839 I-5.1424 J0.9832
G2 X5.6067 Y9.3964 I-4.8106 J1.4349
G2 X5.3842 Y8.9293 I-4.6374 J1.9225
G2 X5.1096 Y8.4779 I-4.6046 J2.4922
G2 X4.7916 Y8.0556 I-4.5124 J3.0676
G2 X4.4139 Y7.6417 I-4.7124 J3.921
G2 X4 Y7.264 I-4.3348 J4.3349
G2 X3.5777 Y6.946 I-3.49 J4.1947
G2 X3.1263 Y6.6714 I-2.9437 J4.3304
G2 X2.6591 Y6.4489 I-2.3898 J4.4155
G2 X2.1716 Y6.2756 I-1.9227 J4.6381
G2 X1.6583 Y6.1503 I-1.4968 J5.018
G2 X1.1348 Y6.0763 I-1.0249 J5.36
G2 X0.5751 Y6.0504 I-0.5633 J6.105
G1 X0.5751 Y5.7503
G1 X0.7535 Y5.7503
G1 X0.7535 Y5.4283
G1 X0.5751 Y5.4283
G1 X0.5751 Y5.1254
G3 X1.2303 Y5.1554 I0 J7.1727
G3 X1.8431 Y5.2417 I-0.5832 J6.3565
G3 X2.444 Y5.3881 I-1.1475 J6.0163
G3 X3.0148 Y5.5907 I-1.6763 J5.6278
G3 X3.5616 Y5.851 I-2.247 J5.4252
G3 X4.0901 Y6.1724 I-2.914 J5.3869
G3 X4.5844 Y6.5446 I-3.5876 J5.2792
G3 X5.069 Y6.9867 I-4.5867 J5.5137
G3 X5.5111 Y7.4712 I-5.0712 J5.0715
G3 X5.8834 Y7.9655 I-4.9064 J4.082
G3 X6.2047 Y8.494 I-5.0649 J3.4424
G3 X6.4651 Y9.0408 I-5.164 J2.7938
G3 X6.6677 Y9.6115 I-5.4243 J2.247
G3 X6.8141 Y10.2123 I-5.8688 J1.7483
G3 X6.9004 Y10.8251 I-6.269 J1.1958
G3 X6.9304 Y11.4803 I-7.1413 J0.6552
G1 X6.6265 Y11.4803
G1 X6.6265 Y11.6577
G1 X6.3062 Y11.6577
G0 Z0.2
G0 X6.3062 Y11.6577
G1 Z-0.6 F20
G1 X6.3062 Y11.4803 F40
G1 X6.0052 Y11.4803
G2 X5.9793 Y10.9206 I-6.1298 J0.0034
G2 X5.9053 Y10.3972 I-5.433 J0.5012
G2 X5.78 Y9.8839 I-5.1424 J0.9832
G2 X5.6067 Y9.3964 I-4.8106 J1.4349
G2 X5.3842 Y8.9293 I-4.6374 J1.9225
G2 X5.1096 Y8.4779 I-4.6046 J2.4922
G2 X4.7916 Y8.0556 I-4.5124 J3.0676
G2 X4.4139 Y7.6417 I-4.7124 J3.921
G2 X4 Y7.264 I-4.3348 J4.3349
G2 X3.5777 Y6.946 I-3.49 J4.1947
G2 X3.1263 Y6.6714 I-2.9437 J4.3304
G2 X2.6591 Y6.4489 I-2.3898 J4.4155
G2 X2.1716 Y6.2756 I-1.9227 J4.6381
G2 X1.6583 Y6.1503 I-1.4968 J5.018
G2 X1.1348 Y6.0763 I-1.0249 J5.36
G2 X0.5751 Y6.0504 I-0.5633 J6.105
G1 X0.5751 Y5.7503
G1 X0.7535 Y5.7503
G1 X0.7535 Y5.4283
G1 X0.5751 Y5.4283
G1 X0.5751 Y5.1254
G3 X1.2303 Y5.1554 I0 J7.1727
G3 X1.8431 Y5.2417 I-0.5832 J6.3565
G3 X2.444 Y5.3881 I-1.1475 J6.0163
G3 X3.0148 Y5.5907 I-1.6763 J5.6278
G3 X3.5616 Y5.851 I-2.247 J5.4252
G3 X4.0901 Y6.1724 I-2.914 J5.3869
G3 X4.5844 Y6.5446 I-3.5876 J5.2792
G3 X5.069 Y6.9867 I-4.5867 J5.5137
G3 X5.5111 Y7.4712 I-5.0712 J5.0715
G3 X5.8834 Y7.9655 I-4.9064 J4.082
G3 X6.2047 Y8.494 I-5.0649 J3.4424
G3 X6.4651 Y9.0408 I-5.164 J2.7938
G3 X6.6677 Y9.6115 I-5.4243 J2.247
G3 X6.8141 Y10.2123 I-5.8688 J1.7483
G3 X6.9004 Y10.8251 I-6.269 J1.1958
G3 X6.9304 Y11.4803 I-7.1413 J0.6552
G1 X6.6265 Y11.4803
G1 X6.6265 Y11.6577
G1 X6.3062 Y11.6577
G0 Z0.2
G0 X6.3062 Y11.6577
G1 Z-0.66 F20
G1 X6.3062 Y11.4803 F40
G1 X6.0052 Y11.4803
G2 X5.9793 Y10.9206 I-6.1298 J0.0034
G2 X5.9053 Y10.3972 I-5.433 J0.5012
G2 X5.78 Y9.8839 I-5.1424 J0.9832
G2 X5.6067 Y9.3964 I-4.8106 J1.4349
G2 X5.3842 Y8.9293 I-4.6374 J1.9225
G2 X5.1096 Y8.4779 I-4.6046 J2.4922
G2 X4.7916 Y8.0556 I-4.5124 J3.0676
G2 X4.4139 Y7.6417 I-4.7124 J3.921
G2 X4 Y7.264 I-4.3348 J4.3349
G2 X3.5777 Y6.946 I-3.49 J4.1947
G2 X3.1263 Y6.6714 I-2.9437 J4.3304
G2 X2.6591 Y6.4489 I-2.3898 J4.4155
G2 X2.1716 Y6.2756 I-1.9227 J4.6381
G2 X1.6583 Y6.1503 I-1.4968 J5.018
G2 X1.1348 Y6.0763 I-1.0249 J5.36
G2 X0.5751 Y6.0504 I-0.5633 J6.105
G1 X0.5751 Y5.7503
G1 X0.7535 Y5.7503
G1 X0.7535 Y5.4283
G1 X0.5751 Y5.4283
G1 X0.5751 Y5.1254
G3 X1.2303 Y5.1554 I0 J7.1727
G3 X1.8431 Y5.2417 I-0.5832 J6.3565
G3 X2.444 Y5.3881 I-1.1475 J6.0163
G3 X3.0148 Y5.5907 I-1.6763 J5.6278
G3 X3.5616 Y5.851 I-2.247 J5.4252
G3 X4.0901 Y6.1724 I-2.914 J5.3869
G3 X4.5844 Y6.5446 I-3.5876 J5.2792
G3 X5.069 Y6.9867 I-4.5867 J5.5137
G3 X5.5111 Y7.4712 I-5.0712 J5.0715
G3 X5.8834 Y7.9655 I-4.9064 J4.082
G3 X6.2047 Y8.494 I-5.0649 J3.4424
G3 X6.4651 Y9.0408 I-5.164 J2.7938
G3 X6.6677 Y9.6115 I-5.4243 J2.247
G3 X6.8141 Y10.2123 I-5.8688 J1.7483
G3 X6.9004 Y10.8251 I-6.269 J1.1958
G3 X6.9304 Y11.4803 I-7.1413 J0.6552
G1 X6.6265 Y11.4803
G1 X6.6265 Y11.6577
G1 X6.3062 Y11.6577
G0 Z0.2
G0 X6.3062 Y11.6577
G1 Z-0.72 F20
G1 X6.3062 Y11.4803 F40
G1 X6.0052 Y11.4803
G2 X5.9793 Y10.9206 I-6.1298 J0.0034
G2 X5.9053 Y10.3972 I-5.433 J0.5012
G2 X5.78 Y9.8839 I-5.1424 J0.9832
G2 X5.6067 Y9.3964 I-4.8106 J1.4349
G2 X5.3842 Y8.9293 I-4.6374 J1.9225
G2 X5.1096 Y8.4779 I-4.6046 J2.4922
G2 X4.7916 Y8.0556 I-4.5124 J3.0676
G2 X4.4139 Y7.6417 I-4.7124 J3.921
G2 X4 Y7.264 I-4.3348 J4.3349
G2 X3.5777 Y6.946 I-3.49 J4.1947
G2 X3.1263 Y6.6714 I-2.9437 J4.3304
G2 X2.6591 Y6.4489 I-2.3898 J4.4155
G2 X2.1716 Y6.2756 I-1.9227 J4.6381
G2 X1.6583 Y6.1503 I-1.4968 J5.018
G2 X1.1348 Y6.0763 I-1.0249 J5.36
G2 X0.5751 Y6.0504 I-0.5633 J6.105
G1 X0.5751 Y5.7503
G1 X0.7535 Y5.7503
G1 X0.7535 Y5.4283
G1 X0.5751 Y5.4283
G1 X0.5751 Y5.1254
G3 X1.2303 Y5.1554 I0 J7.1727
G3 X1.8431 Y5.2417 I-0.5832 J6.3565
G3 X2.444 Y5.3881 I-1.1475 J6.0163
G3 X3.0148 Y5.5907 I-1.6763 J5.6278
G3 X3.5616 Y5.851 I-2.247 J5.4252
G3 X4.0901 Y6.1724 I-2.914 J5.3869
G3 X4.5844 Y6.5446 I-3.5876 J5.2792
G3 X5.069 Y6.9867 I-4.5867 J5.5137
G3 X5.5111 Y7.4712 I-5.0712 J5.0715
G3 X5.8834 Y7.9655 I-4.9064 J4.082
G3 X6.2047 Y8.494 I-5.0649 J3.4424
G3 X6.4651 Y9.0408 I-5.164 J2.7938
G3 X6.6677 Y9.6115 I-5.4243 J2.247
G3 X6.8141 Y10.2123 I-5.8688 J1.7483
G3 X6.9004 Y10.8251 I-6.269 J1.1958
G3 X6.9304 Y11.4803 I-7.1413 J0.6552
G1 X6.6265 Y11.4803
G1 X6.6265 Y11.6577
G1 X6.3062 Y11.6577
G0 Z0.2
G0 X6.3062 Y11.6577
G1 Z-0.78 F20
G1 X6.3062 Y11.4803 F40
G1 X6.0052 Y11.4803
G2 X5.9793 Y10.9206 I-6.1298 J0.0034
G2 X5.9053 Y10.3972 I-5.433 J0.5012
G2 X5.78 Y9.8839 I-5.1424 J0.9832
G2 X5.6067 Y9.3964 I-4.8106 J1.4349
G2 X5.3842 Y8.9293 I-4.6374 J1.9225
G2 X5.1096 Y8.4779 I-4.6046 J2.4922
G2 X4.7916 Y8.0556 I-4.5124 J3.0676
G2 X4.4139 Y7.6417 I-4.7124 J3.921
G2 X4 Y7.264 I-4.3348 J4.3349
G2 X3.5777 Y6.946 I-3.49 J4.1947
G2 X3.1263 Y6.6714 I-2.9437 J4.3304
G2 X2.6591 Y6.4489 I-2.3898 J4.4155
G2 X2.1716 Y6.2756 I-1.9227 J4.6381
G2 X1.6583 Y6.1503 I-1.4968 J5.018
G2 X1.1348 Y6.0763 I-1.0249 J5.36
G2 X0.5751 Y6.0504 I-0.5633 J6.105
G1 X0.5751 Y5.7503
G1 X0.7535 Y5.7503
G1 X0.7535 Y5.4283
G1 X0.5751 Y5.4283
G1 X0.5751 Y5.1254
G3 X1.2303 Y5.1554 I0 J7.1727
G3 X1.8431 Y5.2417 I-0.5832 J6.3565
G3 X2.444 Y5.3881 I-1.1475 J6.0163
G3 X3.0148 Y5.5907 I-1.6763 J5.6278
G3 X3.5616 Y5.851 I-2.247 J5.4252
G3 X4.0901 Y6.1724 I-2.914 J5.3869
G3 X4.5844 Y6.5446 I-3.5876 J5.2792
G3 X5.069 Y6.9867 I-4.5867 J5.5137
G3 X5.5111 Y7.4712 I-5.0712 J5.0715
G3 X5.8834 Y7.9655 I-4.9064 J4.082
G3 X6.2047 Y8.494 I-5.0649 J3.4424
G3 X6.4651 Y9.0408 I-5.164 J2.7938
G3 X6.6677 Y9.6115 I-5.4243 J2.247
G3 X6.8141 Y10.2123 I-5.8688 J1.7483
G3 X6.9004 Y10.8251 I-6.269 J1.1958
G3 X6.9304 Y11.4803 I-7.1413 J0.6552
G1 X6.6265 Y11.4803
G1 X6.6265 Y11.6577
G1 X6.3062 Y11.6577
G0 Z0.2
G0 X6.3062 Y11.6577
G1 Z-0.79 F20
G1 X6.3062 Y11.4803 F40
G1 X6.0052 Y11.4803
G2 X5.9793 Y10.9206 I-6.1298 J0.0034
G2 X5.9053 Y10.3972 I-5.433 J0.5012
G2 X5.78 Y9.8839 I-5.1424 J0.9832
G2 X5.6067 Y9.3964 I-4.8106 J1.4349
G2 X5.3842 Y8.9293 I-4.6374 J1.9225
G2 X5.1096 Y8.4779 I-4.6046 J2.4922
G2 X4.7916 Y8.0556 I-4.5124 J3.0676
G2 X4.4139 Y7.6417 I-4.7124 J3.921
G2 X4 Y7.264 I-4.3348 J4.3349
G2 X3.5777 Y6.946 I-3.49 J4.1947
G2 X3.1263 Y6.6714 I-2.9437 J4.3304
G2 X2.6591 Y6.4489 I-2.3898 J4.4155
G2 X2.1716 Y6.2756 I-1.9227 J4.6381
G2 X1.6583 Y6.1503 I-1.4968 J5.018
G2 X1.1348 Y6.0763 I-1.0249 J5.36
G2 X0.5751 Y6.0504 I-0.5633 J6.105
G1 X0.5751 Y5.7503
G1 X0.7535 Y5.7503
G1 X0.7535 Y5.4283
G1 X0.5751 Y5.4283
G1 X0.5751 Y5.1254
G3 X1.2303 Y5.1554 I0 J7.1727
G3 X1.8431 Y5.2417 I-0.5832 J6.3565
G3 X2.444 Y5.3881 I-1.1475 J6.0163
G3 X3.0148 Y5.5907 I-1.6763 J5.6278
G3 X3.5616 Y5.851 I-2.247 J5.4252
G3 X4.0901 Y6.1724 I-2.914 J5.3869
G3 X4.5844 Y6.5446 I-3.5876 J5.2792
G3 X5.069 Y6.9867 I-4.5867 J5.5137
G3 X5.5111 Y7.4712 I-5.0712 J5.0715
G3 X5.8834 Y7.9655 I-4.9064 J4.082
G3 X6.2047 Y8.494 I-5.0649 J3.4424
G3 X6.4651 Y9.0408 I-5.164 J2.7938
G3 X6.6677 Y9.6115 I-5.4243 J2.247
G3 X6.8141 Y10.2123 I-5.8688 J1.7483
G3 X6.9004 Y10.8251 I-6.269 J1.1958
G3 X6.9304 Y11.4803 I-7.1413 J0.6552
G1 X6.6265 Y11.4803
G1 X6.6265 Y11.6577
G1 X6.3062 Y11.6577
G0 Z0.2
G0 X6.2589 Y16.7494
G1 Z-0.06 F20
G1 X6.2589 Y16.572 F40
G1 X5.9578 Y16.572
G2 X5.9319 Y16.0123 I-6.1298 J0.0034
G2 X5.8579 Y15.4888 I-5.433 J0.5012
G2 X5.7326 Y14.9755 I-5.1424 J0.9832
G2 X5.5594 Y14.488 I-4.8106 J1.4349
G2 X5.3369 Y14.0209 I-4.6374 J1.9225
G2 X5.0623 Y13.5695 I-4.6046 J2.4922
G2 X4.7442 Y13.1473 I-4.5124 J3.0676
G2 X4.3665 Y12.7334 I-4.7124 J3.921
G2 X3.9526 Y12.3557 I-4.3348 J4.3349
G2 X3.5303 Y12.0376 I-3.49 J4.1947
G2 X3.0789 Y11.763 I-2.9437 J4.3304
G2 X2.6118 Y11.5405 I-2.3898 J4.4155
G2 X2.1242 Y11.3673 I-1.9227 J4.6381
G2 X1.6109 Y11.242 I-1.4968 J5.018
G2 X1.0875 Y11.168 I-1.0249 J5.36
G2 X0.5277 Y11.142 I-0.5633 J6.105
G1 X0.5277 Y10.842
G1 X0.7061 Y10.842
G1 X0.7061 Y10.5199
G1 X0.5277 Y10.5199
G1 X0.5277 Y10.217
G3 X1.183 Y10.247 I0 J7.1727
G3 X1.7958 Y10.3334 I-0.5832 J6.3565
G3 X2.3967 Y10.4798 I-1.1475 J6.0163
G3 X2.9674 Y10.6824 I-1.6763 J5.6278
G3 X3.5143 Y10.9427 I-2.247 J5.4252
G3 X4.0427 Y11.264 I-2.914 J5.3869
G3 X4.5371 Y11.6362 I-3.5876 J5.2792
G3 X5.0216 Y12.0784 I-4.5867 J5.5137
G3 X5.4638 Y12.5629 I-5.0712 J5.0715
G3 X5.836 Y13.0572 I-4.9064 J4.082
G3 X6.1574 Y13.5856 I-5.0649 J3.4424
G3 X6.4177 Y14.1324 I-5.164 J2.7938
G3 X6.6203 Y14.7031 I-5.4243 J2.247
G3 X6.7667 Y15.304 I-5.8688 J1.7483
G3 X6.8531 Y15.9167 I-6.269 J1.1958
G3 X6.8831 Y16.572 I-7.1413 J0.6552
G1 X6.5792 Y16.572
G1 X6.5792 Y16.7494
G1 X6.2589 Y16.7494
G0 Z0.2
G0 X6.2589 Y16.7494
G1 Z-0.12 F20
G1 X6.2589 Y16.572 F40
G1 X5.9578 Y16.572
G2 X5.9319 Y16.0123 I-6.1298 J0.0034
G2 X5.8579 Y15.4888 I-5.433 J0.5012
G2 X5.7326 Y14.9755 I-5.1424 J0.9832
G2 X5.5594 Y14.488 I-4.8106 J1.4349
G2 X5.3369 Y14.0209 I-4.6374 J1.9225
G2 X5.0623 Y13.5695 I-4.6046 J2.4922
G2 X4.7442 Y13.1473 I-4.5124 J3.0676
G2 X4.3665 Y12.7334 I-4.7124 J3.921
G2 X3.9526 Y12.3557 I-4.3348 J4.3349
G2 X3.5303 Y12.0376 I-3.49 J4.1947
G2 X3.0789 Y11.763 I-2.9437 J4.3304
G2 X2.6118 Y11.5405 I-2.3898 J4.4155
G2 X2.1242 Y11.3673 I-1.9227 J4.6381
G2 X1.6109 Y11.242 I-1.4968 J5.018
G2 X1.0875 Y11.168 I-1.0249 J5.36
G2 X0.5277 Y11.142 I-0.5633 J6.105
G1 X0.5277 Y10.842
G1 X0.7061 Y10.842
G1 X0.7061 Y10.5199
G1 X0.5277 Y10.5199
G1 X0.5277 Y10.217
G3 X1.183 Y10.247 I0 J7.1727
G3 X1.7958 Y10.3334 I-0.5832 J6.3565
G3 X2.3967 Y10.4798 I-1.1475 J6.0163
G3 X2.9674 Y10.6824 I-1.6763 J5.6278
G3 X3.5143 Y10.9427 I-2.247 J5.4252
G3 X4.0427 Y11.264 I-2.914 J5.3869
G3 X4.5371 Y11.6362 I-3.5876 J5.2792
G3 X5.0216 Y12.0784 I-4.5867 J5.5137
G3 X5.4638 Y12.5629 I-5.0712 J5.0715
G3 X5.836 Y13.0572 I-4.9064 J4.082
G3 X6.1574 Y13.5856 I-5.0649 J3.4424
G3 X6.4177 Y14.1324 I-5.164 J2.7938
G3 X6.6203 Y14.7031 I-5.4243 J2.247
G3 X6.7667 Y15.304 I-5.8688 J1.7483
G3 X6.8531 Y15.9167 I-6.269 J1.1958
G3 X6.8831 Y16.572 I-7.1413 J0.6552
G1 X6.5792 Y16.572
G1 X6.5792 Y16.7494
G1 X6.2589 Y16.7494
G0 Z0.2
G0 X6.2589 Y16.7494
G1 Z-0.18 F20
G1 X6.2589 Y16.572 F40
G1 X5.9578 Y16.572
G2 X5.9319 Y16.0123 I-6.1298 J0.0034
G2 X5.8579 Y15.4888 I-5.433 J0.5012
G2 X5.7326 Y14.9755 I-5.1424 J0.9832
G2 X5.5594 Y14.488 I-4.8106 J1.4349
G2 X5.3369 Y14.0209 I-4.6374 J1.9225
G2 X5.0623 Y13.5695 I-4.6046 J2.4922
G2 X4.7442 Y13.1473 I-4.5124 J3.0676
G2 X4.3665 Y12.7334 I-4.7124 J3.921
G2 X3.9526 Y12.3557 I-4.3348 J4.3349
G2 X3.5303 Y12.0376 I-3.49 J4.1947
G2 X3.0789 Y11.763 I-2.9437 J4.3304
G2 X2.6118 Y11.5405 I-2.3898 J4.4155
G2 X2.1242 Y11.3673 I-1.9227 J4.6381
G2 X1.6109 Y11.242 I-1.4968 J5.018
G2 X1.0875 Y11.168 I-1.0249 J5.36
G2 X0.5277 Y11.142 I-0.5633 J6.105
G1 X0.5277 Y10.842
G1 X0.7061 Y10.842
G1 X0.7061 Y10.5199
G1 X0.5277 Y10.5199
G1 X0.5277 Y10.217
G3 X1.183 Y10.247 I0 J7.1727
G3 X1.7958 Y10.3334 I-0.5832 J6.3565
G3 X2.3967 Y10.4798 I-1.1475 J6.0163
G3 X2.9674 Y10.6824 I-1.6763 J5.6278
G3 X3.5143 Y10.9427 I-2.247 J5.4252
G3 X4.0427 Y11.264 I-2.914 J5.3869
G3 X4.5371 Y11.6362 I-3.5876 J5.2792
G3 X5.0216 Y12.0784 I-4.5867 J5.5137
G3 X5.4638 Y12.5629 I-5.0712 J5.0715
G3 X5.836 Y13.0572 I-4.9064 J4.082
G3 X6.1574 Y13.5856 I-5.0649 J3.4424
G3 X6.4177 Y14.1324 I-5.164 J2.7938
G3 X6.6203 Y14.7031 I-5.4243 J2.247
G3 X6.7667 Y15.304 I-5.8688 J1.7483
G3 X6.8531 Y15.9167 I-6.269 J1.1958
G3 X6.8831 Y16.572 I-7.1413 J0.6552
G1 X6.5792 Y16.572
G1 X6.5792 Y16.7494
G1 X6.2589 Y16.7494
G0 Z0.2
G0 X6.2589 Y16.7494
G1 Z-0.24 F20
G1 X6.2589 Y16.572 F40
G1 X5.9578 Y16.572
G2 X5.9319 Y16.0123 I-6.1298 J0.0034
G2 X5.8579 Y15.4888 I-5.433 J0.5012
G2 X5.7326 Y14.9755 I-5.1424 J0.9832
G2 X5.5594 Y14.488 I-4.8106 J1.4349
G2 X5.3369 Y14.0209 I-4.6374 J1.9225
G2 X5.0623 Y13.5695 I-4.6046 J2.4922
G2 X4.7442 Y13.1473 I-4.5124 J3.0676
G2 X4.3665 Y12.7334 I-4.7124 J3.921
G2 X3.9526 Y12.3557 I-4.3348 J4.3349
G2 X3.5303 Y12.0376 I-3.49 J4.1947
G2 X3.0789 Y11.763 I-2.9437 J4.3304
G2 X2.6118 Y11.5405 I-2.3898 J4.4155
G2 X2.1242 Y11.3673 I-1.9227 J4.6381
G2 X1.6109 Y11.242 I-1.4968 J5.018
G2 X1.0875 Y11.168 I-1.0249 J5.36
G2 X0.5277 Y11.142 I-0.5633 J6.105
G1 X0.5277 Y10.842
G1 X0.7061 Y10.842
G1 X0.7061 Y10.5199
G1 X0.5277 Y10.5199
G1 X0.5277 Y10.217
G3 X1.183 Y10.247 I0 J7.1727
G3 X1.7958 Y10.3334 I-0.5832 J6.3565
G3 X2.3967 Y10.4798 I-1.1475 J6.0163
G3 X2.9674 Y10.6824 I-1.6763 J5.6278
G3 X3.5143 Y10.9427 I-2.247 J5.4252
G3 X4.0427 Y11.264 I-2.914 J5.3869
G3 X4.5371 Y11.6362 I-3.5876 J5.2792
G3 X5.0216 Y12.0784 I-4.5867 J5.5137
G3 X5.4638 Y12.5629 I-5.0712 J5.0715
G3 X5.836 Y13.0572 I-4.9064 J4.082
G3 X6.1574 Y13.5856 I-5.0649 J3.4424
G3 X6.4177 Y14.1324 I-5.164 J2.7938
G3 X6.6203 Y14.7031 I-5.4243 J2.247
G3 X6.7667 Y15.304 I-5.8688 J1.7483
G3 X6.8531 Y15.9167 I-6.269 J1.1958
G3 X6.8831 Y16.572 I-7.1413 J0.6552
G1 X6.5792 Y16.572
G1 X6.5792 Y16.7494
G1 X6.2589 Y16.7494
G0 Z0.2
G0 X6.2589 Y16.7494
G1 Z-0.3 F20
G1 X6.2589 Y16.572 F40
G1 X5.9578 Y16.572
G2 X5.9319 Y16.0123 I-6.1298 J0.0034
G2 X5.8579 Y15.4888 I-5.433 J0.5012
G2 X5.7326 Y14.9755 I-5.1424 J0.9832
G2 X5.5594 Y14.488 I-4.8106 J1.4349
G2 X5.3369 Y14.0209 I-4.6374 J1.9225
G2 X5.0623 Y13.5695 I-4.6046 J2.4922
G2 X4.7442 Y13.1473 I-4.5124 J3.0676
G2 X4.3665 Y12.7334 I-4.7124 J3.921
G2 X3.9526 Y12.3557 I-4.3348 J4.3349
G2 X3.5303 Y12.0376 I-3.49 J4.1947
G2 X3.0789 Y11.763 I-2.9437 J4.3304
G2 X2.6118 Y11.5405 I-2.3898 J4.4155
G2 X2.1242 Y11.3673 I-1.9227 J4.6381
G2 X1.6109 Y11.242 I-1.4968 J5.018
G2 X1.0875 Y11.168 I-1.0249 J5.36
G2 X0.5277 Y11.142 I-0.5633 J6.105
G1 X0.5277 Y10.842
G1 X0.7061 Y10.842
G1 X0.7061 Y10.5199
G1 X0.5277 Y10.5199
G1 X0.5277 Y10.217
G3 X1.183 Y10.247 I0 J7.1727
G3 X1.7958 Y10.3334 I-0.5832 J6.3565
G3 X2.3967 Y10.4798 I-1.1475 J6.0163
G3 X2.9674 Y10.6824 I-1.6763 J5.6278
G3 X3.5143 Y10.9427 I-2.247 J5.4252
G3 X4.0427 Y11.264 I-2.914 J5.3869
G3 X4.5371 Y11.6362 I-3.5876 J5.2792
G3 X5.0216 Y12.0784 I-4.5867 J5.5137
G3 X5.4638 Y12.5629 I-5.0712 J5.0715
G3 X5.836 Y13.0572 I-4.9064 J4.082
G3 X6.1574 Y13.5856 I-5.0649 J3.4424
G3 X6.4177 Y14.1324 I-5.164 J2.7938
G3 X6.6203 Y14.7031 I-5.4243 J2.247
G3 X6.7667 Y15.304 I-5.8688 J1.7483
G3 X6.8531 Y15.9167 I-6.269 J1.1958
G3 X6.8831 Y16.572 I-7.1413 J0.6552
G1 X6.5792 Y16.572
G1 X6.5792 Y16.7494
G1 X6.2589 Y16.7494
G0 Z0.2
G0 X6.2589 Y16.7494
G1 Z-0.36 F20
G1 X6.2589 Y16.572 F40
G1 X5.9578 Y16.572
G2 X5.9319 Y16.0123 I-6.1298 J0.0034
G2 X5.8579 Y15.4888 I-5.433 J0.5012
G2 X5.7326 Y14.9755 I-5.1424 J0.9832
G2 X5.5594 Y14.488 I-4.8106 J1.4349
G2 X5.3369 Y14.0209 I-4.6374 J1.9225
G2 X5.0623 Y13.5695 I-4.6046 J2.4922
G2 X4.7442 Y13.1473 I-4.5124 J3.0676
G2 X4.3665 Y12.7334 I-4.7124 J3.921
G2 X3.9526 Y12.3557 I-4.3348 J4.3349
G2 X3.5303 Y12.0376 I-3.49 J4.1947
G2 X3.0789 Y11.763 I-2.9437 J4.3304
G2 X2.6118 Y11.5405 I-2.3898 J4.4155
G2 X2.1242 Y11.3673 I-1.9227 J4.6381
G2 X1.6109 Y11.242 I-1.4968 J5.018
G2 X1.0875 Y11.168 I-1.0249 J5.36
G2 X0.5277 Y11.142 I-0.5633 J6.105
G1 X0.5277 Y10.842
G1 X0.7061 Y10.842
G1 X0.7061 Y10.5199
G1 X0.5277 Y10.5199
G1 X0.5277 Y10.217
G3 X1.183 Y10.247 I0 J7.1727
G3 X1.7958 Y10.3334 I-0.5832 J6.3565
G3 X2.3967 Y10.4798 I-1.1475 J6.0163
G3 X2.9674 Y10.6824 I-1.6763 J5.6278
G3 X3.5143 Y10.9427 I-2.247 J5.4252
G3 X4.0427 Y11.264 I-2.914 J5.3869
G3 X4.5371 Y11.6362 I-3.5876 J5.2792
G3 X5.0216 Y12.0784 I-4.5867 J5.5137
G3 X5.4638 Y12.5629 I-5.0712 J5.0715
G3 X5.836 Y13.0572 I-4.9064 J4.082
G3 X6.1574 Y13.5856 I-5.0649 J3.4424
G3 X6.4177 Y14.1324 I-5.164 J2.7938
G3 X6.6203 Y14.7031 I-5.4243 J2.247
G3 X6.7667 Y15.304 I-5.8688 J1.7483
G3 X6.8531 Y15.9167 I-6.269 J1.1958
G3 X6.8831 Y16.572 I-7.1413 J0.6552
G1 X6.5792 Y16.572
G1 X6.5792 Y16.7494
G1 X6.2589 Y16.7494
G0 Z0.2
G0 X6.2589 Y16.7494
G1 Z-0.42 F20
G1 X6.2589 Y16.572 F40
G1 X5.9578 Y16.572
G2 X5.9319 Y16.0123 I-6.1298 J0.0034
G2 X5.8579 Y15.4888 I-5.433 J0.5012
G2 X5.7326 Y14.9755 I-5.1424 J0.9832
G2 X5.5594 Y14.488 I-4.8106 J1.4349
G2 X5.3369 Y14.0209 I-4.6374 J1.9225
G2 X5.0623 Y13.5695 I-4.6046 J2.4922
G2 X4.7442 Y13.1473 I-4.5124 J3.0676
G2 X4.3665 Y12.7334 I-4.7124 J3.921
G2 X3.9526 Y12.3557 I-4.3348 J4.3349
G2 X3.5303 Y12.0376 I-3.49 J4.1947
G2 X3.0789 Y11.763 I-2.9437 J4.3304
G2 X2.6118 Y11.5405 I-2.3898 J4.4155
G2 X2.1242 Y11.3673 I-1.9227 J4.6381
G2 X1.6109 Y11.242 I-1.4968 J5.018
G2 X1.0875 Y11.168 I-1.0249 J5.36
G2 X0.5277 Y11.142 I-0.5633 J6.105
G1 X0.5277 Y10.842
G1 X0.7061 Y10.842
G1 X0.7061 Y10.5199
G1 X0.5277 Y10.5199
G1 X0.5277 Y10.217
G3 X1.183 Y10.247 I0 J7.1727
G3 X1.7958 Y10.3334 I-0.5832 J6.3565
G3 X2.3967 Y10.4798 I-1.1475 J6.0163
G3 X2.9674 Y10.6824 I-1.6763 J5.6278
G3 X3.5143 Y10.9427 I-2.247 J5.4252
G3 X4.0427 Y11.264 I-2.914 J5.3869
G3 X4.5371 Y11.6362 I-3.5876 J5.2792
G3 X5.0216 Y12.0784 I-4.5867 J5.5137
G3 X5.4638 Y12.5629 I-5.0712 J5.0715
G3 X5.836 Y13.0572 I-4.9064 J4.082
G3 X6.1574 Y13.5856 I-5.0649 J3.4424
G3 X6.4177 Y14.1324 I-5.164 J2.7938
G3 X6.6203 Y14.7031 I-5.4243 J2.247
G3 X6.7667 Y15.304 I-5.8688 J1.7483
G3 X6.8531 Y15.9167 I-6.269 J1.1958
G3 X6.8831 Y16.572 I-7.1413 J0.6552
G1 X6.5792 Y16.572
G1 X6.5792 Y16.7494
G1 X6.2589 Y16.7494
G0 Z0.2
G0 X6.2589 Y16.7494
G1 Z-0.48 F20
G1 X6.2589 Y16.572 F40
G1 X5.9578 Y16.572
G2 X5.9319 Y16.0123 I-6.1298 J0.0034
G2 X5.8579 Y15.4888 I-5.433 J0.5012
G2 X5.7326 Y14.9755 I-5.1424 J0.9832
G2 X5.5594 Y14.488 I-4.8106 J1.4349
G2 X5.3369 Y14.0209 I-4.6374 J1.9225
G2 X5.0623 Y13.5695 I-4.6046 J2.4922
G2 X4.7442 Y13.1473 I-4.5124 J3.0676
G2 X4.3665 Y12.7334 I-4.7124 J3.921
G2 X3.9526 Y12.3557 I-4.3348 J4.3349
G2 X3.5303 Y12.0376 I-3.49 J4.1947
G2 X3.0789 Y11.763 I-2.9437 J4.3304
G2 X2.6118 Y11.5405 I-2.3898 J4.4155
G2 X2.1242 Y11.3673 I-1.9227 J4.6381
G2 X1.6109 Y11.242 I-1.4968 J5.018
G2 X1.0875 Y11.168 I-1.0249 J5.36
G2 X0.5277 Y11.142 I-0.5633 J6.105
G1 X0.5277 Y10.842
G1 X0.7061 Y10.842
G1 X0.7061 Y10.5199
G1 X0.5277 Y10.5199
G1 X0.5277 Y10.217
G3 X1.183 Y10.247 I0 J7.1727
G3 X1.7958 Y10.3334 I-0.5832 J6.3565
G3 X2.3967 Y10.4798 I-1.1475 J6.0163
G3 X2.9674 Y10.6824 I-1.6763 J5.6278
G3 X3.5143 Y10.9427 I-2.247 J5.4252
G3 X4.0427 Y11.264 I-2.914 J5.3869
G3 X4.5371 Y11.6362 I-3.5876 J5.2792
G3 X5.0216 Y12.0784 I-4.5867 J5.5137
G3 X5.4638 Y12.5629 I-5.0712 J5.0715
G3 X5.836 Y13.0572 I-4.9064 J4.082
G3 X6.1574 Y13.5856 I-5.0649 J3.4424
G3 X6.4177 Y14.1324 I-5.164 J2.7938
G3 X6.6203 Y14.7031 I-5.4243 J2.247
G3 X6.7667 Y15.304 I-5.8688 J1.7483
G3 X6.8531 Y15.9167 I-6.269 J1.1958
G3 X6.8831 Y16.572 I-7.1413 J0.6552
G1 X6.5792 Y16.572
G1 X6.5792 Y16.7494
G1 X6.2589 Y16.7494
G0 Z0.2
G0 X6.2589 Y16.7494
G1 Z-0.54 F20
G1 X6.2589 Y16.572 F40
G1 X5.9578 Y16.572
G2 X5.9319 Y16.0123 I-6.1298 J0.0034
G2 X5.8579 Y15.4888 I-5.433 J0.5012
G2 X5.7326 Y14.9755 I-5.1424 J0.9832
G2 X5.5594 Y14.488 I-4.8106 J1.4349
G2 X5.3369 Y14.0209 I-4.6374 J1.9225
G2 X5.0623 Y13.5695 I-4.6046 J2.4922
G2 X4.7442 Y13.1473 I-4.5124 J3.0676
G2 X4.3665 Y12.7334 I-4.7124 J3.921
G2 X3.9526 Y12.3557 I-4.3348 J4.3349
G2 X3.5303 Y12.0376 I-3.49 J4.1947
G2 X3.0789 Y11.763 I-2.9437 J4.3304
G2 X2.6118 Y11.5405 I-2.3898 J4.4155
G2 X2.1242 Y11.3673 I-1.9227 J4.6381
G2 X1.6109 Y11.242 I-1.4968 J5.018
G2 X1.0875 Y11.168 I-1.0249 J5.36
G2 X0.5277 Y11.142 I-0.5633 J6.105
G1 X0.5277 Y10.842
G1 X0.7061 Y10.842
G1 X0.7061 Y10.5199
G1 X0.5277 Y10.5199
G1 X0.5277 Y10.217
G3 X1.183 Y10.247 I0 J7.1727
G3 X1.7958 Y10.3334 I-0.5832 J6.3565
G3 X2.3967 Y10.4798 I-1.1475 J6.0163
G3 X2.9674 Y10.6824 I-1.6763 J5.6278
G3 X3.5143 Y10.9427 I-2.247 J5.4252
G3 X4.0427 Y11.264 I-2.914 J5.3869
G3 X4.5371 Y11.6362 I-3.5876 J5.2792
G3 X5.0216 Y12.0784 I-4.5867 J5.5137
G3 X5.4638 Y12.5629 I-5.0712 J5.0715
G3 X5.836 Y13.0572 I-4.9064 J4.082
G3 X6.1574 Y13.5856 I-5.0649 J3.4424
G3 X6.4177 Y14.1324 I-5.164 J2.7938
G3 X6.6203 Y14.7031 I-5.4243 J2.247
G3 X6.7667 Y15.304 I-5.8688 J1.7483
G3 X6.8531 Y15.9167 I-6.269 J1.1958
G3 X6.8831 Y16.572 I-7.1413 J0.6552
G1 X6.5792 Y16.572
G1 X6.5792 Y16.7494
G1 X6.2589 Y16.7494
G0 Z0.2
G0 X6.2589 Y16.7494
G1 Z-0.6 F20
G1 X6.2589 Y16.572 F40
G1 X5.9578 Y16.572
G2 X5.9319 Y16.0123 I-6.1298 J0.0034
G2 X5.8579 Y15.4888 I-5.433 J0.5012
G2 X5.7326 Y14.9755 I-5.1424 J0.9832
G2 X5.5594 Y14.488 I-4.8106 J1.4349
G2 X5.3369 Y14.0209 I-4.6374 J1.9225
G2 X5.0623 Y13.5695 I-4.6046 J2.4922
G2 X4.7442 Y13.1473 I-4.5124 J3.0676
G2 X4.3665 Y12.7334 I-4.7124 J3.921
G2 X3.9526 Y12.3557 I-4.3348 J4.3349
G2 X3.5303 Y12.0376 I-3.49 J4.1947
G2 X3.0789 Y11.763 I-2.9437 J4.3304
G2 X2.6118 Y11.5405 I-2.3898 J4.4155
G2 X2.1242 Y11.3673 I-1.9227 J4.6381
G2 X1.6109 Y11.242 I-1.4968 J5.018
G2 X1.0875 Y11.168 I-1.0249 J5.36
G2 X0.5277 Y11.142 I-0.5633 J6.105
G1 X0.5277 Y10.842
G1 X0.7061 Y10.842
G1 X0.7061 Y10.5199
G1 X0.5277 Y10.5199
G1 X0.5277 Y10.217
G3 X1.183 Y10.247 I0 J7.1727
G3 X1.7958 Y10.3334 I-0.5832 J6.3565
G3 X2.3967 Y10.4798 I-1.1475 J6.0163
G3 X2.9674 Y10.6824 I-1.6763 J5.6278
G3 X3.5143 Y10.9427 I-2.247 J5.4252
G3 X4.0427 Y11.264 I-2.914 J5.3869
G3 X4.5371 Y11.6362 I-3.5876 J5.2792
G3 X5.0216 Y12.0784 I-4.5867 J5.5137
G3 X5.4638 Y12.5629 I-5.0712 J5.0715
G3 X5.836 Y13.0572 I-4.9064 J4.082
G3 X6.1574 Y13.5856 I-5.0649 J3.4424
G3 X6.4177 Y14.1324 I-5.164 J2.7938
G3 X6.6203 Y14.7031 I-5.4243 J2.247
G3 X6.7667 Y15.304 I-5.8688 J1.7483
G3 X6.8531 Y15.9167 I-6.269 J1.1958
G3 X6.8831 Y16.572 I-7.1413 J0.6552
G1 X6.5792 Y16.572
G1 X6.5792 Y16.7494
G1 X6.2589 Y16.7494
G0 Z0.2
G0 X6.2589 Y16.7494
G1 Z-0.66 F20
G1 X6.2589 Y16.572 F40
G1 X5.9578 Y16.572
G2 X5.9319 Y16.0123 I-6.1298 J0.0034
G2 X5.8579 Y15.4888 I-5.433 J0.5012
G2 X5.7326 Y14.9755 I-5.1424 J0.9832
G2 X5.5594 Y14.488 I-4.8106 J1.4349
G2 X5.3369 Y14.0209 I-4.6374 J1.9225
G2 X5.0623 Y13.5695 I-4.6046 J2.4922
G2 X4.7442 Y13.1473 I-4.5124 J3.0676
G2 X4.3665 Y12.7334 I-4.7124 J3.921
G2 X3.9526 Y12.3557 I-4.3348 J4.3349
G2 X3.5303 Y12.0376 I-3.49 J4.1947
G2 X3.0789 Y11.763 I-2.9437 J4.3304
G2 X2.6118 Y11.5405 I-2.3898 J4.4155
G2 X2.1242 Y11.3673 I-1.9227 J4.6381
G2 X1.6109 Y11.242 I-1.4968 J5.018
G2 X1.0875 Y11.168 I-1.0249 J5.36
G2 X0.5277 Y11.142 I-0.5633 J6.105
G1 X0.5277 Y10.842
G1 X0.7061 Y10.842
G1 X0.7061 Y10.5199
G1 X0.5277 Y10.5199
G1 X0.5277 Y10.217
G3 X1.183 Y10.247 I0 J7.1727
G3 X1.7958 Y10.3334 I-0.5832 J6.3565
G3 X2.3967 Y10.4798 I-1.1475 J6.0163
G3 X2.9674 Y10.6824 I-1.6763 J5.6278
G3 X3.5143 Y10.9427 I-2.247 J5.4252
G3 X4.0427 Y11.264 I-2.914 J5.3869
G3 X4.5371 Y11.6362 I-3.5876 J5.2792
G3 X5.0216 Y12.0784 I-4.5867 J5.5137
G3 X5.4638 Y12.5629 I-5.0712 J5.0715
G3 X5.836 Y13.0572 I-4.9064 J4.082
G3 X6.1574 Y13.5856 I-5.0649 J3.4424
G3 X6.4177 Y14.1324 I-5.164 J2.7938
G3 X6.6203 Y14.7031 I-5.4243 J2.247
G3 X6.7667 Y15.304 I-5.8688 J1.7483
G3 X6.8531 Y15.9167 I-6.269 J1.1958
G3 X6.8831 Y16.572 I-7.1413 J0.6552
G1 X6.5792 Y16.572
G1 X6.5792 Y16.7494
G1 X6.2589 Y16.7494
G0 Z0.2
G0 X6.2589 Y16.7494
G1 Z-0.72 F20
G1 X6.2589 Y16.572 F40
G1 X5.9578 Y16.572
G2 X5.9319 Y16.0123 I-6.1298 J0.0034
G2 X5.8579 Y15.4888 I-5.433 J0.5012
G2 X5.7326 Y14.9755 I-5.1424 J0.9832
G2 X5.5594 Y14.488 I-4.8106 J1.4349
G2 X5.3369 Y14.0209 I-4.6374 J1.9225
G2 X5.0623 Y13.5695 I-4.6046 J2.4922
G2 X4.7442 Y13.1473 I-4.5124 J3.0676
G2 X4.3665 Y12.7334 I-4.7124 J3.921
G2 X3.9526 Y12.3557 I-4.3348 J4.3349
G2 X3.5303 Y12.0376 I-3.49 J4.1947
G2 X3.0789 Y11.763 I-2.9437 J4.3304
G2 X2.6118 Y11.5405 I-2.3898 J4.4155
G2 X2.1242 Y11.3673 I-1.9227 J4.6381
G2 X1.6109 Y11.242 I-1.4968 J5.018
G2 X1.0875 Y11.168 I-1.0249 J5.36
G2 X0.5277 Y11.142 I-0.5633 J6.105
G1 X0.5277 Y10.842
G1 X0.7061 Y10.842
G1 X0.7061 Y10.5199
G1 X0.5277 Y10.5199
G1 X0.5277 Y10.217
G3 X1.183 Y10.247 I0 J7.1727
G3 X1.7958 Y10.3334 I-0.5832 J6.3565
G3 X2.3967 Y10.4798 I-1.1475 J6.0163
G3 X2.9674 Y10.6824 I-1.6763 J5.6278
G3 X3.5143 Y10.9427 I-2.247 J5.4252
G3 X4.0427 Y11.264 I-2.914 J5.3869
G3 X4.5371 Y11.6362 I-3.5876 J5.2792
G3 X5.0216 Y12.0784 I-4.5867 J5.5137
G3 X5.4638 Y12.5629 I-5.0712 J5.0715
G3 X5.836 Y13.0572 I-4.9064 J4.082
G3 X6.1574 Y13.5856 I-5.0649 J3.4424
G3 X6.4177 Y14.1324 I-5.164 J2.7938
G3 X6.6203 Y14.7031 I-5.4243 J2.247
G3 X6.7667 Y15.304 I-5.8688 J1.7483
G3 X6.8531 Y15.9167 I-6.269 J1.1958
G3 X6.8831 Y16.572 I-7.1413 J0.6552
G1 X6.5792 Y16.572
G1 X6.5792 Y16.7494
G1 X6.2589 Y16.7494
G0 Z0.2
G0 X6.2589 Y16.7494
G1 Z-0.78 F20
G1 X6.2589 Y16.572 F40
G1 X5.9578 Y16.572
G2 X5.9319 Y16.0123 I-6.1298 J0.0034
G2 X5.8579 Y15.4888 I-5.433 J0.5012
G2 X5.7326 Y14.9755 I-5.1424 J0.9832
G2 X5.5594 Y14.488 I-4.8106 J1.4349
G2 X5.3369 Y14.0209 I-4.6374 J1.9225
G2 X5.0623 Y13.5695 I-4.6046 J2.4922
G2 X4.7442 Y13.1473 I-4.5124 J3.0676
G2 X4.3665 Y12.7334 I-4.7124 J3.921
G2 X3.9526 Y12.3557 I-4.3348 J4.3349
G2 X3.5303 Y12.0376 I-3.49 J4.1947
G2 X3.0789 Y11.763 I-2.9437 J4.3304
G2 X2.6118 Y11.5405 I-2.3898 J4.4155
G2 X2.1242 Y11.3673 I-1.9227 J4.6381
G2 X1.6109 Y11.242 I-1.4968 J5.018
G2 X1.0875 Y11.168 I-1.0249 J5.36
G2 X0.5277 Y11.142 I-0.5633 J6.105
G1 X0.5277 Y10.842
G1 X0.7061 Y10.842
G1 X0.7061 Y10.5199
G1 X0.5277 Y10.5199
G1 X0.5277 Y10.217
G3 X1.183 Y10.247 I0 J7.1727
G3 X1.7958 Y10.3334 I-0.5832 J6.3565
G3 X2.3967 Y10.4798 I-1.1475 J6.0163
G3 X2.9674 Y10.6824 I-1.6763 J5.6278
G3 X3.5143 Y10.9427 I-2.247 J5.4252
G3 X4.0427 Y11.264 I-2.914 J5.3869
G3 X4.5371 Y11.6362 I-3.5876 J5.2792
G3 X5.0216 Y12.0784 I-4.5867 J5.5137
G3 X5.4638 Y12.5629 I-5.0712 J5.0715
G3 X5.836 Y13.0572 I-4.9064 J4.082
G3 X6.1574 Y13.5856 I-5.0649 J3.4424
G3 X6.4177 Y14.1324 I-5.164 J2.7938
G3 X6.6203 Y14.7031 I-5.4243 J2.247
G3 X6.7667 Y15.304 I-5.8688 J1.7483
G3 X6.8531 Y15.9167 I-6.269 J1.1958
G3 X6.8831 Y16.572 I-7.1413 J0.6552
G1 X6.5792 Y16.572
G1 X6.5792 Y16.7494
G1 X6.2589 Y16.7494
G0 Z0.2
G0 X6.2589 Y16.7494
G1 Z-0.79 F20
G1 X6.2589 Y16.572 F40
G1 X5.9578 Y16.572
G2 X5.9319 Y16.0123 I-6.1298 J0.0034
G2 X5.8579 Y15.4888 I-5.433 J0.5012
G2 X5.7326 Y14.9755 I-5.1424 J0.9832
G2 X5.5594 Y14.488 I-4.8106 J1.4349
G2 X5.3369 Y14.0209 I-4.6374 J1.9225
G2 X5.0623 Y13.5695 I-4.6046 J2.4922
G2 X4.7442 Y13.1473 I-4.5124 J3.0676
G2 X4.3665 Y12.7334 I-4.7124 J3.921
G2 X3.9526 Y12.3557 I-4.3348 J4.3349
G2 X3.5303 Y12.0376 I-3.49 J4.1947
G2 X3.0789 Y11.763 I-2.9437 J4.3304
G2 X2.6118 Y11.5405 I-2.3898 J4.4155
G2 X2.1242 Y11.3673 I-1.9227 J4.6381
G2 X1.6109 Y11.242 I-1.4968 J5.018
G2 X1.0875 Y11.168 I-1.0249 J5.36
G2 X0.5277 Y11.142 I-0.5633 J6.105
G1 X0.5277 Y10.842
G1 X0.7061 Y10.842
G1 X0.7061 Y10.5199
G1 X0.5277 Y10.5199
G1 X0.5277 Y10.217
G3 X1.183 Y10.247 I0 J7.1727
G3 X1.7958 Y10.3334 I-0.5832 J6.3565
G3 X2.3967 Y10.4798 I-1.1475 J6.0163
G3 X2.9674 Y10.6824 I-1.6763 J5.6278
G3 X3.5143 Y10.9427 I-2.247 J5.4252
G3 X4.0427 Y11.264 I-2.914 J5.3869
G3 X4.5371 Y11.6362 I-3.5876 J5.2792
G3 X5.0216 Y12.0784 I-4.5867 J5.5137
G3 X5.4638 Y12.5629 I-5.0712 J5.0715
G3 X5.836 Y13.0572 I-4.9064 J4.082
G3 X6.1574 Y13.5856 I-5.0649 J3.4424
G3 X6.4177 Y14.1324 I-5.164 J2.7938
G3 X6.6203 Y14.7031 I-5.4243 J2.247
G3 X6.7667 Y15.304 I-5.8688 J1.7483
G3 X6.8531 Y15.9167 I-6.269 J1.1958
G3 X6.8831 Y16.572 I-7.1413 J0.6552
G1 X6.5792 Y16.572
G1 X6.5792 Y16.7494
G1 X6.2589 Y16.7494
G0 Z0.2
M5


(Drills)

G21
G90
G01 X20.436 Y26.466 Z5 F1500
G01 Z-20 F500
G01 Z5
G01 X20.436 Y34.644 F1500
G01 Z-20 F500
G01 Z5
G01 X19.138 Y137.878 F1500
G01 Z-20 F500
G01 Z5
G01 X19.138 Y146.058 F1500
G01 Z-20 F500
G01 Z5
G01 X17.935 Y267.206 F1500
G01 Z-20 F500
G01 Z5
G01 X17.935 Y275.386 F1500
G01 Z-20 F500
G01 Z5
G01 X160.178 Y291.600 F1500
G01 Z-20 F500
G01 Z5
G01 X168.313 Y291.600 F1500
G01 Z-20 F500
G01 Z5
G01 X158.975 Y420.928 F1500
G01 Z-20 F500
G01 Z5
G01 X167.110 Y420.928 F1500
G01 Z-20 F500
G01 Z5
G01 X157.658 Y577.153 F1500
G01 Z-20 F500
G01 Z5
G01 X165.793 Y577.153 F1500
G01 Z-20 F500
G01 Z5

M30