(Generated by PartKam Version 0.05)

G20 G90 G40

(follow path 1)
G0 Z0.2
T0 M6
G17
M3
G0 X0.6021 Y6.8085
G1 Z-0.132 F20
G3 X0.631 Y6.1718 I7.1264 J0.0044 F40
G3 X0.7136 Y5.5744 I6.3541 J0.574
G3 X0.8532 Y4.988 I6.0312 J1.1265
G3 X1.0464 Y4.4295 I5.6617 J1.6461
G3 X1.2946 Y3.8932 I5.4685 J2.2045
G3 X1.6007 Y3.3739 I5.4323 J2.8521
G3 X1.9555 Y2.8862 I5.3305 J3.5058
G3 X2.3763 Y2.4075 I5.5577 J4.4606
G3 X2.8382 Y1.9683 I5.137 J4.9394
G3 X3.3115 Y1.5946 I4.1854 J4.8153
G3 X3.8184 Y1.2684 I3.5698 J4.99
G3 X4.3446 Y0.9994 I2.9434 J5.1089
G3 X4.8951 Y0.7844 I2.4173 J5.3779
G3 X5.4755 Y0.6219 I1.9426 J5.8198
G3 X6.0692 Y0.516 I1.4164 J6.2208
G3 X6.7043 Y0.4621 I0.9189 J7.0669
G1 X6.7043 Y1.3912
G2 X6.165 Y1.4408 I0.2868 J6.0777
G2 X5.6609 Y1.5342 I0.7405 J5.4034
G2 X5.1682 Y1.6754 I1.1975 J5.1088
G2 X4.7011 Y1.8607 I1.625 J4.7762
G2 X4.2547 Y2.0917 I2.0921 J4.5908
G2 X3.8249 Y2.3709 I2.6402 J4.5347
G2 X3.4237 Y2.6901 I3.1909 J4.423
G2 X3.0324 Y3.0646 I4.0075 J4.5782
G2 X2.6761 Y3.4723 I4.3987 J4.2038
G2 X2.3754 Y3.8877 I4.2623 J3.4026
G2 X2.1159 Y4.3297 I4.3902 J2.8741
G2 X1.9054 Y4.786 I4.4704 J2.3384
G2 X1.7414 Y5.2611 I4.6809 J1.882
G2 X1.6227 Y5.7596 I5.0391 J1.4634
G2 X1.5522 Y6.2675 I5.3609 J1.0028
G2 X1.5271 Y6.8085 I6.0593 J0.5521
G1 X1.2286 Y6.8085
G1 X1.2286 Y6.6262
G1 X0.9066 Y6.6262
G1 X0.9066 Y6.8085
G1 X0.6021 Y6.8085
G0 Z0.2
G0 X0.6021 Y6.8085
G1 Z-0.264 F20
G3 X0.631 Y6.1718 I7.1264 J0.0044 F40
G3 X0.7136 Y5.5744 I6.3541 J0.574
G3 X0.8532 Y4.988 I6.0312 J1.1265
G3 X1.0464 Y4.4295 I5.6617 J1.6461
G3 X1.2946 Y3.8932 I5.4685 J2.2045
G3 X1.6007 Y3.3739 I5.4323 J2.8521
G3 X1.9555 Y2.8862 I5.3305 J3.5058
G3 X2.3763 Y2.4075 I5.5577 J4.4606
G3 X2.8382 Y1.9683 I5.137 J4.9394
G3 X3.3115 Y1.5946 I4.1854 J4.8153
G3 X3.8184 Y1.2684 I3.5698 J4.99
G3 X4.3446 Y0.9994 I2.9434 J5.1089
G3 X4.8951 Y0.7844 I2.4173 J5.3779
G3 X5.4755 Y0.6219 I1.9426 J5.8198
G3 X6.0692 Y0.516 I1.4164 J6.2208
G3 X6.7043 Y0.4621 I0.9189 J7.0669
G1 X6.7043 Y1.3912
G2 X6.165 Y1.4408 I0.2868 J6.0777
G2 X5.6609 Y1.5342 I0.7405 J5.4034
G2 X5.1682 Y1.6754 I1.1975 J5.1088
G2 X4.7011 Y1.8607 I1.625 J4.7762
G2 X4.2547 Y2.0917 I2.0921 J4.5908
G2 X3.8249 Y2.3709 I2.6402 J4.5347
G2 X3.4237 Y2.6901 I3.1909 J4.423
G2 X3.0324 Y3.0646 I4.0075 J4.5782
G2 X2.6761 Y3.4723 I4.3987 J4.2038
G2 X2.3754 Y3.8877 I4.2623 J3.4026
G2 X2.1159 Y4.3297 I4.3902 J2.8741
G2 X1.9054 Y4.786 I4.4704 J2.3384
G2 X1.7414 Y5.2611 I4.6809 J1.882
G2 X1.6227 Y5.7596 I5.0391 J1.4634
G2 X1.5522 Y6.2675 I5.3609 J1.0028
G2 X1.5271 Y6.8085 I6.0593 J0.5521
G1 X1.2286 Y6.8085
G1 X1.2286 Y6.6262
G1 X0.9066 Y6.6262
G1 X0.9066 Y6.8085
G1 X0.6021 Y6.8085
G0 Z0.2
G0 X0.6021 Y6.8085
G1 Z-0.396 F20
G3 X0.631 Y6.1718 I7.1264 J0.0044 F40
G3 X0.7136 Y5.5744 I6.3541 J0.574
G3 X0.8532 Y4.988 I6.0312 J1.1265
G3 X1.0464 Y4.4295 I5.6617 J1.6461
G3 X1.2946 Y3.8932 I5.4685 J2.2045
G3 X1.6007 Y3.3739 I5.4323 J2.8521
G3 X1.9555 Y2.8862 I5.3305 J3.5058
G3 X2.3763 Y2.4075 I5.5577 J4.4606
G3 X2.8382 Y1.9683 I5.137 J4.9394
G3 X3.3115 Y1.5946 I4.1854 J4.8153
G3 X3.8184 Y1.2684 I3.5698 J4.99
G3 X4.3446 Y0.9994 I2.9434 J5.1089
G3 X4.8951 Y0.7844 I2.4173 J5.3779
G3 X5.4755 Y0.6219 I1.9426 J5.8198
G3 X6.0692 Y0.516 I1.4164 J6.2208
G3 X6.7043 Y0.4621 I0.9189 J7.0669
G1 X6.7043 Y1.3912
G2 X6.165 Y1.4408 I0.2868 J6.0777
G2 X5.6609 Y1.5342 I0.7405 J5.4034
G2 X5.1682 Y1.6754 I1.1975 J5.1088
G2 X4.7011 Y1.8607 I1.625 J4.7762
G2 X4.2547 Y2.0917 I2.0921 J4.5908
G2 X3.8249 Y2.3709 I2.6402 J4.5347
G2 X3.4237 Y2.6901 I3.1909 J4.423
G2 X3.0324 Y3.0646 I4.0075 J4.5782
G2 X2.6761 Y3.4723 I4.3987 J4.2038
G2 X2.3754 Y3.8877 I4.2623 J3.4026
G2 X2.1159 Y4.3297 I4.3902 J2.8741
G2 X1.9054 Y4.786 I4.4704 J2.3384
G2 X1.7414 Y5.2611 I4.6809 J1.882
G2 X1.6227 Y5.7596 I5.0391 J1.4634
G2 X1.5522 Y6.2675 I5.3609 J1.0028
G2 X1.5271 Y6.8085 I6.0593 J0.5521
G1 X1.2286 Y6.8085
G1 X1.2286 Y6.6262
G1 X0.9066 Y6.6262
G1 X0.9066 Y6.8085
G1 X0.6021 Y6.8085
G0 Z0.2
G0 X0.6021 Y6.8085
G1 Z-0.528 F20
G3 X0.631 Y6.1718 I7.1264 J0.0044 F40
G3 X0.7136 Y5.5744 I6.3541 J0.574
G3 X0.8532 Y4.988 I6.0312 J1.1265
G3 X1.0464 Y4.4295 I5.6617 J1.6461
G3 X1.2946 Y3.8932 I5.4685 J2.2045
G3 X1.6007 Y3.3739 I5.4323 J2.8521
G3 X1.9555 Y2.8862 I5.3305 J3.5058
G3 X2.3763 Y2.4075 I5.5577 J4.4606
G3 X2.8382 Y1.9683 I5.137 J4.9394
G3 X3.3115 Y1.5946 I4.1854 J4.8153
G3 X3.8184 Y1.2684 I3.5698 J4.99
G3 X4.3446 Y0.9994 I2.9434 J5.1089
G3 X4.8951 Y0.7844 I2.4173 J5.3779
G3 X5.4755 Y0.6219 I1.9426 J5.8198
G3 X6.0692 Y0.516 I1.4164 J6.2208
G3 X6.7043 Y0.4621 I0.9189 J7.0669
G1 X6.7043 Y1.3912
G2 X6.165 Y1.4408 I0.2868 J6.0777
G2 X5.6609 Y1.5342 I0.7405 J5.4034
G2 X5.1682 Y1.6754 I1.1975 J5.1088
G2 X4.7011 Y1.8607 I1.625 J4.7762
G2 X4.2547 Y2.0917 I2.0921 J4.5908
G2 X3.8249 Y2.3709 I2.6402 J4.5347
G2 X3.4237 Y2.6901 I3.1909 J4.423
G2 X3.0324 Y3.0646 I4.0075 J4.5782
G2 X2.6761 Y3.4723 I4.3987 J4.2038
G2 X2.3754 Y3.8877 I4.2623 J3.4026
G2 X2.1159 Y4.3297 I4.3902 J2.8741
G2 X1.9054 Y4.786 I4.4704 J2.3384
G2 X1.7414 Y5.2611 I4.6809 J1.882
G2 X1.6227 Y5.7596 I5.0391 J1.4634
G2 X1.5522 Y6.2675 I5.3609 J1.0028
G2 X1.5271 Y6.8085 I6.0593 J0.5521
G1 X1.2286 Y6.8085
G1 X1.2286 Y6.6262
G1 X0.9066 Y6.6262
G1 X0.9066 Y6.8085
G1 X0.6021 Y6.8085
G0 Z0.2
G0 X0.6021 Y6.8085
G1 Z-0.66 F20
G3 X0.631 Y6.1718 I7.1264 J0.0044 F40
G3 X0.7136 Y5.5744 I6.3541 J0.574
G3 X0.8532 Y4.988 I6.0312 J1.1265
G3 X1.0464 Y4.4295 I5.6617 J1.6461
G3 X1.2946 Y3.8932 I5.4685 J2.2045
G3 X1.6007 Y3.3739 I5.4323 J2.8521
G3 X1.9555 Y2.8862 I5.3305 J3.5058
G3 X2.3763 Y2.4075 I5.5577 J4.4606
G3 X2.8382 Y1.9683 I5.137 J4.9394
G3 X3.3115 Y1.5946 I4.1854 J4.8153
G3 X3.8184 Y1.2684 I3.5698 J4.99
G3 X4.3446 Y0.9994 I2.9434 J5.1089
G3 X4.8951 Y0.7844 I2.4173 J5.3779
G3 X5.4755 Y0.6219 I1.9426 J5.8198
G3 X6.0692 Y0.516 I1.4164 J6.2208
G3 X6.7043 Y0.4621 I0.9189 J7.0669
G1 X6.7043 Y1.3912
G2 X6.165 Y1.4408 I0.2868 J6.0777
G2 X5.6609 Y1.5342 I0.7405 J5.4034
G2 X5.1682 Y1.6754 I1.1975 J5.1088
G2 X4.7011 Y1.8607 I1.625 J4.7762
G2 X4.2547 Y2.0917 I2.0921 J4.5908
G2 X3.8249 Y2.3709 I2.6402 J4.5347
G2 X3.4237 Y2.6901 I3.1909 J4.423
G2 X3.0324 Y3.0646 I4.0075 J4.5782
G2 X2.6761 Y3.4723 I4.3987 J4.2038
G2 X2.3754 Y3.8877 I4.2623 J3.4026
G2 X2.1159 Y4.3297 I4.3902 J2.8741
G2 X1.9054 Y4.786 I4.4704 J2.3384
G2 X1.7414 Y5.2611 I4.6809 J1.882
G2 X1.6227 Y5.7596 I5.0391 J1.4634
G2 X1.5522 Y6.2675 I5.3609 J1.0028
G2 X1.5271 Y6.8085 I6.0593 J0.5521
G1 X1.2286 Y6.8085
G1 X1.2286 Y6.6262
G1 X0.9066 Y6.6262
G1 X0.9066 Y6.8085
G1 X0.6021 Y6.8085
G0 Z0.2
G0 X0.6021 Y6.8085
G1 Z-0.79 F20
G3 X0.631 Y6.1718 I7.1264 J0.0044 F40
G3 X0.7136 Y5.5744 I6.3541 J0.574
G3 X0.8532 Y4.988 I6.0312 J1.1265
G3 X1.0464 Y4.4295 I5.6617 J1.6461
G3 X1.2946 Y3.8932 I5.4685 J2.2045
G3 X1.6007 Y3.3739 I5.4323 J2.8521
G3 X1.9555 Y2.8862 I5.3305 J3.5058
G3 X2.3763 Y2.4075 I5.5577 J4.4606
G3 X2.8382 Y1.9683 I5.137 J4.9394
G3 X3.3115 Y1.5946 I4.1854 J4.8153
G3 X3.8184 Y1.2684 I3.5698 J4.99
G3 X4.3446 Y0.9994 I2.9434 J5.1089
G3 X4.8951 Y0.7844 I2.4173 J5.3779
G3 X5.4755 Y0.6219 I1.9426 J5.8198
G3 X6.0692 Y0.516 I1.4164 J6.2208
G3 X6.7043 Y0.4621 I0.9189 J7.0669
G1 X6.7043 Y1.3912
G2 X6.165 Y1.4408 I0.2868 J6.0777
G2 X5.6609 Y1.5342 I0.7405 J5.4034
G2 X5.1682 Y1.6754 I1.1975 J5.1088
G2 X4.7011 Y1.8607 I1.625 J4.7762
G2 X4.2547 Y2.0917 I2.0921 J4.5908
G2 X3.8249 Y2.3709 I2.6402 J4.5347
G2 X3.4237 Y2.6901 I3.1909 J4.423
G2 X3.0324 Y3.0646 I4.0075 J4.5782
G2 X2.6761 Y3.4723 I4.3987 J4.2038
G2 X2.3754 Y3.8877 I4.2623 J3.4026
G2 X2.1159 Y4.3297 I4.3902 J2.8741
G2 X1.9054 Y4.786 I4.4704 J2.3384
G2 X1.7414 Y5.2611 I4.6809 J1.882
G2 X1.6227 Y5.7596 I5.0391 J1.4634
G2 X1.5522 Y6.2675 I5.3609 J1.0028
G2 X1.5271 Y6.8085 I6.0593 J0.5521
G1 X1.2286 Y6.8085
G1 X1.2286 Y6.6262
G1 X0.9066 Y6.6262
G1 X0.9066 Y6.8085
G1 X0.6021 Y6.8085
G0 Z0.2
G0 X16.2449 Y6.7033
G1 Z-0.132 F20
G3 X16.2985 Y6.0684 I7.1209 J0.2821 F40
G3 X16.4043 Y5.4748 I6.3273 J0.8211
G3 X16.5666 Y4.8944 I5.9832 J1.3605
G3 X16.7814 Y4.344 I5.5938 J1.8652
G3 X17.0501 Y3.8178 I5.3791 J2.4156
G3 X17.376 Y3.3109 I5.3175 J3.061
G3 X17.7494 Y2.8375 I5.1904 J3.71
G3 X18.1883 Y2.3756 I5.3801 J4.6724
G3 X18.6667 Y1.9547 I4.9411 J5.1343
G3 X19.1541 Y1.5997 I3.9954 J4.9735
G3 X19.6731 Y1.2935 I3.3736 J5.1243
G3 X20.2092 Y1.0451 I2.7433 J5.2187
G3 X20.7674 Y0.8517 I2.2072 J5.467
G3 X21.3535 Y0.7118 I1.7159 J5.89
G3 X21.9507 Y0.6289 I1.1747 J6.2701
G3 X22.5872 Y0.5996 I0.645 J7.0958
G1 X22.5872 Y0.9035
G1 X22.7646 Y0.9035
G1 X22.7646 Y1.2238
G1 X22.5872 Y1.2238
G1 X22.5872 Y1.5248
G2 X22.0459 Y1.5495 I0.0067 J6.0845
G2 X21.5377 Y1.6197 I0.4912 J5.4311
G2 X21.0387 Y1.7382 I0.9615 J5.1576
G2 X20.5633 Y1.9021 I1.404 J4.8447
G2 X20.1067 Y2.1125 I1.8794 J4.6808
G2 X19.6643 Y2.3719 I2.43 J4.65
G2 X19.2487 Y2.6727 I2.9856 J4.5638
G2 X18.8405 Y3.0292 I3.7951 J4.7566
G2 X18.4657 Y3.4206 I4.2033 J4.4002
G2 X18.1462 Y3.8221 I4.1032 J3.5929
G2 X17.8668 Y4.2521 I4.2549 J3.0704
G2 X17.6358 Y4.6987 I4.3594 J2.5385
G2 X17.4503 Y5.1661 I4.5906 J2.0919
G2 X17.3091 Y5.6591 I4.9678 J1.6898
G2 X17.2157 Y6.1636 I5.3105 J1.244
G2 X17.1662 Y6.7033 I6.0295 J0.8251
G1 X16.2449 Y6.7033
G0 Z0.2
G0 X16.2449 Y6.7033
G1 Z-0.264 F20
G3 X16.2985 Y6.0684 I7.1209 J0.2821 F40
G3 X16.4043 Y5.4748 I6.3273 J0.8211
G3 X16.5666 Y4.8944 I5.9832 J1.3605
G3 X16.7814 Y4.344 I5.5938 J1.8652
G3 X17.0501 Y3.8178 I5.3791 J2.4156
G3 X17.376 Y3.3109 I5.3175 J3.061
G3 X17.7494 Y2.8375 I5.1904 J3.71
G3 X18.1883 Y2.3756 I5.3801 J4.6724
G3 X18.6667 Y1.9547 I4.9411 J5.1343
G3 X19.1541 Y1.5997 I3.9954 J4.9735
G3 X19.6731 Y1.2935 I3.3736 J5.1243
G3 X20.2092 Y1.0451 I2.7433 J5.2187
G3 X20.7674 Y0.8517 I2.2072 J5.467
G3 X21.3535 Y0.7118 I1.7159 J5.89
G3 X21.9507 Y0.6289 I1.1747 J6.2701
G3 X22.5872 Y0.5996 I0.645 J7.0958
G1 X22.5872 Y0.9035
G1 X22.7646 Y0.9035
G1 X22.7646 Y1.2238
G1 X22.5872 Y1.2238
G1 X22.5872 Y1.5248
G2 X22.0459 Y1.5495 I0.0067 J6.0845
G2 X21.5377 Y1.6197 I0.4912 J5.4311
G2 X21.0387 Y1.7382 I0.9615 J5.1576
G2 X20.5633 Y1.9021 I1.404 J4.8447
G2 X20.1067 Y2.1125 I1.8794 J4.6808
G2 X19.6643 Y2.3719 I2.43 J4.65
G2 X19.2487 Y2.6727 I2.9856 J4.5638
G2 X18.8405 Y3.0292 I3.7951 J4.7566
G2 X18.4657 Y3.4206 I4.2033 J4.4002
G2 X18.1462 Y3.8221 I4.1032 J3.5929
G2 X17.8668 Y4.2521 I4.2549 J3.0704
G2 X17.6358 Y4.6987 I4.3594 J2.5385
G2 X17.4503 Y5.1661 I4.5906 J2.0919
G2 X17.3091 Y5.6591 I4.9678 J1.6898
G2 X17.2157 Y6.1636 I5.3105 J1.244
G2 X17.1662 Y6.7033 I6.0295 J0.8251
G1 X16.2449 Y6.7033
G0 Z0.2
G0 X16.2449 Y6.7033
G1 Z-0.396 F20
G3 X16.2985 Y6.0684 I7.1209 J0.2821 F40
G3 X16.4043 Y5.4748 I6.3273 J0.8211
G3 X16.5666 Y4.8944 I5.9832 J1.3605
G3 X16.7814 Y4.344 I5.5938 J1.8652
G3 X17.0501 Y3.8178 I5.3791 J2.4156
G3 X17.376 Y3.3109 I5.3175 J3.061
G3 X17.7494 Y2.8375 I5.1904 J3.71
G3 X18.1883 Y2.3756 I5.3801 J4.6724
G3 X18.6667 Y1.9547 I4.9411 J5.1343
G3 X19.1541 Y1.5997 I3.9954 J4.9735
G3 X19.6731 Y1.2935 I3.3736 J5.1243
G3 X20.2092 Y1.0451 I2.7433 J5.2187
G3 X20.7674 Y0.8517 I2.2072 J5.467
G3 X21.3535 Y0.7118 I1.7159 J5.89
G3 X21.9507 Y0.6289 I1.1747 J6.2701
G3 X22.5872 Y0.5996 I0.645 J7.0958
G1 X22.5872 Y0.9035
G1 X22.7646 Y0.9035
G1 X22.7646 Y1.2238
G1 X22.5872 Y1.2238
G1 X22.5872 Y1.5248
G2 X22.0459 Y1.5495 I0.0067 J6.0845
G2 X21.5377 Y1.6197 I0.4912 J5.4311
G2 X21.0387 Y1.7382 I0.9615 J5.1576
G2 X20.5633 Y1.9021 I1.404 J4.8447
G2 X20.1067 Y2.1125 I1.8794 J4.6808
G2 X19.6643 Y2.3719 I2.43 J4.65
G2 X19.2487 Y2.6727 I2.9856 J4.5638
G2 X18.8405 Y3.0292 I3.7951 J4.7566
G2 X18.4657 Y3.4206 I4.2033 J4.4002
G2 X18.1462 Y3.8221 I4.1032 J3.5929
G2 X17.8668 Y4.2521 I4.2549 J3.0704
G2 X17.6358 Y4.6987 I4.3594 J2.5385
G2 X17.4503 Y5.1661 I4.5906 J2.0919
G2 X17.3091 Y5.6591 I4.9678 J1.6898
G2 X17.2157 Y6.1636 I5.3105 J1.244
G2 X17.1662 Y6.7033 I6.0295 J0.8251
G1 X16.2449 Y6.7033
G0 Z0.2
G0 X16.2449 Y6.7033
G1 Z-0.528 F20
G3 X16.2985 Y6.0684 I7.1209 J0.2821 F40
G3 X16.4043 Y5.4748 I6.3273 J0.8211
G3 X16.5666 Y4.8944 I5.9832 J1.3605
G3 X16.7814 Y4.344 I5.5938 J1.8652
G3 X17.0501 Y3.8178 I5.3791 J2.4156
G3 X17.376 Y3.3109 I5.3175 J3.061
G3 X17.7494 Y2.8375 I5.1904 J3.71
G3 X18.1883 Y2.3756 I5.3801 J4.6724
G3 X18.6667 Y1.9547 I4.9411 J5.1343
G3 X19.1541 Y1.5997 I3.9954 J4.9735
G3 X19.6731 Y1.2935 I3.3736 J5.1243
G3 X20.2092 Y1.0451 I2.7433 J5.2187
G3 X20.7674 Y0.8517 I2.2072 J5.467
G3 X21.3535 Y0.7118 I1.7159 J5.89
G3 X21.9507 Y0.6289 I1.1747 J6.2701
G3 X22.5872 Y0.5996 I0.645 J7.0958
G1 X22.5872 Y0.9035
G1 X22.7646 Y0.9035
G1 X22.7646 Y1.2238
G1 X22.5872 Y1.2238
G1 X22.5872 Y1.5248
G2 X22.0459 Y1.5495 I0.0067 J6.0845
G2 X21.5377 Y1.6197 I0.4912 J5.4311
G2 X21.0387 Y1.7382 I0.9615 J5.1576
G2 X20.5633 Y1.9021 I1.404 J4.8447
G2 X20.1067 Y2.1125 I1.8794 J4.6808
G2 X19.6643 Y2.3719 I2.43 J4.65
G2 X19.2487 Y2.6727 I2.9856 J4.5638
G2 X18.8405 Y3.0292 I3.7951 J4.7566
G2 X18.4657 Y3.4206 I4.2033 J4.4002
G2 X18.1462 Y3.8221 I4.1032 J3.5929
G2 X17.8668 Y4.2521 I4.2549 J3.0704
G2 X17.6358 Y4.6987 I4.3594 J2.5385
G2 X17.4503 Y5.1661 I4.5906 J2.0919
G2 X17.3091 Y5.6591 I4.9678 J1.6898
G2 X17.2157 Y6.1636 I5.3105 J1.244
G2 X17.1662 Y6.7033 I6.0295 J0.8251
G1 X16.2449 Y6.7033
G0 Z0.2
G0 X16.2449 Y6.7033
G1 Z-0.66 F20
G3 X16.2985 Y6.0684 I7.1209 J0.2821 F40
G3 X16.4043 Y5.4748 I6.3273 J0.8211
G3 X16.5666 Y4.8944 I5.9832 J1.3605
G3 X16.7814 Y4.344 I5.5938 J1.8652
G3 X17.0501 Y3.8178 I5.3791 J2.4156
G3 X17.376 Y3.3109 I5.3175 J3.061
G3 X17.7494 Y2.8375 I5.1904 J3.71
G3 X18.1883 Y2.3756 I5.3801 J4.6724
G3 X18.6667 Y1.9547 I4.9411 J5.1343
G3 X19.1541 Y1.5997 I3.9954 J4.9735
G3 X19.6731 Y1.2935 I3.3736 J5.1243
G3 X20.2092 Y1.0451 I2.7433 J5.2187
G3 X20.7674 Y0.8517 I2.2072 J5.467
G3 X21.3535 Y0.7118 I1.7159 J5.89
G3 X21.9507 Y0.6289 I1.1747 J6.2701
G3 X22.5872 Y0.5996 I0.645 J7.0958
G1 X22.5872 Y0.9035
G1 X22.7646 Y0.9035
G1 X22.7646 Y1.2238
G1 X22.5872 Y1.2238
G1 X22.5872 Y1.5248
G2 X22.0459 Y1.5495 I0.0067 J6.0845
G2 X21.5377 Y1.6197 I0.4912 J5.4311
G2 X21.0387 Y1.7382 I0.9615 J5.1576
G2 X20.5633 Y1.9021 I1.404 J4.8447
G2 X20.1067 Y2.1125 I1.8794 J4.6808
G2 X19.6643 Y2.3719 I2.43 J4.65
G2 X19.2487 Y2.6727 I2.9856 J4.5638
G2 X18.8405 Y3.0292 I3.7951 J4.7566
G2 X18.4657 Y3.4206 I4.2033 J4.4002
G2 X18.1462 Y3.8221 I4.1032 J3.5929
G2 X17.8668 Y4.2521 I4.2549 J3.0704
G2 X17.6358 Y4.6987 I4.3594 J2.5385
G2 X17.4503 Y5.1661 I4.5906 J2.0919
G2 X17.3091 Y5.6591 I4.9678 J1.6898
G2 X17.2157 Y6.1636 I5.3105 J1.244
G2 X17.1662 Y6.7033 I6.0295 J0.8251
G1 X16.2449 Y6.7033
G0 Z0.2
G0 X16.2449 Y6.7033
G1 Z-0.79 F20
G3 X16.2985 Y6.0684 I7.1209 J0.2821 F40
G3 X16.4043 Y5.4748 I6.3273 J0.8211
G3 X16.5666 Y4.8944 I5.9832 J1.3605
G3 X16.7814 Y4.344 I5.5938 J1.8652
G3 X17.0501 Y3.8178 I5.3791 J2.4156
G3 X17.376 Y3.3109 I5.3175 J3.061
G3 X17.7494 Y2.8375 I5.1904 J3.71
G3 X18.1883 Y2.3756 I5.3801 J4.6724
G3 X18.6667 Y1.9547 I4.9411 J5.1343
G3 X19.1541 Y1.5997 I3.9954 J4.9735
G3 X19.6731 Y1.2935 I3.3736 J5.1243
G3 X20.2092 Y1.0451 I2.7433 J5.2187
G3 X20.7674 Y0.8517 I2.2072 J5.467
G3 X21.3535 Y0.7118 I1.7159 J5.89
G3 X21.9507 Y0.6289 I1.1747 J6.2701
G3 X22.5872 Y0.5996 I0.645 J7.0958
G1 X22.5872 Y0.9035
G1 X22.7646 Y0.9035
G1 X22.7646 Y1.2238
G1 X22.5872 Y1.2238
G1 X22.5872 Y1.5248
G2 X22.0459 Y1.5495 I0.0067 J6.0845
G2 X21.5377 Y1.6197 I0.4912 J5.4311
G2 X21.0387 Y1.7382 I0.9615 J5.1576
G2 X20.5633 Y1.9021 I1.404 J4.8447
G2 X20.1067 Y2.1125 I1.8794 J4.6808
G2 X19.6643 Y2.3719 I2.43 J4.65
G2 X19.2487 Y2.6727 I2.9856 J4.5638
G2 X18.8405 Y3.0292 I3.7951 J4.7566
G2 X18.4657 Y3.4206 I4.2033 J4.4002
G2 X18.1462 Y3.8221 I4.1032 J3.5929
G2 X17.8668 Y4.2521 I4.2549 J3.0704
G2 X17.6358 Y4.6987 I4.3594 J2.5385
G2 X17.4503 Y5.1661 I4.5906 J2.0919
G2 X17.3091 Y5.6591 I4.9678 J1.6898
G2 X17.2157 Y6.1636 I5.3105 J1.244
G2 X17.1662 Y6.7033 I6.0295 J0.8251
G1 X16.2449 Y6.7033
G0 Z0.2
G0 X11.5224 Y1.1246
G1 Z-0.132 F20
G1 X11.345 Y1.1246 F40
G1 X11.345 Y1.4256
G2 X10.7853 Y1.4515 I0.0034 J6.1298
G2 X10.2618 Y1.5255 I0.5012 J5.433
G2 X9.7485 Y1.6508 I0.9832 J5.1424
G2 X9.261 Y1.824 I1.4349 J4.8106
G2 X8.7939 Y2.0465 I1.9225 J4.6374
G2 X8.3425 Y2.3212 I2.4922 J4.6046
G2 X7.9203 Y2.6392 I3.0676 J4.5124
G2 X7.5064 Y3.0169 I3.921 J4.7124
G2 X7.1287 Y3.4308 I4.3349 J4.3348
G2 X6.8106 Y3.8531 I4.1947 J3.49
G2 X6.536 Y4.3045 I4.3304 J2.9437
G2 X6.3135 Y4.7716 I4.4155 J2.3898
G2 X6.1403 Y5.2592 I4.6381 J1.9227
G2 X6.015 Y5.7725 I5.018 J1.4968
G2 X5.941 Y6.296 I5.36 J1.0249
G2 X5.915 Y6.8557 I6.105 J0.5633
G1 X5.615 Y6.8557
G1 X5.615 Y6.6773
G1 X5.2929 Y6.6773
G1 X5.2929 Y6.8557
G1 X4.99 Y6.8557
G3 X5.02 Y6.2004 I7.1727 J0
G3 X5.1064 Y5.5877 I6.3565 J0.5832
G3 X5.2528 Y4.9867 I6.0163 J1.1475
G3 X5.4554 Y4.416 I5.6278 J1.6763
G3 X5.7157 Y3.8692 I5.4252 J2.247
G3 X6.037 Y3.3407 I5.3869 J2.914
G3 X6.4092 Y2.8464 I5.2792 J3.5876
G3 X6.8514 Y2.3618 I5.5137 J4.5867
G3 X7.3359 Y1.9197 I5.0715 J5.0712
G3 X7.8302 Y1.5474 I4.082 J4.9064
G3 X8.3586 Y1.226 I3.4424 J5.0649
G3 X8.9054 Y0.9657 I2.7938 J5.164
G3 X9.4761 Y0.7631 I2.247 J5.4243
G3 X10.077 Y0.6167 I1.7483 J5.8688
G3 X10.6897 Y0.5304 I1.1958 J6.269
G3 X11.345 Y0.5004 I0.6552 J7.1413
G1 X11.345 Y0.8043
G1 X11.5224 Y0.8043
G1 X11.5224 Y1.1246
G0 Z0.2
G0 X11.5224 Y1.1246
G1 Z-0.264 F20
G1 X11.345 Y1.1246 F40
G1 X11.345 Y1.4256
G2 X10.7853 Y1.4515 I0.0034 J6.1298
G2 X10.2618 Y1.5255 I0.5012 J5.433
G2 X9.7485 Y1.6508 I0.9832 J5.1424
G2 X9.261 Y1.824 I1.4349 J4.8106
G2 X8.7939 Y2.0465 I1.9225 J4.6374
G2 X8.3425 Y2.3212 I2.4922 J4.6046
G2 X7.9203 Y2.6392 I3.0676 J4.5124
G2 X7.5064 Y3.0169 I3.921 J4.7124
G2 X7.1287 Y3.4308 I4.3349 J4.3348
G2 X6.8106 Y3.8531 I4.1947 J3.49
G2 X6.536 Y4.3045 I4.3304 J2.9437
G2 X6.3135 Y4.7716 I4.4155 J2.3898
G2 X6.1403 Y5.2592 I4.6381 J1.9227
G2 X6.015 Y5.7725 I5.018 J1.4968
G2 X5.941 Y6.296 I5.36 J1.0249
G2 X5.915 Y6.8557 I6.105 J0.5633
G1 X5.615 Y6.8557
G1 X5.615 Y6.6773
G1 X5.2929 Y6.6773
G1 X5.2929 Y6.8557
G1 X4.99 Y6.8557
G3 X5.02 Y6.2004 I7.1727 J0
G3 X5.1064 Y5.5877 I6.3565 J0.5832
G3 X5.2528 Y4.9867 I6.0163 J1.1475
G3 X5.4554 Y4.416 I5.6278 J1.6763
G3 X5.7157 Y3.8692 I5.4252 J2.247
G3 X6.037 Y3.3407 I5.3869 J2.914
G3 X6.4092 Y2.8464 I5.2792 J3.5876
G3 X6.8514 Y2.3618 I5.5137 J4.5867
G3 X7.3359 Y1.9197 I5.0715 J5.0712
G3 X7.8302 Y1.5474 I4.082 J4.9064
G3 X8.3586 Y1.226 I3.4424 J5.0649
G3 X8.9054 Y0.9657 I2.7938 J5.164
G3 X9.4761 Y0.7631 I2.247 J5.4243
G3 X10.077 Y0.6167 I1.7483 J5.8688
G3 X10.6897 Y0.5304 I1.1958 J6.269
G3 X11.345 Y0.5004 I0.6552 J7.1413
G1 X11.345 Y0.8043
G1 X11.5224 Y0.8043
G1 X11.5224 Y1.1246
G0 Z0.2
G0 X11.5224 Y1.1246
G1 Z-0.396 F20
G1 X11.345 Y1.1246 F40
G1 X11.345 Y1.4256
G2 X10.7853 Y1.4515 I0.0034 J6.1298
G2 X10.2618 Y1.5255 I0.5012 J5.433
G2 X9.7485 Y1.6508 I0.9832 J5.1424
G2 X9.261 Y1.824 I1.4349 J4.8106
G2 X8.7939 Y2.0465 I1.9225 J4.6374
G2 X8.3425 Y2.3212 I2.4922 J4.6046
G2 X7.9203 Y2.6392 I3.0676 J4.5124
G2 X7.5064 Y3.0169 I3.921 J4.7124
G2 X7.1287 Y3.4308 I4.3349 J4.3348
G2 X6.8106 Y3.8531 I4.1947 J3.49
G2 X6.536 Y4.3045 I4.3304 J2.9437
G2 X6.3135 Y4.7716 I4.4155 J2.3898
G2 X6.1403 Y5.2592 I4.6381 J1.9227
G2 X6.015 Y5.7725 I5.018 J1.4968
G2 X5.941 Y6.296 I5.36 J1.0249
G2 X5.915 Y6.8557 I6.105 J0.5633
G1 X5.615 Y6.8557
G1 X5.615 Y6.6773
G1 X5.2929 Y6.6773
G1 X5.2929 Y6.8557
G1 X4.99 Y6.8557
G3 X5.02 Y6.2004 I7.1727 J0
G3 X5.1064 Y5.5877 I6.3565 J0.5832
G3 X5.2528 Y4.9867 I6.0163 J1.1475
G3 X5.4554 Y4.416 I5.6278 J1.6763
G3 X5.7157 Y3.8692 I5.4252 J2.247
G3 X6.037 Y3.3407 I5.3869 J2.914
G3 X6.4092 Y2.8464 I5.2792 J3.5876
G3 X6.8514 Y2.3618 I5.5137 J4.5867
G3 X7.3359 Y1.9197 I5.0715 J5.0712
G3 X7.8302 Y1.5474 I4.082 J4.9064
G3 X8.3586 Y1.226 I3.4424 J5.0649
G3 X8.9054 Y0.9657 I2.7938 J5.164
G3 X9.4761 Y0.7631 I2.247 J5.4243
G3 X10.077 Y0.6167 I1.7483 J5.8688
G3 X10.6897 Y0.5304 I1.1958 J6.269
G3 X11.345 Y0.5004 I0.6552 J7.1413
G1 X11.345 Y0.8043
G1 X11.5224 Y0.8043
G1 X11.5224 Y1.1246
G0 Z0.2
G0 X11.5224 Y1.1246
G1 Z-0.528 F20
G1 X11.345 Y1.1246 F40
G1 X11.345 Y1.4256
G2 X10.7853 Y1.4515 I0.0034 J6.1298
G2 X10.2618 Y1.5255 I0.5012 J5.433
G2 X9.7485 Y1.6508 I0.9832 J5.1424
G2 X9.261 Y1.824 I1.4349 J4.8106
G2 X8.7939 Y2.0465 I1.9225 J4.6374
G2 X8.3425 Y2.3212 I2.4922 J4.6046
G2 X7.9203 Y2.6392 I3.0676 J4.5124
G2 X7.5064 Y3.0169 I3.921 J4.7124
G2 X7.1287 Y3.4308 I4.3349 J4.3348
G2 X6.8106 Y3.8531 I4.1947 J3.49
G2 X6.536 Y4.3045 I4.3304 J2.9437
G2 X6.3135 Y4.7716 I4.4155 J2.3898
G2 X6.1403 Y5.2592 I4.6381 J1.9227
G2 X6.015 Y5.7725 I5.018 J1.4968
G2 X5.941 Y6.296 I5.36 J1.0249
G2 X5.915 Y6.8557 I6.105 J0.5633
G1 X5.615 Y6.8557
G1 X5.615 Y6.6773
G1 X5.2929 Y6.6773
G1 X5.2929 Y6.8557
G1 X4.99 Y6.8557
G3 X5.02 Y6.2004 I7.1727 J0
G3 X5.1064 Y5.5877 I6.3565 J0.5832
G3 X5.2528 Y4.9867 I6.0163 J1.1475
G3 X5.4554 Y4.416 I5.6278 J1.6763
G3 X5.7157 Y3.8692 I5.4252 J2.247
G3 X6.037 Y3.3407 I5.3869 J2.914
G3 X6.4092 Y2.8464 I5.2792 J3.5876
G3 X6.8514 Y2.3618 I5.5137 J4.5867
G3 X7.3359 Y1.9197 I5.0715 J5.0712
G3 X7.8302 Y1.5474 I4.082 J4.9064
G3 X8.3586 Y1.226 I3.4424 J5.0649
G3 X8.9054 Y0.9657 I2.7938 J5.164
G3 X9.4761 Y0.7631 I2.247 J5.4243
G3 X10.077 Y0.6167 I1.7483 J5.8688
G3 X10.6897 Y0.5304 I1.1958 J6.269
G3 X11.345 Y0.5004 I0.6552 J7.1413
G1 X11.345 Y0.8043
G1 X11.5224 Y0.8043
G1 X11.5224 Y1.1246
G0 Z0.2
G0 X11.5224 Y1.1246
G1 Z-0.66 F20
G1 X11.345 Y1.1246 F40
G1 X11.345 Y1.4256
G2 X10.7853 Y1.4515 I0.0034 J6.1298
G2 X10.2618 Y1.5255 I0.5012 J5.433
G2 X9.7485 Y1.6508 I0.9832 J5.1424
G2 X9.261 Y1.824 I1.4349 J4.8106
G2 X8.7939 Y2.0465 I1.9225 J4.6374
G2 X8.3425 Y2.3212 I2.4922 J4.6046
G2 X7.9203 Y2.6392 I3.0676 J4.5124
G2 X7.5064 Y3.0169 I3.921 J4.7124
G2 X7.1287 Y3.4308 I4.3349 J4.3348
G2 X6.8106 Y3.8531 I4.1947 J3.49
G2 X6.536 Y4.3045 I4.3304 J2.9437
G2 X6.3135 Y4.7716 I4.4155 J2.3898
G2 X6.1403 Y5.2592 I4.6381 J1.9227
G2 X6.015 Y5.7725 I5.018 J1.4968
G2 X5.941 Y6.296 I5.36 J1.0249
G2 X5.915 Y6.8557 I6.105 J0.5633
G1 X5.615 Y6.8557
G1 X5.615 Y6.6773
G1 X5.2929 Y6.6773
G1 X5.2929 Y6.8557
G1 X4.99 Y6.8557
G3 X5.02 Y6.2004 I7.1727 J0
G3 X5.1064 Y5.5877 I6.3565 J0.5832
G3 X5.2528 Y4.9867 I6.0163 J1.1475
G3 X5.4554 Y4.416 I5.6278 J1.6763
G3 X5.7157 Y3.8692 I5.4252 J2.247
G3 X6.037 Y3.3407 I5.3869 J2.914
G3 X6.4092 Y2.8464 I5.2792 J3.5876
G3 X6.8514 Y2.3618 I5.5137 J4.5867
G3 X7.3359 Y1.9197 I5.0715 J5.0712
G3 X7.8302 Y1.5474 I4.082 J4.9064
G3 X8.3586 Y1.226 I3.4424 J5.0649
G3 X8.9054 Y0.9657 I2.7938 J5.164
G3 X9.4761 Y0.7631 I2.247 J5.4243
G3 X10.077 Y0.6167 I1.7483 J5.8688
G3 X10.6897 Y0.5304 I1.1958 J6.269
G3 X11.345 Y0.5004 I0.6552 J7.1413
G1 X11.345 Y0.8043
G1 X11.5224 Y0.8043
G1 X11.5224 Y1.1246
G0 Z0.2
G0 X11.5224 Y1.1246
G1 Z-0.79 F20
G1 X11.345 Y1.1246 F40
G1 X11.345 Y1.4256
G2 X10.7853 Y1.4515 I0.0034 J6.1298
G2 X10.2618 Y1.5255 I0.5012 J5.433
G2 X9.7485 Y1.6508 I0.9832 J5.1424
G2 X9.261 Y1.824 I1.4349 J4.8106
G2 X8.7939 Y2.0465 I1.9225 J4.6374
G2 X8.3425 Y2.3212 I2.4922 J4.6046
G2 X7.9203 Y2.6392 I3.0676 J4.5124
G2 X7.5064 Y3.0169 I3.921 J4.7124
G2 X7.1287 Y3.4308 I4.3349 J4.3348
G2 X6.8106 Y3.8531 I4.1947 J3.49
G2 X6.536 Y4.3045 I4.3304 J2.9437
G2 X6.3135 Y4.7716 I4.4155 J2.3898
G2 X6.1403 Y5.2592 I4.6381 J1.9227
G2 X6.015 Y5.7725 I5.018 J1.4968
G2 X5.941 Y6.296 I5.36 J1.0249
G2 X5.915 Y6.8557 I6.105 J0.5633
G1 X5.615 Y6.8557
G1 X5.615 Y6.6773
G1 X5.2929 Y6.6773
G1 X5.2929 Y6.8557
G1 X4.99 Y6.8557
G3 X5.02 Y6.2004 I7.1727 J0
G3 X5.1064 Y5.5877 I6.3565 J0.5832
G3 X5.2528 Y4.9867 I6.0163 J1.1475
G3 X5.4554 Y4.416 I5.6278 J1.6763
G3 X5.7157 Y3.8692 I5.4252 J2.247
G3 X6.037 Y3.3407 I5.3869 J2.914
G3 X6.4092 Y2.8464 I5.2792 J3.5876
G3 X6.8514 Y2.3618 I5.5137 J4.5867
G3 X7.3359 Y1.9197 I5.0715 J5.0712
G3 X7.8302 Y1.5474 I4.082 J4.9064
G3 X8.3586 Y1.226 I3.4424 J5.0649
G3 X8.9054 Y0.9657 I2.7938 J5.164
G3 X9.4761 Y0.7631 I2.247 J5.4243
G3 X10.077 Y0.6167 I1.7483 J5.8688
G3 X10.6897 Y0.5304 I1.1958 J6.269
G3 X11.345 Y0.5004 I0.6552 J7.1413
G1 X11.345 Y0.8043
G1 X11.5224 Y0.8043
G1 X11.5224 Y1.1246
G0 Z0.2
G0 X16.614 Y1.1719
G1 Z-0.132 F20
G1 X16.4366 Y1.1719 F40
G1 X16.4366 Y1.4729
G2 X15.8769 Y1.4989 I0.0034 J6.1298
G2 X15.3535 Y1.5729 I0.5012 J5.433
G2 X14.8402 Y1.6982 I0.9832 J5.1424
G2 X14.3527 Y1.8714 I1.4349 J4.8106
G2 X13.8856 Y2.0939 I1.9225 J4.6374
G2 X13.4342 Y2.3685 I2.4922 J4.6046
G2 X13.0119 Y2.6866 I3.0676 J4.5124
G2 X12.598 Y3.0643 I3.921 J4.7124
G2 X12.2203 Y3.4782 I4.3349 J4.3348
G2 X11.9023 Y3.9005 I4.1947 J3.49
G2 X11.6277 Y4.3519 I4.3304 J2.9437
G2 X11.4052 Y4.819 I4.4155 J2.3898
G2 X11.2319 Y5.3065 I4.6381 J1.9227
G2 X11.1066 Y5.8199 I5.018 J1.4968
G2 X11.0326 Y6.3433 I5.36 J1.0249
G2 X11.0067 Y6.9031 I6.105 J0.5633
G1 X10.7066 Y6.9031
G1 X10.7066 Y6.7247
G1 X10.3846 Y6.7247
G1 X10.3846 Y6.9031
G1 X10.0817 Y6.9031
G3 X10.1117 Y6.2478 I7.1727 J0
G3 X10.198 Y5.635 I6.3565 J0.5832
G3 X10.3444 Y5.0341 I6.0163 J1.1475
G3 X10.547 Y4.4634 I5.6278 J1.6763
G3 X10.8073 Y3.9165 I5.4252 J2.247
G3 X11.1287 Y3.3881 I5.3869 J2.914
G3 X11.5009 Y2.8937 I5.2792 J3.5876
G3 X11.943 Y2.4092 I5.5137 J4.5867
G3 X12.4276 Y1.967 I5.0715 J5.0712
G3 X12.9219 Y1.5948 I4.082 J4.9064
G3 X13.4503 Y1.2734 I3.4424 J5.0649
G3 X13.9971 Y1.0131 I2.7938 J5.164
G3 X14.5678 Y0.8105 I2.247 J5.4243
G3 X15.1687 Y0.6641 I1.7483 J5.8688
G3 X15.7814 Y0.5777 I1.1958 J6.269
G3 X16.4366 Y0.5477 I0.6552 J7.1413
G1 X16.4366 Y0.8516
G1 X16.614 Y0.8516
G1 X16.614 Y1.1719
G0 Z0.2
G0 X16.614 Y1.1719
G1 Z-0.264 F20
G1 X16.4366 Y1.1719 F40
G1 X16.4366 Y1.4729
G2 X15.8769 Y1.4989 I0.0034 J6.1298
G2 X15.3535 Y1.5729 I0.5012 J5.433
G2 X14.8402 Y1.6982 I0.9832 J5.1424
G2 X14.3527 Y1.8714 I1.4349 J4.8106
G2 X13.8856 Y2.0939 I1.9225 J4.6374
G2 X13.4342 Y2.3685 I2.4922 J4.6046
G2 X13.0119 Y2.6866 I3.0676 J4.5124
G2 X12.598 Y3.0643 I3.921 J4.7124
G2 X12.2203 Y3.4782 I4.3349 J4.3348
G2 X11.9023 Y3.9005 I4.1947 J3.49
G2 X11.6277 Y4.3519 I4.3304 J2.9437
G2 X11.4052 Y4.819 I4.4155 J2.3898
G2 X11.2319 Y5.3065 I4.6381 J1.9227
G2 X11.1066 Y5.8199 I5.018 J1.4968
G2 X11.0326 Y6.3433 I5.36 J1.0249
G2 X11.0067 Y6.9031 I6.105 J0.5633
G1 X10.7066 Y6.9031
G1 X10.7066 Y6.7247
G1 X10.3846 Y6.7247
G1 X10.3846 Y6.9031
G1 X10.0817 Y6.9031
G3 X10.1117 Y6.2478 I7.1727 J0
G3 X10.198 Y5.635 I6.3565 J0.5832
G3 X10.3444 Y5.0341 I6.0163 J1.1475
G3 X10.547 Y4.4634 I5.6278 J1.6763
G3 X10.8073 Y3.9165 I5.4252 J2.247
G3 X11.1287 Y3.3881 I5.3869 J2.914
G3 X11.5009 Y2.8937 I5.2792 J3.5876
G3 X11.943 Y2.4092 I5.5137 J4.5867
G3 X12.4276 Y1.967 I5.0715 J5.0712
G3 X12.9219 Y1.5948 I4.082 J4.9064
G3 X13.4503 Y1.2734 I3.4424 J5.0649
G3 X13.9971 Y1.0131 I2.7938 J5.164
G3 X14.5678 Y0.8105 I2.247 J5.4243
G3 X15.1687 Y0.6641 I1.7483 J5.8688
G3 X15.7814 Y0.5777 I1.1958 J6.269
G3 X16.4366 Y0.5477 I0.6552 J7.1413
G1 X16.4366 Y0.8516
G1 X16.614 Y0.8516
G1 X16.614 Y1.1719
G0 Z0.2
G0 X16.614 Y1.1719
G1 Z-0.396 F20
G1 X16.4366 Y1.1719 F40
G1 X16.4366 Y1.4729
G2 X15.8769 Y1.4989 I0.0034 J6.1298
G2 X15.3535 Y1.5729 I0.5012 J5.433
G2 X14.8402 Y1.6982 I0.9832 J5.1424
G2 X14.3527 Y1.8714 I1.4349 J4.8106
G2 X13.8856 Y2.0939 I1.9225 J4.6374
G2 X13.4342 Y2.3685 I2.4922 J4.6046
G2 X13.0119 Y2.6866 I3.0676 J4.5124
G2 X12.598 Y3.0643 I3.921 J4.7124
G2 X12.2203 Y3.4782 I4.3349 J4.3348
G2 X11.9023 Y3.9005 I4.1947 J3.49
G2 X11.6277 Y4.3519 I4.3304 J2.9437
G2 X11.4052 Y4.819 I4.4155 J2.3898
G2 X11.2319 Y5.3065 I4.6381 J1.9227
G2 X11.1066 Y5.8199 I5.018 J1.4968
G2 X11.0326 Y6.3433 I5.36 J1.0249
G2 X11.0067 Y6.9031 I6.105 J0.5633
G1 X10.7066 Y6.9031
G1 X10.7066 Y6.7247
G1 X10.3846 Y6.7247
G1 X10.3846 Y6.9031
G1 X10.0817 Y6.9031
G3 X10.1117 Y6.2478 I7.1727 J0
G3 X10.198 Y5.635 I6.3565 J0.5832
G3 X10.3444 Y5.0341 I6.0163 J1.1475
G3 X10.547 Y4.4634 I5.6278 J1.6763
G3 X10.8073 Y3.9165 I5.4252 J2.247
G3 X11.1287 Y3.3881 I5.3869 J2.914
G3 X11.5009 Y2.8937 I5.2792 J3.5876
G3 X11.943 Y2.4092 I5.5137 J4.5867
G3 X12.4276 Y1.967 I5.0715 J5.0712
G3 X12.9219 Y1.5948 I4.082 J4.9064
G3 X13.4503 Y1.2734 I3.4424 J5.0649
G3 X13.9971 Y1.0131 I2.7938 J5.164
G3 X14.5678 Y0.8105 I2.247 J5.4243
G3 X15.1687 Y0.6641 I1.7483 J5.8688
G3 X15.7814 Y0.5777 I1.1958 J6.269
G3 X16.4366 Y0.5477 I0.6552 J7.1413
G1 X16.4366 Y0.8516
G1 X16.614 Y0.8516
G1 X16.614 Y1.1719
G0 Z0.2
G0 X16.614 Y1.1719
G1 Z-0.528 F20
G1 X16.4366 Y1.1719 F40
G1 X16.4366 Y1.4729
G2 X15.8769 Y1.4989 I0.0034 J6.1298
G2 X15.3535 Y1.5729 I0.5012 J5.433
G2 X14.8402 Y1.6982 I0.9832 J5.1424
G2 X14.3527 Y1.8714 I1.4349 J4.8106
G2 X13.8856 Y2.0939 I1.9225 J4.6374
G2 X13.4342 Y2.3685 I2.4922 J4.6046
G2 X13.0119 Y2.6866 I3.0676 J4.5124
G2 X12.598 Y3.0643 I3.921 J4.7124
G2 X12.2203 Y3.4782 I4.3349 J4.3348
G2 X11.9023 Y3.9005 I4.1947 J3.49
G2 X11.6277 Y4.3519 I4.3304 J2.9437
G2 X11.4052 Y4.819 I4.4155 J2.3898
G2 X11.2319 Y5.3065 I4.6381 J1.9227
G2 X11.1066 Y5.8199 I5.018 J1.4968
G2 X11.0326 Y6.3433 I5.36 J1.0249
G2 X11.0067 Y6.9031 I6.105 J0.5633
G1 X10.7066 Y6.9031
G1 X10.7066 Y6.7247
G1 X10.3846 Y6.7247
G1 X10.3846 Y6.9031
G1 X10.0817 Y6.9031
G3 X10.1117 Y6.2478 I7.1727 J0
G3 X10.198 Y5.635 I6.3565 J0.5832
G3 X10.3444 Y5.0341 I6.0163 J1.1475
G3 X10.547 Y4.4634 I5.6278 J1.6763
G3 X10.8073 Y3.9165 I5.4252 J2.247
G3 X11.1287 Y3.3881 I5.3869 J2.914
G3 X11.5009 Y2.8937 I5.2792 J3.5876
G3 X11.943 Y2.4092 I5.5137 J4.5867
G3 X12.4276 Y1.967 I5.0715 J5.0712
G3 X12.9219 Y1.5948 I4.082 J4.9064
G3 X13.4503 Y1.2734 I3.4424 J5.0649
G3 X13.9971 Y1.0131 I2.7938 J5.164
G3 X14.5678 Y0.8105 I2.247 J5.4243
G3 X15.1687 Y0.6641 I1.7483 J5.8688
G3 X15.7814 Y0.5777 I1.1958 J6.269
G3 X16.4366 Y0.5477 I0.6552 J7.1413
G1 X16.4366 Y0.8516
G1 X16.614 Y0.8516
G1 X16.614 Y1.1719
G0 Z0.2
G0 X16.614 Y1.1719
G1 Z-0.66 F20
G1 X16.4366 Y1.1719 F40
G1 X16.4366 Y1.4729
G2 X15.8769 Y1.4989 I0.0034 J6.1298
G2 X15.3535 Y1.5729 I0.5012 J5.433
G2 X14.8402 Y1.6982 I0.9832 J5.1424
G2 X14.3527 Y1.8714 I1.4349 J4.8106
G2 X13.8856 Y2.0939 I1.9225 J4.6374
G2 X13.4342 Y2.3685 I2.4922 J4.6046
G2 X13.0119 Y2.6866 I3.0676 J4.5124
G2 X12.598 Y3.0643 I3.921 J4.7124
G2 X12.2203 Y3.4782 I4.3349 J4.3348
G2 X11.9023 Y3.9005 I4.1947 J3.49
G2 X11.6277 Y4.3519 I4.3304 J2.9437
G2 X11.4052 Y4.819 I4.4155 J2.3898
G2 X11.2319 Y5.3065 I4.6381 J1.9227
G2 X11.1066 Y5.8199 I5.018 J1.4968
G2 X11.0326 Y6.3433 I5.36 J1.0249
G2 X11.0067 Y6.9031 I6.105 J0.5633
G1 X10.7066 Y6.9031
G1 X10.7066 Y6.7247
G1 X10.3846 Y6.7247
G1 X10.3846 Y6.9031
G1 X10.0817 Y6.9031
G3 X10.1117 Y6.2478 I7.1727 J0
G3 X10.198 Y5.635 I6.3565 J0.5832
G3 X10.3444 Y5.0341 I6.0163 J1.1475
G3 X10.547 Y4.4634 I5.6278 J1.6763
G3 X10.8073 Y3.9165 I5.4252 J2.247
G3 X11.1287 Y3.3881 I5.3869 J2.914
G3 X11.5009 Y2.8937 I5.2792 J3.5876
G3 X11.943 Y2.4092 I5.5137 J4.5867
G3 X12.4276 Y1.967 I5.0715 J5.0712
G3 X12.9219 Y1.5948 I4.082 J4.9064
G3 X13.4503 Y1.2734 I3.4424 J5.0649
G3 X13.9971 Y1.0131 I2.7938 J5.164
G3 X14.5678 Y0.8105 I2.247 J5.4243
G3 X15.1687 Y0.6641 I1.7483 J5.8688
G3 X15.7814 Y0.5777 I1.1958 J6.269
G3 X16.4366 Y0.5477 I0.6552 J7.1413
G1 X16.4366 Y0.8516
G1 X16.614 Y0.8516
G1 X16.614 Y1.1719
G0 Z0.2
G0 X16.614 Y1.1719
G1 Z-0.79 F20
G1 X16.4366 Y1.1719 F40
G1 X16.4366 Y1.4729
G2 X15.8769 Y1.4989 I0.0034 J6.1298
G2 X15.3535 Y1.5729 I0.5012 J5.433
G2 X14.8402 Y1.6982 I0.9832 J5.1424
G2 X14.3527 Y1.8714 I1.4349 J4.8106
G2 X13.8856 Y2.0939 I1.9225 J4.6374
G2 X13.4342 Y2.3685 I2.4922 J4.6046
G2 X13.0119 Y2.6866 I3.0676 J4.5124
G2 X12.598 Y3.0643 I3.921 J4.7124
G2 X12.2203 Y3.4782 I4.3349 J4.3348
G2 X11.9023 Y3.9005 I4.1947 J3.49
G2 X11.6277 Y4.3519 I4.3304 J2.9437
G2 X11.4052 Y4.819 I4.4155 J2.3898
G2 X11.2319 Y5.3065 I4.6381 J1.9227
G2 X11.1066 Y5.8199 I5.018 J1.4968
G2 X11.0326 Y6.3433 I5.36 J1.0249
G2 X11.0067 Y6.9031 I6.105 J0.5633
G1 X10.7066 Y6.9031
G1 X10.7066 Y6.7247
G1 X10.3846 Y6.7247
G1 X10.3846 Y6.9031
G1 X10.0817 Y6.9031
G3 X10.1117 Y6.2478 I7.1727 J0
G3 X10.198 Y5.635 I6.3565 J0.5832
G3 X10.3444 Y5.0341 I6.0163 J1.1475
G3 X10.547 Y4.4634 I5.6278 J1.6763
G3 X10.8073 Y3.9165 I5.4252 J2.247
G3 X11.1287 Y3.3881 I5.3869 J2.914
G3 X11.5009 Y2.8937 I5.2792 J3.5876
G3 X11.943 Y2.4092 I5.5137 J4.5867
G3 X12.4276 Y1.967 I5.0715 J5.0712
G3 X12.9219 Y1.5948 I4.082 J4.9064
G3 X13.4503 Y1.2734 I3.4424 J5.0649
G3 X13.9971 Y1.0131 I2.7938 J5.164
G3 X14.5678 Y0.8105 I2.247 J5.4243
G3 X15.1687 Y0.6641 I1.7483 J5.8688
G3 X15.7814 Y0.5777 I1.1958 J6.269
G3 X16.4366 Y0.5477 I0.6552 J7.1413
G1 X16.4366 Y0.8516
G1 X16.614 Y0.8516
G1 X16.614 Y1.1719
G0 Z0.2


(Drills)

G21
G90
G01 X23.028 Y168.306 Z5 F1500
G01 Z-20 F500
G01 Z5
G01 X31.206 Y168.306 F1500
G01 Z-20 F500
G01 Z5
G01 X134.440 Y169.604 F1500
G01 Z-20 F500
G01 Z5
G01 X142.620 Y169.604 F1500
G01 Z-20 F500
G01 Z5
G01 X263.768 Y170.807 F1500
G01 Z-20 F500
G01 Z5
G01 X271.949 Y170.807 F1500
G01 Z-20 F500
G01 Z5
G01 X288.162 Y28.564 F1500
G01 Z-20 F500
G01 Z5
G01 X288.162 Y20.429 F1500
G01 Z-20 F500
G01 Z5
G01 X417.490 Y29.766 F1500
G01 Z-20 F500
G01 Z5
G01 X417.490 Y21.631 F1500
G01 Z-20 F500
G01 Z5
G01 X573.715 Y31.084 F1500
G01 Z-20 F500
G01 Z5
G01 X573.715 Y22.949 F1500
G01 Z-20 F500
G01 Z5

M30